%
(AR15LEFTJAW)
(T31  D=0.5 CR=0. - ZMIN=-0.32 - FLAT END MILL)
N10 G90 G54 G64 G50 G17 G40 G80 G94 G91.1 G49
N20 G20
N30 G28 G91 Z0.
N40 G90

(POCKET2)
N50 M9
N60 M998
N70 T31 G43 H31 M6
N80 S7640 M3
N90 G4 P2.
N100 G54
N110 G0 X3.1507 Y-1.2129
N120 M8
N130 G4 P2.
N140 G0 Z0.6
N150 G0 Z0.092
N160 G3 X3.1511 Y-1.2123 Z0.0834 R0.2375 F92.
N170 G3 X3.1522 Y-1.2104 Z0.0752 R0.2375
N180 G3 X3.1539 Y-1.2073 Z0.0674 R0.2375
N190 G3 X3.1561 Y-1.203 Z0.0603 R0.2375
N200 G3 X3.1588 Y-1.1976 Z0.0542 R0.2375
N210 G3 X3.1617 Y-1.1913 Z0.0491 R0.2375
N220 G3 X3.1647 Y-1.1842 Z0.0454 R0.2375
N230 G3 X3.1676 Y-1.1765 Z0.043 R0.2375
N240 G3 X3.1704 Y-1.1685 Z0.042 R0.2375
N250 G3 X2.7186 Y-1.0218 Z0.022 R0.2375
N260 G3 X3.1704 Y-1.1685 Z0.002 R0.2375
N270 G3 X2.7186 Y-1.0218 Z-0.018 R0.2375
N280 G3 X2.9074 Y-1.3297 Z-0.029 R0.2375
N290 G3 X3.182 Y-1.0951 Z-0.04 R0.2375
N300 G1 Y-0.818
N310 G3 X3.0302 Y-0.6663 R0.1517
N320 G1 X2.8569
N330 G3 X2.7052 Y-0.818 R0.1517
N340 G1 Y-1.1819
N350 G3 X2.8569 Y-1.3335 R0.1517
N360 G1 X3.0303
N370 G3 X3.182 Y-1.1819 R0.1517
N380 G1 Y-1.0951
N390 G2 X3.3627 Y-0.8497 R0.2569
N400 G3 X3.5475 Y-0.6075 R0.2631
N410 G3 X3.5502 Y-0.4497 R4.5843
N420 G3 X3.3985 Y-0.298 R0.1517
N430 G1 X2.4886
N440 G3 X2.3369 Y-0.4497 R0.1517
N450 G1 Y-1.5608
N460 G3 X2.478 Y-1.7019 R0.1411
N470 G1 X3.4812
N480 G3 X3.5735 Y-1.5728 R0.0976
N490 G2 X3.5157 Y-1.0122 R1.259
N500 G3 X3.5475 Y-0.6075 R4.5843
N510 G3 X3.5468 Y-0.5989 Z-0.0392 R0.05
N520 G3 X3.5446 Y-0.5907 Z-0.037 R0.05
N530 G3 X3.5414 Y-0.5835 Z-0.0333 R0.05
N540 G3 X3.5376 Y-0.5775 Z-0.0283 R0.05
N550 G3 X3.5336 Y-0.5728 Z-0.0221 R0.05
N560 G3 X3.5299 Y-0.5694 Z-0.015 R0.05
N570 G3 X3.527 Y-0.5671 Z-0.0071 R0.05
N580 G3 X3.5252 Y-0.5658 Z0.0013 R0.05
N590 G3 X3.5245 Y-0.5654 Z0.01 R0.05
N600 G0 Z0.2
N610 G0 X0.0073 Y-1.6717
N620 G0 Z0.092
N630 G3 X0.0072 Y-1.6724 Z0.0834 R0.2375 F92.
N640 G3 X0.0066 Y-1.6745 Z0.0752 R0.2375
N650 G3 X0.0058 Y-1.678 Z0.0674 R0.2375
N660 G3 X0.0049 Y-1.6827 Z0.0603 R0.2375
N670 G3 X0.0038 Y-1.6886 Z0.0542 R0.2375
N680 G3 X0.0027 Y-1.6954 Z0.0491 R0.2375
N690 G3 X0.0017 Y-1.7031 Z0.0454 R0.2375
N700 G3 X0.001 Y-1.7113 Z0.043 R0.2375
N710 G3 X0.0005 Y-1.7198 Z0.042 R0.2375
N720 G3 X0.4751 Y-1.7383 Z0.022 R0.2375
N730 G3 X0.0005 Y-1.7198 Z0.002 R0.2375
N740 G3 X0.4751 Y-1.7383 Z-0.018 R0.2375
N750 G3 X0.2098 Y-1.4932 Z-0.029 R0.2375
N760 G3 X0.0092 Y-1.7935 Z-0.04 R0.2375
N770 G3 X0.2456 Y-1.9259 R0.1916
N780 G3 X0.3779 Y-1.6895 R0.1916
N790 G2 X0.3685 Y-1.6532 R0.973
N800 G2 X0.3601 Y-1.5988 R0.3262
N810 G2 X0.3503 Y-0.9342 R6.3009
N820 G3 X0.3629 Y-0.2696 R17.5522
N830 G3 X0.2797 Y-0.1864 R0.0832
N840 G1 X0.2697
N850 G3 X0.1865 Y-0.2696 R0.0832
N860 G1 Y-1.7304
N870 G3 X0.2697 Y-1.8136 R0.0832
N880 G1 X0.3032
N890 G3 X0.3829 Y-1.7063 R0.0832
N900 G2 X0.3779 Y-1.6895 R0.973
N910 G2 X0.4522 Y-1.5188 R0.147
N920 G3 X0.5491 Y-1.3599 R0.1787
N930 G1 X0.5492 Y0.
N940 G1 X0.0002 Y-0.0001
N950 G1 Y-1.9999
N960 G1 X5.2498
N970 G1 X5.2499 Y-1.5726
N980 G1 X3.9872 Y-1.5724
N990 G2 X3.8868 Y-1.5275 R0.135
N1000 G1 X3.8829 Y-1.5232
N1010 G2 X3.8484 Y-1.4331 R0.135
N1020 G1 X3.8482 Y-0.0002
N1030 G1 X3.8284 Y0.
N1040 G1 X2.0389
N1050 G1 X2.0388 Y-1.5769
N1060 G2 X2.0383 Y-1.5887 R0.135
N1070 G1 X2.0371 Y-1.6032
N1080 G2 X2.0356 Y-1.6143 R0.135
N1090 G1 X2.0343 Y-1.6221
N1100 G2 X2.0327 Y-1.63 R0.135
N1110 G1 X2.0308 Y-1.6378
N1120 G2 X2.0288 Y-1.6456 R0.135
N1130 G1 X2.0264 Y-1.6535
N1140 G2 X2.0238 Y-1.6613 R0.135
N1150 G1 X2.0209 Y-1.6691
N1160 G2 X2.0175 Y-1.6776 R0.135
N1170 G1 X2.0134 Y-1.6868
N1180 G2 X2.0089 Y-1.6959 R0.135
N1190 G1 X2.004 Y-1.7051
N1200 G2 X1.9985 Y-1.7143 R0.135
N1210 G1 X1.9926 Y-1.7234
N1220 G2 X1.9861 Y-1.7326 R0.135
N1230 G1 X1.9791 Y-1.7418
N1240 G2 X1.9722 Y-1.75 R0.135
N1250 G1 X1.9655 Y-1.7573
N1260 G2 X1.9576 Y-1.7654 R0.135
N1270 G1 X1.9483 Y-1.774
N1280 G2 X1.939 Y-1.7819 R0.135
N1290 G1 X1.9298 Y-1.7891
N1300 G2 X1.9205 Y-1.7957 R0.135
N1310 G1 X1.9112 Y-1.8017
N1320 G2 X1.902 Y-1.8072 R0.135
N1330 G1 X1.8927 Y-1.8123
N1340 G2 X1.8815 Y-1.8177 R0.135
N1350 G1 X1.8683 Y-1.8233
N1360 G2 X1.8577 Y-1.8273 R0.135
N1370 G1 X1.8498 Y-1.8299
N1380 G2 X1.8418 Y-1.8323 R0.135
N1390 G1 X1.8338 Y-1.8344
N1400 G2 X1.8259 Y-1.8363 R0.135
N1410 G1 X1.8179 Y-1.8378
N1420 G2 X1.8093 Y-1.8393 R0.135
N1430 G1 X1.8001 Y-1.8405
N1440 G2 X1.7908 Y-1.8414 R0.135
N1450 G1 X1.7815 Y-1.842
N1460 G2 X1.7729 Y-1.8423 R0.135
N1470 G1 X0.8282 Y-1.8424
N1480 G2 X0.8258 Y-1.8423 R0.135
N1490 G1 X0.8073 Y-1.842
N1500 G2 X0.7956 Y-1.8413 R0.135
N1510 G1 X0.7864 Y-1.8403
N1520 G2 X0.7771 Y-1.839 R0.135
N1530 G1 X0.7679 Y-1.8374
N1540 G2 X0.7566 Y-1.835 R0.135
N1550 G1 X0.7434 Y-1.8315
N1560 G2 X0.7301 Y-1.8272 R0.135
N1570 G1 X0.7169 Y-1.8222
N1580 G2 X0.705 Y-1.817 R0.135
N1590 G1 X0.6944 Y-1.8118
N1600 G2 X0.6845 Y-1.8064 R0.135
N1610 G1 X0.6752 Y-1.8008
N1620 G2 X0.6659 Y-1.7947 R0.135
N1630 G1 X0.6567 Y-1.788
N1640 G2 X0.6474 Y-1.7807 R0.135
N1650 G1 X0.6381 Y-1.7727
N1660 G2 X0.6288 Y-1.7639 R0.135
N1670 G1 X0.6196 Y-1.7542
N1680 G2 X0.6107 Y-1.744 R0.135
N1690 G1 X0.6024 Y-1.7334
N1700 G2 X0.5953 Y-1.7234 R0.135
N1710 G1 X0.5894 Y-1.7143
N1720 G2 X0.584 Y-1.7051 R0.135
N1730 G1 X0.579 Y-1.6959
N1740 G2 X0.5745 Y-1.6868 R0.135
N1750 G1 X0.5704 Y-1.6776
N1760 G2 X0.5668 Y-1.6685 R0.135
N1770 G1 X0.5635 Y-1.6593
N1780 G2 X0.5605 Y-1.6501 R0.135
N1790 G1 X0.5579 Y-1.641
N1800 G2 X0.5557 Y-1.6318 R0.135
N1810 G1 X0.5538 Y-1.6227
N1820 G2 X0.5522 Y-1.6135 R0.135
N1830 G1 X0.551 Y-1.6043
N1840 G2 X0.55 Y-1.5952 R0.135
N1850 G1 X0.5494 Y-1.586
N1860 G2 X0.5491 Y-1.5769 R0.135
N1870 G1 Y-1.3599
N1880 G3 X0.1832 Y-1.2846 Z-0.0525 R0.1907
N1890 G1 X0.0192 Y-1.666 Z-0.0625
N1900 G3 X0.3696 Y-1.8166 Z-0.0769 R0.1907
N1910 G3 X0.3779 Y-1.6895 Z-0.08 R0.1907
N1920 G2 X0.3685 Y-1.6532 R0.973
N1930 G2 X0.3601 Y-1.5988 R0.3262
N1940 G2 X0.3503 Y-0.9342 R6.3009
N1950 G3 X0.3629 Y-0.2696 R17.5522
N1960 G3 X0.2797 Y-0.1864 R0.0832
N1970 G1 X0.2697
N1980 G3 X0.1865 Y-0.2696 R0.0832
N1990 G1 Y-1.7304
N2000 G3 X0.2697 Y-1.8136 R0.0832
N2010 G1 X0.3032
N2020 G3 X0.3829 Y-1.7063 R0.0832
N2030 G2 X0.3779 Y-1.6895 R0.973
N2040 G3 X0.3749 Y-1.6814 Z-0.0792 R0.05
N2050 G3 X0.3707 Y-1.6741 Z-0.077 R0.05
N2060 G3 X0.3657 Y-1.668 Z-0.0733 R0.05
N2070 G3 X0.3604 Y-1.6632 Z-0.0683 R0.05
N2080 G3 X0.3553 Y-1.6598 Z-0.0621 R0.05
N2090 G3 X0.3509 Y-1.6574 Z-0.055 R0.05
N2100 G3 X0.3475 Y-1.656 Z-0.0471 R0.05
N2110 G3 X0.3454 Y-1.6553 Z-0.0387 R0.05
N2120 G3 X0.3446 Y-1.655 Z-0.03 R0.05
N2130 G0 Z0.2
N2140 G0 X3.1507 Y-1.2129
N2150 G0 Z0.052
N2160 G3 X3.1511 Y-1.2123 Z0.0434 R0.2375 F92.
N2170 G3 X3.1522 Y-1.2104 Z0.0352 R0.2375
N2180 G3 X3.1539 Y-1.2073 Z0.0274 R0.2375
N2190 G3 X3.1561 Y-1.203 Z0.0203 R0.2375
N2200 G3 X3.1588 Y-1.1976 Z0.0142 R0.2375
N2210 G3 X3.1617 Y-1.1913 Z0.0091 R0.2375
N2220 G3 X3.1647 Y-1.1842 Z0.0054 R0.2375
N2230 G3 X3.1676 Y-1.1765 Z0.003 R0.2375
N2240 G3 X3.1704 Y-1.1685 Z0.002 R0.2375
N2250 G3 X2.7186 Y-1.0218 Z-0.018 R0.2375
N2260 G3 X3.1704 Y-1.1685 Z-0.038 R0.2375
N2270 G3 X2.7186 Y-1.0218 Z-0.058 R0.2375
N2280 G3 X2.9074 Y-1.3297 Z-0.069 R0.2375
N2290 G3 X3.182 Y-1.0951 Z-0.08 R0.2375
N2300 G1 Y-0.818
N2310 G3 X3.0302 Y-0.6663 R0.1517
N2320 G1 X2.8569
N2330 G3 X2.7052 Y-0.818 R0.1517
N2340 G1 Y-1.1819
N2350 G3 X2.8569 Y-1.3335 R0.1517
N2360 G1 X2.9437
N2370 G1 X3.0303
N2380 G3 X3.182 Y-1.1819 R0.1517
N2390 G1 Y-1.0951
N2400 G2 X3.3627 Y-0.8497 R0.2569
N2410 G3 X3.5475 Y-0.6075 R0.2631
N2420 G3 X3.5502 Y-0.4497 R4.5843
N2430 G3 X3.3985 Y-0.298 R0.1517
N2440 G1 X2.4886
N2450 G3 X2.3369 Y-0.4497 R0.1517
N2460 G1 Y-1.5608
N2470 G3 X2.478 Y-1.7019 R0.1411
N2480 G1 X3.4812
N2490 G3 X3.5735 Y-1.5728 R0.0976
N2500 G2 X3.5157 Y-1.0122 R1.259
N2510 G3 X3.5475 Y-0.6075 R4.5843
N2520 G2 X3.6998 Y-0.3883 R0.2463
N2530 G3 X3.8482 Y-0.1664 R0.2399
N2540 G1 Y-0.0002
N2550 G1 X3.8284 Y0.
N2560 G1 X2.0389
N2570 G1 X2.0388 Y-1.5769
N2580 G2 X2.0383 Y-1.5887 R0.135
N2590 G1 X2.0371 Y-1.6032
N2600 G2 X2.0356 Y-1.6143 R0.135
N2610 G1 X2.0343 Y-1.6221
N2620 G2 X2.0327 Y-1.63 R0.135
N2630 G1 X2.0308 Y-1.6378
N2640 G2 X2.0288 Y-1.6456 R0.135
N2650 G1 X2.0264 Y-1.6535
N2660 G2 X2.0238 Y-1.6613 R0.135
N2670 G1 X2.0209 Y-1.6691
N2680 G2 X2.0175 Y-1.6776 R0.135
N2690 G1 X2.0134 Y-1.6868
N2700 G2 X2.0089 Y-1.6959 R0.135
N2710 G1 X2.004 Y-1.7051
N2720 G2 X1.9985 Y-1.7143 R0.135
N2730 G1 X1.9926 Y-1.7234
N2740 G2 X1.9861 Y-1.7326 R0.135
N2750 G1 X1.9791 Y-1.7418
N2760 G2 X1.9722 Y-1.75 R0.135
N2770 G1 X1.9655 Y-1.7573
N2780 G2 X1.9576 Y-1.7654 R0.135
N2790 G1 X1.9483 Y-1.774
N2800 G2 X1.939 Y-1.7819 R0.135
N2810 G1 X1.9298 Y-1.7891
N2820 G2 X1.9205 Y-1.7957 R0.135
N2830 G1 X1.9112 Y-1.8017
N2840 G2 X1.902 Y-1.8072 R0.135
N2850 G1 X1.8927 Y-1.8123
N2860 G2 X1.8815 Y-1.8177 R0.135
N2870 G1 X1.8683 Y-1.8233
N2880 G2 X1.8577 Y-1.8273 R0.135
N2890 G1 X1.8498 Y-1.8299
N2900 G2 X1.8418 Y-1.8323 R0.135
N2910 G1 X1.8338 Y-1.8344
N2920 G2 X1.8259 Y-1.8363 R0.135
N2930 G1 X1.8179 Y-1.8378
N2940 G2 X1.8093 Y-1.8393 R0.135
N2950 G1 X1.8001 Y-1.8405
N2960 G2 X1.7908 Y-1.8414 R0.135
N2970 G1 X1.7815 Y-1.842
N2980 G2 X1.7729 Y-1.8423 R0.135
N2990 G1 X0.8282 Y-1.8424
N3000 G2 X0.8258 Y-1.8423 R0.135
N3010 G1 X0.8073 Y-1.842
N3020 G2 X0.7956 Y-1.8413 R0.135
N3030 G1 X0.7864 Y-1.8403
N3040 G2 X0.7771 Y-1.839 R0.135
N3050 G1 X0.7679 Y-1.8374
N3060 G2 X0.7566 Y-1.835 R0.135
N3070 G1 X0.7434 Y-1.8315
N3080 G2 X0.7301 Y-1.8272 R0.135
N3090 G1 X0.7169 Y-1.8222
N3100 G2 X0.705 Y-1.817 R0.135
N3110 G1 X0.6944 Y-1.8118
N3120 G2 X0.6845 Y-1.8064 R0.135
N3130 G1 X0.6752 Y-1.8008
N3140 G2 X0.6659 Y-1.7947 R0.135
N3150 G1 X0.6567 Y-1.788
N3160 G2 X0.6474 Y-1.7807 R0.135
N3170 G1 X0.6381 Y-1.7727
N3180 G2 X0.6288 Y-1.7639 R0.135
N3190 G1 X0.6196 Y-1.7542
N3200 G2 X0.6107 Y-1.744 R0.135
N3210 G1 X0.6024 Y-1.7334
N3220 G2 X0.5953 Y-1.7234 R0.135
N3230 G1 X0.5894 Y-1.7143
N3240 G2 X0.584 Y-1.7051 R0.135
N3250 G1 X0.579 Y-1.6959
N3260 G2 X0.5745 Y-1.6868 R0.135
N3270 G1 X0.5704 Y-1.6776
N3280 G2 X0.5668 Y-1.6685 R0.135
N3290 G1 X0.5635 Y-1.6593
N3300 G2 X0.5605 Y-1.6501 R0.135
N3310 G1 X0.5579 Y-1.641
N3320 G2 X0.5557 Y-1.6318 R0.135
N3330 G1 X0.5538 Y-1.6227
N3340 G2 X0.5522 Y-1.6135 R0.135
N3350 G1 X0.551 Y-1.6043
N3360 G2 X0.55 Y-1.5952 R0.135
N3370 G1 X0.5494 Y-1.586
N3380 G2 X0.5491 Y-1.5769 R0.135
N3390 G1 X0.5492 Y0.
N3400 G1 X0.0002 Y-0.0001
N3410 G1 Y-1.9999
N3420 G1 X5.2498
N3430 G1 X5.2499 Y-1.5726
N3440 G1 X3.9872 Y-1.5724
N3450 G2 X3.8868 Y-1.5275 R0.135
N3460 G1 X3.8829 Y-1.5232
N3470 G2 X3.8484 Y-1.4331 R0.135
N3480 G1 X3.8482 Y-0.1664
N3490 G3 X3.5465 Y-0.0694 Z-0.0843 R0.1665
N3500 G1 X2.8803 Y-0.9981 Z-0.0961
N3510 G3 X3.1508 Y-1.1922 Z-0.1014 R0.1665
N3520 G3 X3.182 Y-1.0951 Z-0.1025 R0.1665
N3530 G1 Y-0.818
N3540 G3 X3.0302 Y-0.6663 R0.1517
N3550 G1 X2.8569
N3560 G3 X2.7052 Y-0.818 R0.1517
N3570 G1 Y-1.1819
N3580 G3 X2.8569 Y-1.3335 R0.1517
N3590 G1 X3.0303
N3600 G3 X3.182 Y-1.1819 R0.1517
N3610 G1 Y-1.0951
N3620 G2 X3.3627 Y-0.8497 R0.2569
N3630 G3 X3.5475 Y-0.6075 R0.2631
N3640 G3 X3.5502 Y-0.4497 R4.5843
N3650 G3 X3.3985 Y-0.298 R0.1517
N3660 G1 X2.4886
N3670 G3 X2.3369 Y-0.4497 R0.1517
N3680 G1 Y-1.5608
N3690 G3 X2.478 Y-1.7019 R0.1411
N3700 G1 X3.4812
N3710 G3 X3.5735 Y-1.5728 R0.0976
N3720 G2 X3.5157 Y-1.0122 R1.259
N3730 G3 X3.5475 Y-0.6075 R4.5843
N3740 G3 X3.5468 Y-0.5989 Z-0.1017 R0.05
N3750 G3 X3.5446 Y-0.5907 Z-0.0995 R0.05
N3760 G3 X3.5414 Y-0.5835 Z-0.0958 R0.05
N3770 G3 X3.5376 Y-0.5775 Z-0.0908 R0.05
N3780 G3 X3.5336 Y-0.5728 Z-0.0846 R0.05
N3790 G3 X3.5299 Y-0.5694 Z-0.0775 R0.05
N3800 G3 X3.527 Y-0.5671 Z-0.0696 R0.05
N3810 G3 X3.5252 Y-0.5658 Z-0.0612 R0.05
N3820 G3 X3.5245 Y-0.5654 Z-0.0525 R0.05
N3830 G0 Z0.2
N3840 G0 X0.4288 Y-1.8703
N3850 G0 Z0.012
N3860 G3 X0.4292 Y-1.8697 Z0.0034 R0.2375 F92.
N3870 G3 X0.4305 Y-1.8679 Z-0.0048 R0.2375
N3880 G3 X0.4325 Y-1.865 Z-0.0126 R0.2375
N3890 G3 X0.4353 Y-1.861 Z-0.0197 R0.2375
N3900 G3 X0.4385 Y-1.856 Z-0.0258 R0.2375
N3910 G3 X0.4421 Y-1.8501 Z-0.0309 R0.2375
N3920 G3 X0.446 Y-1.8434 Z-0.0346 R0.2375
N3930 G3 X0.4498 Y-1.8361 Z-0.037 R0.2375
N3940 G3 X0.4535 Y-1.8285 Z-0.038 R0.2375
N3950 G3 X0.0221 Y-1.6296 Z-0.058 R0.2375
N3960 G3 X0.4535 Y-1.8285 Z-0.078 R0.2375
N3970 G3 X0.0221 Y-1.6296 Z-0.098 R0.2375
N3980 G3 X0.0092 Y-1.7935 Z-0.1025 R0.2375
N3990 G3 X0.2456 Y-1.9259 R0.1916
N4000 G3 X0.3779 Y-1.6895 R0.1916
N4010 G2 X0.3685 Y-1.6532 R0.973
N4020 G2 X0.3601 Y-1.5988 R0.3262
N4030 G2 X0.3503 Y-0.9342 R6.3009
N4040 G3 X0.3629 Y-0.2696 R17.5522
N4050 G3 X0.2797 Y-0.1864 R0.0832
N4060 G1 X0.2697
N4070 G3 X0.1865 Y-0.2696 R0.0832
N4080 G1 Y-1.7304
N4090 G3 X0.2697 Y-1.8136 R0.0832
N4100 G1 X0.3032
N4110 G3 X0.3829 Y-1.7063 R0.0832
N4120 G2 X0.3779 Y-1.6895 R0.973
N4130 G2 X0.4522 Y-1.5188 R0.147
N4140 G3 X0.5491 Y-1.3599 R0.1787
N4150 G1 X0.5492 Y0.
N4160 G1 X0.0002 Y-0.0001
N4170 G1 Y-1.9999
N4180 G1 X5.2498
N4190 G1 X5.2499 Y-1.5726
N4200 G1 X3.9872 Y-1.5724
N4210 G2 X3.8868 Y-1.5275 R0.135
N4220 G1 X3.8829 Y-1.5232
N4230 G2 X3.8484 Y-1.4331 R0.135
N4240 G1 X3.8482 Y-0.0002
N4250 G1 X3.8284 Y0.
N4260 G1 X2.0389
N4270 G1 X2.0388 Y-1.5769
N4280 G2 X2.0383 Y-1.5887 R0.135
N4290 G1 X2.0371 Y-1.6032
N4300 G2 X2.0356 Y-1.6143 R0.135
N4310 G1 X2.0343 Y-1.6221
N4320 G2 X2.0327 Y-1.63 R0.135
N4330 G1 X2.0308 Y-1.6378
N4340 G2 X2.0288 Y-1.6456 R0.135
N4350 G1 X2.0264 Y-1.6535
N4360 G2 X2.0238 Y-1.6613 R0.135
N4370 G1 X2.0209 Y-1.6691
N4380 G2 X2.0175 Y-1.6776 R0.135
N4390 G1 X2.0134 Y-1.6868
N4400 G2 X2.0089 Y-1.6959 R0.135
N4410 G1 X2.004 Y-1.7051
N4420 G2 X1.9985 Y-1.7143 R0.135
N4430 G1 X1.9926 Y-1.7234
N4440 G2 X1.9861 Y-1.7326 R0.135
N4450 G1 X1.9791 Y-1.7418
N4460 G2 X1.9722 Y-1.75 R0.135
N4470 G1 X1.9655 Y-1.7573
N4480 G2 X1.9576 Y-1.7654 R0.135
N4490 G1 X1.9483 Y-1.774
N4500 G2 X1.939 Y-1.7819 R0.135
N4510 G1 X1.9298 Y-1.7891
N4520 G2 X1.9205 Y-1.7957 R0.135
N4530 G1 X1.9112 Y-1.8017
N4540 G2 X1.902 Y-1.8072 R0.135
N4550 G1 X1.8927 Y-1.8123
N4560 G2 X1.8815 Y-1.8177 R0.135
N4570 G1 X1.8683 Y-1.8233
N4580 G2 X1.8577 Y-1.8273 R0.135
N4590 G1 X1.8498 Y-1.8299
N4600 G2 X1.8418 Y-1.8323 R0.135
N4610 G1 X1.8338 Y-1.8344
N4620 G2 X1.8259 Y-1.8363 R0.135
N4630 G1 X1.8179 Y-1.8378
N4640 G2 X1.8093 Y-1.8393 R0.135
N4650 G1 X1.8001 Y-1.8405
N4660 G2 X1.7908 Y-1.8414 R0.135
N4670 G1 X1.7815 Y-1.842
N4680 G2 X1.7729 Y-1.8423 R0.135
N4690 G1 X0.8282 Y-1.8424
N4700 G2 X0.8258 Y-1.8423 R0.135
N4710 G1 X0.8073 Y-1.842
N4720 G2 X0.7956 Y-1.8413 R0.135
N4730 G1 X0.7864 Y-1.8403
N4740 G2 X0.7771 Y-1.839 R0.135
N4750 G1 X0.7679 Y-1.8374
N4760 G2 X0.7566 Y-1.835 R0.135
N4770 G1 X0.7434 Y-1.8315
N4780 G2 X0.7301 Y-1.8272 R0.135
N4790 G1 X0.7169 Y-1.8222
N4800 G2 X0.705 Y-1.817 R0.135
N4810 G1 X0.6944 Y-1.8118
N4820 G2 X0.6845 Y-1.8064 R0.135
N4830 G1 X0.6752 Y-1.8008
N4840 G2 X0.6659 Y-1.7947 R0.135
N4850 G1 X0.6567 Y-1.788
N4860 G2 X0.6474 Y-1.7807 R0.135
N4870 G1 X0.6381 Y-1.7727
N4880 G2 X0.6288 Y-1.7639 R0.135
N4890 G1 X0.6196 Y-1.7542
N4900 G2 X0.6107 Y-1.744 R0.135
N4910 G1 X0.6024 Y-1.7334
N4920 G2 X0.5953 Y-1.7234 R0.135
N4930 G1 X0.5894 Y-1.7143
N4940 G2 X0.584 Y-1.7051 R0.135
N4950 G1 X0.579 Y-1.6959
N4960 G2 X0.5745 Y-1.6868 R0.135
N4970 G1 X0.5704 Y-1.6776
N4980 G2 X0.5668 Y-1.6685 R0.135
N4990 G1 X0.5635 Y-1.6593
N5000 G2 X0.5605 Y-1.6501 R0.135
N5010 G1 X0.5579 Y-1.641
N5020 G2 X0.5557 Y-1.6318 R0.135
N5030 G1 X0.5538 Y-1.6227
N5040 G2 X0.5522 Y-1.6135 R0.135
N5050 G1 X0.551 Y-1.6043
N5060 G2 X0.55 Y-1.5952 R0.135
N5070 G1 X0.5494 Y-1.586
N5080 G2 X0.5491 Y-1.5769 R0.135
N5090 G1 Y-1.3599
N5100 G3 X0.1832 Y-1.2846 Z-0.115 R0.1907
N5110 G1 X0.0192 Y-1.666 Z-0.125
N5120 G3 X0.3696 Y-1.8166 Z-0.1394 R0.1907
N5130 G3 X0.3779 Y-1.6895 Z-0.1425 R0.1907
N5140 G2 X0.3685 Y-1.6532 R0.973
N5150 G2 X0.3601 Y-1.5988 R0.3262
N5160 G2 X0.3503 Y-0.9342 R6.3009
N5170 G3 X0.3629 Y-0.2696 R17.5522
N5180 G3 X0.2797 Y-0.1864 R0.0832
N5190 G1 X0.2697
N5200 G3 X0.1865 Y-0.2696 R0.0832
N5210 G1 Y-1.7304
N5220 G3 X0.2697 Y-1.8136 R0.0832
N5230 G1 X0.3032
N5240 G3 X0.3829 Y-1.7063 R0.0832
N5250 G2 X0.3779 Y-1.6895 R0.973
N5260 G3 X0.3749 Y-1.6814 Z-0.1417 R0.05
N5270 G3 X0.3707 Y-1.6741 Z-0.1395 R0.05
N5280 G3 X0.3657 Y-1.668 Z-0.1358 R0.05
N5290 G3 X0.3604 Y-1.6632 Z-0.1308 R0.05
N5300 G3 X0.3553 Y-1.6598 Z-0.1246 R0.05
N5310 G3 X0.3509 Y-1.6574 Z-0.1175 R0.05
N5320 G3 X0.3475 Y-1.656 Z-0.1096 R0.05
N5330 G3 X0.3454 Y-1.6553 Z-0.1012 R0.05
N5340 G3 X0.3446 Y-1.655 Z-0.0925 R0.05
N5350 G0 Z0.2
N5360 G0 X2.7919 Y-0.652
N5370 G0 Z0.0794
N5380 G1 Z-0.0105 F30.
N5390 G3 X2.7916 Y-0.6527 Z-0.0191 R0.2375 F92.
N5400 G3 X2.7905 Y-0.6546 Z-0.0273 R0.2375
N5410 G3 X2.7888 Y-0.6577 Z-0.0351 R0.2375
N5420 G3 X2.7865 Y-0.662 Z-0.0422 R0.2375
N5430 G3 X2.7839 Y-0.6673 Z-0.0483 R0.2375
N5440 G3 X2.781 Y-0.6736 Z-0.0534 R0.2375
N5450 G3 X2.778 Y-0.6807 Z-0.0571 R0.2375
N5460 G3 X2.775 Y-0.6884 Z-0.0595 R0.2375
N5470 G3 X2.7723 Y-0.6964 Z-0.0605 R0.2375
N5480 G3 X3.224 Y-0.8432 Z-0.0805 R0.2375
N5490 G3 X2.7723 Y-0.6964 Z-0.1005 R0.2375
N5500 G3 X3.224 Y-0.8432 Z-0.1205 R0.2375
N5510 G3 X2.7723 Y-0.6964 Z-0.1405 R0.2375
N5520 G3 X2.7606 Y-0.7698 Z-0.1425 R0.2375
N5530 G1 Y-1.1876
N5540 G3 X2.8567 R-0.048
N5550 G1 Y-0.7702
N5560 G1 Y-0.7654
N5570 G3 X2.8131 Y-0.7218 R0.0436
N5580 G1 X2.8043
N5590 G3 X2.7606 Y-0.7654 R0.0436
N5600 G1 Y-0.7698
N5610 G2 X2.5764 Y-1.0462 R0.2994
N5620 G3 X2.3921 Y-1.3226 R0.2994
N5630 G1 Y-1.4961
N5640 G3 X2.5427 Y-1.6466 R0.1505
N5650 G1 X3.0746
N5660 G3 X3.2252 Y-1.4961 R0.1505
N5670 G1 Y-0.505
N5680 G3 X3.0736 Y-0.3533 R0.1517
N5690 G1 X2.5419
N5700 G3 X2.3921 Y-0.5031 R0.1498
N5710 G1 Y-1.3226
N5720 G2 X2.2133 Y-1.6284 R0.3508
N5730 G3 X1.9061 Y-1.8049 R18.6953
N5740 G2 X1.902 Y-1.8072 R0.135
N5750 G1 X1.8927 Y-1.8123
N5760 G2 X1.8815 Y-1.8177 R0.135
N5770 G1 X1.8683 Y-1.8233
N5780 G2 X1.8577 Y-1.8273 R0.135
N5790 G1 X1.8498 Y-1.8299
N5800 G2 X1.8418 Y-1.8323 R0.135
N5810 G1 X1.8338 Y-1.8344
N5820 G2 X1.8259 Y-1.8363 R0.135
N5830 G1 X1.8179 Y-1.8378
N5840 G2 X1.8093 Y-1.8393 R0.135
N5850 G1 X1.8001 Y-1.8405
N5860 G2 X1.7908 Y-1.8414 R0.135
N5870 G1 X1.7815 Y-1.842
N5880 G2 X1.7729 Y-1.8423 R0.135
N5890 G1 X0.8282 Y-1.8424
N5900 G2 X0.8258 Y-1.8423 R0.135
N5910 G1 X0.8073 Y-1.842
N5920 G2 X0.7956 Y-1.8413 R0.135
N5930 G1 X0.7864 Y-1.8403
N5940 G2 X0.7771 Y-1.839 R0.135
N5950 G1 X0.7679 Y-1.8374
N5960 G2 X0.7566 Y-1.835 R0.135
N5970 G1 X0.7434 Y-1.8315
N5980 G2 X0.7301 Y-1.8272 R0.135
N5990 G1 X0.7169 Y-1.8222
N6000 G2 X0.705 Y-1.817 R0.135
N6010 G1 X0.6944 Y-1.8118
N6020 G2 X0.6845 Y-1.8064 R0.135
N6030 G1 X0.6752 Y-1.8008
N6040 G2 X0.6659 Y-1.7947 R0.135
N6050 G1 X0.6567 Y-1.788
N6060 G2 X0.6474 Y-1.7807 R0.135
N6070 G1 X0.6381 Y-1.7727
N6080 G2 X0.6288 Y-1.7639 R0.135
N6090 G1 X0.6196 Y-1.7542
N6100 G2 X0.6107 Y-1.744 R0.135
N6110 G1 X0.6024 Y-1.7334
N6120 G2 X0.5953 Y-1.7234 R0.135
N6130 G1 X0.5894 Y-1.7143
N6140 G2 X0.584 Y-1.7051 R0.135
N6150 G1 X0.579 Y-1.6959
N6160 G2 X0.5745 Y-1.6868 R0.135
N6170 G1 X0.5704 Y-1.6776
N6180 G2 X0.5668 Y-1.6685 R0.135
N6190 G1 X0.5635 Y-1.6593
N6200 G2 X0.5605 Y-1.6501 R0.135
N6210 G1 X0.5579 Y-1.641
N6220 G2 X0.5557 Y-1.6318 R0.135
N6230 G1 X0.5538 Y-1.6227
N6240 G2 X0.5522 Y-1.6135 R0.135
N6250 G1 X0.551 Y-1.6043
N6260 G2 X0.55 Y-1.5952 R0.135
N6270 G1 X0.5494 Y-1.586
N6280 G2 X0.5491 Y-1.5769 R0.135
N6290 G1 X0.5492 Y0.
N6300 G1 X0.0002 Y-0.0001
N6310 G1 Y-1.9999
N6320 G1 X5.2498
N6330 G1 X5.2499 Y-1.8423
N6340 G1 X3.8476 Y-1.8424
N6350 G2 X3.8421 Y-1.8423 R0.135
N6360 G1 X3.8329 Y-1.8419
N6370 G2 X3.8236 Y-1.8412 R0.135
N6380 G1 X3.8143 Y-1.8402
N6390 G2 X3.8053 Y-1.8389 R0.135
N6400 G1 X3.7966 Y-1.8373
N6410 G2 X3.7878 Y-1.8354 R0.135
N6420 G1 X3.7791 Y-1.8333
N6430 G2 X3.7703 Y-1.8308 R0.135
N6440 G1 X3.7616 Y-1.828
N6450 G2 X3.7518 Y-1.8244 R0.135
N6460 G1 X3.741 Y-1.82
N6470 G2 X3.7309 Y-1.8154 R0.135
N6480 G1 X3.7217 Y-1.8107
N6490 G2 X3.7124 Y-1.8056 R0.135
N6500 G1 X3.7031 Y-1.7999
N6510 G2 X3.6939 Y-1.7937 R0.135
N6520 G1 X3.6846 Y-1.7869
N6530 G2 X3.6753 Y-1.7795 R0.135
N6540 G1 X3.6661 Y-1.7714
N6550 G2 X3.6565 Y-1.7621 R0.135
N6560 G1 X3.6466 Y-1.7516
N6570 G2 X3.6382 Y-1.7418 R0.135
N6580 G1 X3.6312 Y-1.7326
N6590 G2 X3.6247 Y-1.7234 R0.135
N6600 G1 X3.6188 Y-1.7143
N6610 G2 X3.6133 Y-1.7051 R0.135
N6620 G1 X3.6084 Y-1.6959
N6630 G2 X3.6039 Y-1.6868 R0.135
N6640 G1 X3.5998 Y-1.6776
N6650 G2 X3.5964 Y-1.6691 R0.135
N6660 G1 X3.5935 Y-1.6613
N6670 G2 X3.5909 Y-1.6534 R0.135
N6680 G1 X3.5885 Y-1.6456
N6690 G2 X3.5862 Y-1.6364 R0.135
N6700 G1 X3.5838 Y-1.626
N6710 G2 X3.5819 Y-1.6155 R0.135
N6720 G1 X3.5804 Y-1.605
N6730 G2 X3.5794 Y-1.5952 R0.135
N6740 G1 X3.5788 Y-1.586
N6750 G2 X3.5785 Y-1.5769 R0.135
N6760 G1 X3.5786 Y0.
N6770 G1 X2.0389
N6780 G1 X2.0388 Y-1.5769
N6790 G2 X2.0383 Y-1.5887 R0.135
N6800 G1 X2.0371 Y-1.6032
N6810 G2 X2.0356 Y-1.6143 R0.135
N6820 G1 X2.0343 Y-1.6221
N6830 G2 X2.0327 Y-1.63 R0.135
N6840 G1 X2.0308 Y-1.6378
N6850 G2 X2.0288 Y-1.6456 R0.135
N6860 G1 X2.0264 Y-1.6535
N6870 G2 X2.0238 Y-1.6613 R0.135
N6880 G1 X2.0209 Y-1.6691
N6890 G2 X2.0175 Y-1.6776 R0.135
N6900 G1 X2.0134 Y-1.6868
N6910 G2 X2.0089 Y-1.6959 R0.135
N6920 G1 X2.004 Y-1.7051
N6930 G2 X1.9985 Y-1.7143 R0.135
N6940 G1 X1.9926 Y-1.7234
N6950 G2 X1.9861 Y-1.7326 R0.135
N6960 G1 X1.9791 Y-1.7418
N6970 G2 X1.9722 Y-1.75 R0.135
N6980 G1 X1.9655 Y-1.7573
N6990 G2 X1.9576 Y-1.7654 R0.135
N7000 G1 X1.9483 Y-1.774
N7010 G2 X1.939 Y-1.7819 R0.135
N7020 G1 X1.9298 Y-1.7891
N7030 G2 X1.9205 Y-1.7957 R0.135
N7040 G1 X1.9112 Y-1.8017
N7050 G2 X1.9061 Y-1.8049 R0.135
N7060 G3 X1.8944 Y-1.821 R0.025
N7070 G1 X1.8776 Y-1.8962
N7080 G2 X1.8565 Y-1.9156 R0.025
N7090 G2 X1.8513 Y-1.9158 R0.0266
N7100 G1 X0.4528 Y-1.8223
N7110 G2 X0.4418 Y-1.8191 R0.0266
N7120 G3 X0.4167 Y-1.8198 R0.025
N7130 G1 X0.2594 Y-1.9174
N7140 G3 X0.2767 Y-1.9633 R0.025
N7150 G3 X0.1989 Y-1.4948 Z-0.1686 R0.2375
N7160 G3 X0.0092 Y-1.7935 Z-0.1825 R0.2375
N7170 G3 X0.2456 Y-1.9259 R0.1916
N7180 G3 X0.3779 Y-1.6895 R0.1916
N7190 G2 X0.3685 Y-1.6532 R0.973
N7200 G2 X0.3601 Y-1.5988 R0.3262
N7210 G2 X0.3503 Y-0.9342 R6.3009
N7220 G3 X0.3629 Y-0.2696 R17.5522
N7230 G3 X0.2797 Y-0.1864 R0.0832
N7240 G1 X0.2697
N7250 G3 X0.1865 Y-0.2696 R0.0832
N7260 G1 Y-1.7304
N7270 G3 X0.2697 Y-1.8136 R0.0832
N7280 G1 X0.3032
N7290 G3 X0.3829 Y-1.7063 R0.0832
N7300 G2 X0.3779 Y-1.6895 R0.973
N7310 G3 X0.3749 Y-1.6814 Z-0.1817 R0.05
N7320 G3 X0.3707 Y-1.6741 Z-0.1795 R0.05
N7330 G3 X0.3657 Y-1.668 Z-0.1758 R0.05
N7340 G3 X0.3604 Y-1.6632 Z-0.1708 R0.05
N7350 G3 X0.3553 Y-1.6598 Z-0.1646 R0.05
N7360 G3 X0.3509 Y-1.6574 Z-0.1575 R0.05
N7370 G3 X0.3475 Y-1.656 Z-0.1496 R0.05
N7380 G3 X0.3454 Y-1.6553 Z-0.1412 R0.05
N7390 G3 X0.3446 Y-1.655 Z-0.1325 R0.05
N7400 G0 Z0.2
N7410 G0 X2.7919 Y-0.652
N7420 G0 Z-0.0505
N7430 G3 X2.7916 Y-0.6527 Z-0.0591 R0.2375 F92.
N7440 G3 X2.7905 Y-0.6546 Z-0.0673 R0.2375
N7450 G3 X2.7888 Y-0.6577 Z-0.0751 R0.2375
N7460 G3 X2.7865 Y-0.662 Z-0.0822 R0.2375
N7470 G3 X2.7839 Y-0.6673 Z-0.0883 R0.2375
N7480 G3 X2.781 Y-0.6736 Z-0.0934 R0.2375
N7490 G3 X2.778 Y-0.6807 Z-0.0971 R0.2375
N7500 G3 X2.775 Y-0.6884 Z-0.0995 R0.2375
N7510 G3 X2.7723 Y-0.6964 Z-0.1005 R0.2375
N7520 G3 X3.224 Y-0.8432 Z-0.1205 R0.2375
N7530 G3 X2.7723 Y-0.6964 Z-0.1405 R0.2375
N7540 G3 X3.224 Y-0.8432 Z-0.1605 R0.2375
N7550 G3 X2.7723 Y-0.6964 Z-0.1805 R0.2375
N7560 G3 X2.7606 Y-0.7698 Z-0.1825 R0.2375
N7570 G1 Y-1.1876
N7580 G3 X2.8567 R-0.048
N7590 G1 Y-0.7702
N7600 G1 Y-0.7654
N7610 G3 X2.8131 Y-0.7218 R0.0436
N7620 G1 X2.8043
N7630 G3 X2.7606 Y-0.7654 R0.0436
N7640 G1 Y-0.7698
N7650 G2 X2.5764 Y-1.0462 R0.2994
N7660 G3 X2.3921 Y-1.3226 R0.2994
N7670 G1 Y-1.4961
N7680 G3 X2.5427 Y-1.6466 R0.1505
N7690 G1 X3.0746
N7700 G3 X3.2252 Y-1.4961 R0.1505
N7710 G1 Y-0.505
N7720 G3 X3.0736 Y-0.3533 R0.1517
N7730 G1 X2.5419
N7740 G3 X2.3921 Y-0.5031 R0.1498
N7750 G1 Y-1.3226
N7760 G2 X2.2133 Y-1.6284 R0.3508
N7770 G3 X1.9061 Y-1.8049 R18.6953
N7780 G2 X1.902 Y-1.8072 R0.135
N7790 G1 X1.8927 Y-1.8123
N7800 G2 X1.8815 Y-1.8177 R0.135
N7810 G1 X1.8683 Y-1.8233
N7820 G2 X1.8577 Y-1.8273 R0.135
N7830 G1 X1.8498 Y-1.8299
N7840 G2 X1.8418 Y-1.8323 R0.135
N7850 G1 X1.8338 Y-1.8344
N7860 G2 X1.8259 Y-1.8363 R0.135
N7870 G1 X1.8179 Y-1.8378
N7880 G2 X1.8093 Y-1.8393 R0.135
N7890 G1 X1.8001 Y-1.8405
N7900 G2 X1.7908 Y-1.8414 R0.135
N7910 G1 X1.7815 Y-1.842
N7920 G2 X1.7729 Y-1.8423 R0.135
N7930 G1 X0.8282 Y-1.8424
N7940 G2 X0.8258 Y-1.8423 R0.135
N7950 G1 X0.8073 Y-1.842
N7960 G2 X0.7956 Y-1.8413 R0.135
N7970 G1 X0.7864 Y-1.8403
N7980 G2 X0.7771 Y-1.839 R0.135
N7990 G1 X0.7679 Y-1.8374
N8000 G2 X0.7566 Y-1.835 R0.135
N8010 G1 X0.7434 Y-1.8315
N8020 G2 X0.7301 Y-1.8272 R0.135
N8030 G1 X0.7169 Y-1.8222
N8040 G2 X0.705 Y-1.817 R0.135
N8050 G1 X0.6944 Y-1.8118
N8060 G2 X0.6845 Y-1.8064 R0.135
N8070 G1 X0.6752 Y-1.8008
N8080 G2 X0.6659 Y-1.7947 R0.135
N8090 G1 X0.6567 Y-1.788
N8100 G2 X0.6474 Y-1.7807 R0.135
N8110 G1 X0.6381 Y-1.7727
N8120 G2 X0.6288 Y-1.7639 R0.135
N8130 G1 X0.6196 Y-1.7542
N8140 G2 X0.6107 Y-1.744 R0.135
N8150 G1 X0.6024 Y-1.7334
N8160 G2 X0.5953 Y-1.7234 R0.135
N8170 G1 X0.5894 Y-1.7143
N8180 G2 X0.584 Y-1.7051 R0.135
N8190 G1 X0.579 Y-1.6959
N8200 G2 X0.5745 Y-1.6868 R0.135
N8210 G1 X0.5704 Y-1.6776
N8220 G2 X0.5668 Y-1.6685 R0.135
N8230 G1 X0.5635 Y-1.6593
N8240 G2 X0.5605 Y-1.6501 R0.135
N8250 G1 X0.5579 Y-1.641
N8260 G2 X0.5557 Y-1.6318 R0.135
N8270 G1 X0.5538 Y-1.6227
N8280 G2 X0.5522 Y-1.6135 R0.135
N8290 G1 X0.551 Y-1.6043
N8300 G2 X0.55 Y-1.5952 R0.135
N8310 G1 X0.5494 Y-1.586
N8320 G2 X0.5491 Y-1.5769 R0.135
N8330 G1 X0.5492 Y0.
N8340 G1 X0.0002 Y-0.0001
N8350 G1 Y-1.9999
N8360 G1 X5.2498
N8370 G1 X5.2499 Y-1.8423
N8380 G1 X3.8476 Y-1.8424
N8390 G2 X3.8421 Y-1.8423 R0.135
N8400 G1 X3.8329 Y-1.8419
N8410 G2 X3.8236 Y-1.8412 R0.135
N8420 G1 X3.8143 Y-1.8402
N8430 G2 X3.8053 Y-1.8389 R0.135
N8440 G1 X3.7966 Y-1.8373
N8450 G2 X3.7878 Y-1.8354 R0.135
N8460 G1 X3.7791 Y-1.8333
N8470 G2 X3.7703 Y-1.8308 R0.135
N8480 G1 X3.7616 Y-1.828
N8490 G2 X3.7518 Y-1.8244 R0.135
N8500 G1 X3.741 Y-1.82
N8510 G2 X3.7309 Y-1.8154 R0.135
N8520 G1 X3.7217 Y-1.8107
N8530 G2 X3.7124 Y-1.8056 R0.135
N8540 G1 X3.7031 Y-1.7999
N8550 G2 X3.6939 Y-1.7937 R0.135
N8560 G1 X3.6846 Y-1.7869
N8570 G2 X3.6753 Y-1.7795 R0.135
N8580 G1 X3.6661 Y-1.7714
N8590 G2 X3.6565 Y-1.7621 R0.135
N8600 G1 X3.6466 Y-1.7516
N8610 G2 X3.6382 Y-1.7418 R0.135
N8620 G1 X3.6312 Y-1.7326
N8630 G2 X3.6247 Y-1.7234 R0.135
N8640 G1 X3.6188 Y-1.7143
N8650 G2 X3.6133 Y-1.7051 R0.135
N8660 G1 X3.6084 Y-1.6959
N8670 G2 X3.6039 Y-1.6868 R0.135
N8680 G1 X3.5998 Y-1.6776
N8690 G2 X3.5964 Y-1.6691 R0.135
N8700 G1 X3.5935 Y-1.6613
N8710 G2 X3.5909 Y-1.6534 R0.135
N8720 G1 X3.5885 Y-1.6456
N8730 G2 X3.5862 Y-1.6364 R0.135
N8740 G1 X3.5838 Y-1.626
N8750 G2 X3.5819 Y-1.6155 R0.135
N8760 G1 X3.5804 Y-1.605
N8770 G2 X3.5794 Y-1.5952 R0.135
N8780 G1 X3.5788 Y-1.586
N8790 G2 X3.5785 Y-1.5769 R0.135
N8800 G1 X3.5786 Y0.
N8810 G1 X2.0389
N8820 G1 X2.0388 Y-1.5769
N8830 G2 X2.0383 Y-1.5887 R0.135
N8840 G1 X2.0371 Y-1.6032
N8850 G2 X2.0356 Y-1.6143 R0.135
N8860 G1 X2.0343 Y-1.6221
N8870 G2 X2.0327 Y-1.63 R0.135
N8880 G1 X2.0308 Y-1.6378
N8890 G2 X2.0288 Y-1.6456 R0.135
N8900 G1 X2.0264 Y-1.6535
N8910 G2 X2.0238 Y-1.6613 R0.135
N8920 G1 X2.0209 Y-1.6691
N8930 G2 X2.0175 Y-1.6776 R0.135
N8940 G1 X2.0134 Y-1.6868
N8950 G2 X2.0089 Y-1.6959 R0.135
N8960 G1 X2.004 Y-1.7051
N8970 G2 X1.9985 Y-1.7143 R0.135
N8980 G1 X1.9926 Y-1.7234
N8990 G2 X1.9861 Y-1.7326 R0.135
N9000 G1 X1.9791 Y-1.7418
N9010 G2 X1.9722 Y-1.75 R0.135
N9020 G1 X1.9655 Y-1.7573
N9030 G2 X1.9576 Y-1.7654 R0.135
N9040 G1 X1.9483 Y-1.774
N9050 G2 X1.939 Y-1.7819 R0.135
N9060 G1 X1.9298 Y-1.7891
N9070 G2 X1.9205 Y-1.7957 R0.135
N9080 G1 X1.9112 Y-1.8017
N9090 G2 X1.9061 Y-1.8049 R0.135
N9100 G3 X1.8944 Y-1.821 R0.025
N9110 G1 X1.8776 Y-1.8962
N9120 G2 X1.8565 Y-1.9156 R0.025
N9130 G2 X1.8513 Y-1.9158 R0.0266
N9140 G1 X0.4528 Y-1.8223
N9150 G2 X0.4418 Y-1.8191 R0.0266
N9160 G3 X0.4167 Y-1.8198 R0.025
N9170 G1 X0.2594 Y-1.9174
N9180 G3 X0.2767 Y-1.9633 R0.025
N9190 G3 X0.1989 Y-1.4948 Z-0.2086 R0.2375
N9200 G3 X0.0092 Y-1.7935 Z-0.2225 R0.2375
N9210 G3 X0.2456 Y-1.9259 R0.1916
N9220 G3 X0.3779 Y-1.6895 R0.1916
N9230 G2 X0.3685 Y-1.6532 R0.973
N9240 G2 X0.3601 Y-1.5988 R0.3262
N9250 G2 X0.3503 Y-0.9342 R6.3009
N9260 G3 X0.3629 Y-0.2696 R17.5522
N9270 G3 X0.2797 Y-0.1864 R0.0832
N9280 G1 X0.2697
N9290 G3 X0.1865 Y-0.2696 R0.0832
N9300 G1 Y-1.7304
N9310 G3 X0.2697 Y-1.8136 R0.0832
N9320 G1 X0.3032
N9330 G3 X0.3829 Y-1.7063 R0.0832
N9340 G2 X0.3779 Y-1.6895 R0.973
N9350 G3 X0.3749 Y-1.6814 Z-0.2217 R0.05
N9360 G3 X0.3707 Y-1.6741 Z-0.2195 R0.05
N9370 G3 X0.3657 Y-1.668 Z-0.2158 R0.05
N9380 G3 X0.3604 Y-1.6632 Z-0.2108 R0.05
N9390 G3 X0.3553 Y-1.6598 Z-0.2046 R0.05
N9400 G3 X0.3509 Y-1.6574 Z-0.1975 R0.05
N9410 G3 X0.3475 Y-1.656 Z-0.1896 R0.05
N9420 G3 X0.3454 Y-1.6553 Z-0.1812 R0.05
N9430 G3 X0.3446 Y-1.655 Z-0.1725 R0.05
N9440 G0 Z0.2
N9450 G0 X2.7919 Y-0.652
N9460 G0 Z-0.0905
N9470 G3 X2.7916 Y-0.6527 Z-0.0991 R0.2375 F92.
N9480 G3 X2.7905 Y-0.6546 Z-0.1073 R0.2375
N9490 G3 X2.7888 Y-0.6577 Z-0.1151 R0.2375
N9500 G3 X2.7865 Y-0.662 Z-0.1222 R0.2375
N9510 G3 X2.7839 Y-0.6673 Z-0.1283 R0.2375
N9520 G3 X2.781 Y-0.6736 Z-0.1334 R0.2375
N9530 G3 X2.778 Y-0.6807 Z-0.1371 R0.2375
N9540 G3 X2.775 Y-0.6884 Z-0.1395 R0.2375
N9550 G3 X2.7723 Y-0.6964 Z-0.1405 R0.2375
N9560 G3 X3.224 Y-0.8432 Z-0.1605 R0.2375
N9570 G3 X2.7723 Y-0.6964 Z-0.1805 R0.2375
N9580 G3 X3.224 Y-0.8432 Z-0.2005 R0.2375
N9590 G3 X2.7723 Y-0.6964 Z-0.2205 R0.2375
N9600 G3 X2.7606 Y-0.7698 Z-0.2225 R0.2375
N9610 G1 Y-1.1876
N9620 G3 X2.8567 R-0.048
N9630 G1 Y-0.7702
N9640 G1 Y-0.7654
N9650 G3 X2.8131 Y-0.7218 R0.0436
N9660 G1 X2.8043
N9670 G3 X2.7606 Y-0.7654 R0.0436
N9680 G1 Y-0.7698
N9690 G2 X2.5764 Y-1.0462 R0.2994
N9700 G3 X2.3921 Y-1.3226 R0.2994
N9710 G1 Y-1.4961
N9720 G3 X2.5427 Y-1.6466 R0.1505
N9730 G1 X3.0746
N9740 G3 X3.2252 Y-1.4961 R0.1505
N9750 G1 Y-0.505
N9760 G3 X3.0736 Y-0.3533 R0.1517
N9770 G1 X2.5419
N9780 G3 X2.3921 Y-0.5031 R0.1498
N9790 G1 Y-1.3226
N9800 G2 X2.2133 Y-1.6284 R0.3508
N9810 G3 X1.9061 Y-1.8049 R18.6953
N9820 G2 X1.902 Y-1.8072 R0.135
N9830 G1 X1.8927 Y-1.8123
N9840 G2 X1.8815 Y-1.8177 R0.135
N9850 G1 X1.8683 Y-1.8233
N9860 G2 X1.8577 Y-1.8273 R0.135
N9870 G1 X1.8498 Y-1.8299
N9880 G2 X1.8418 Y-1.8323 R0.135
N9890 G1 X1.8338 Y-1.8344
N9900 G2 X1.8259 Y-1.8363 R0.135
N9910 G1 X1.8179 Y-1.8378
N9920 G2 X1.8093 Y-1.8393 R0.135
N9930 G1 X1.8001 Y-1.8405
N9940 G2 X1.7908 Y-1.8414 R0.135
N9950 G1 X1.7815 Y-1.842
N9960 G2 X1.7729 Y-1.8423 R0.135
N9970 G1 X0.8282 Y-1.8424
N9980 G2 X0.8258 Y-1.8423 R0.135
N9990 G1 X0.8073 Y-1.842
N10000 G2 X0.7956 Y-1.8413 R0.135
N10010 G1 X0.7864 Y-1.8403
N10020 G2 X0.7771 Y-1.839 R0.135
N10030 G1 X0.7679 Y-1.8374
N10040 G2 X0.7566 Y-1.835 R0.135
N10050 G1 X0.7434 Y-1.8315
N10060 G2 X0.7301 Y-1.8272 R0.135
N10070 G1 X0.7169 Y-1.8222
N10080 G2 X0.705 Y-1.817 R0.135
N10090 G1 X0.6944 Y-1.8118
N10100 G2 X0.6845 Y-1.8064 R0.135
N10110 G1 X0.6752 Y-1.8008
N10120 G2 X0.6659 Y-1.7947 R0.135
N10130 G1 X0.6567 Y-1.788
N10140 G2 X0.6474 Y-1.7807 R0.135
N10150 G1 X0.6381 Y-1.7727
N10160 G2 X0.6288 Y-1.7639 R0.135
N10170 G1 X0.6196 Y-1.7542
N10180 G2 X0.6107 Y-1.744 R0.135
N10190 G1 X0.6024 Y-1.7334
N10200 G2 X0.5953 Y-1.7234 R0.135
N10210 G1 X0.5894 Y-1.7143
N10220 G2 X0.584 Y-1.7051 R0.135
N10230 G1 X0.579 Y-1.6959
N10240 G2 X0.5745 Y-1.6868 R0.135
N10250 G1 X0.5704 Y-1.6776
N10260 G2 X0.5668 Y-1.6685 R0.135
N10270 G1 X0.5635 Y-1.6593
N10280 G2 X0.5605 Y-1.6501 R0.135
N10290 G1 X0.5579 Y-1.641
N10300 G2 X0.5557 Y-1.6318 R0.135
N10310 G1 X0.5538 Y-1.6227
N10320 G2 X0.5522 Y-1.6135 R0.135
N10330 G1 X0.551 Y-1.6043
N10340 G2 X0.55 Y-1.5952 R0.135
N10350 G1 X0.5494 Y-1.586
N10360 G2 X0.5491 Y-1.5769 R0.135
N10370 G1 X0.5492 Y0.
N10380 G1 X0.0002 Y-0.0001
N10390 G1 Y-1.9999
N10400 G1 X5.2498
N10410 G1 X5.2499 Y-1.8423
N10420 G1 X3.8476 Y-1.8424
N10430 G2 X3.8421 Y-1.8423 R0.135
N10440 G1 X3.8329 Y-1.8419
N10450 G2 X3.8236 Y-1.8412 R0.135
N10460 G1 X3.8143 Y-1.8402
N10470 G2 X3.8053 Y-1.8389 R0.135
N10480 G1 X3.7966 Y-1.8373
N10490 G2 X3.7878 Y-1.8354 R0.135
N10500 G1 X3.7791 Y-1.8333
N10510 G2 X3.7703 Y-1.8308 R0.135
N10520 G1 X3.7616 Y-1.828
N10530 G2 X3.7518 Y-1.8244 R0.135
N10540 G1 X3.741 Y-1.82
N10550 G2 X3.7309 Y-1.8154 R0.135
N10560 G1 X3.7217 Y-1.8107
N10570 G2 X3.7124 Y-1.8056 R0.135
N10580 G1 X3.7031 Y-1.7999
N10590 G2 X3.6939 Y-1.7937 R0.135
N10600 G1 X3.6846 Y-1.7869
N10610 G2 X3.6753 Y-1.7795 R0.135
N10620 G1 X3.6661 Y-1.7714
N10630 G2 X3.6565 Y-1.7621 R0.135
N10640 G1 X3.6466 Y-1.7516
N10650 G2 X3.6382 Y-1.7418 R0.135
N10660 G1 X3.6312 Y-1.7326
N10670 G2 X3.6247 Y-1.7234 R0.135
N10680 G1 X3.6188 Y-1.7143
N10690 G2 X3.6133 Y-1.7051 R0.135
N10700 G1 X3.6084 Y-1.6959
N10710 G2 X3.6039 Y-1.6868 R0.135
N10720 G1 X3.5998 Y-1.6776
N10730 G2 X3.5964 Y-1.6691 R0.135
N10740 G1 X3.5935 Y-1.6613
N10750 G2 X3.5909 Y-1.6534 R0.135
N10760 G1 X3.5885 Y-1.6456
N10770 G2 X3.5862 Y-1.6364 R0.135
N10780 G1 X3.5838 Y-1.626
N10790 G2 X3.5819 Y-1.6155 R0.135
N10800 G1 X3.5804 Y-1.605
N10810 G2 X3.5794 Y-1.5952 R0.135
N10820 G1 X3.5788 Y-1.586
N10830 G2 X3.5785 Y-1.5769 R0.135
N10840 G1 X3.5786 Y0.
N10850 G1 X2.0389
N10860 G1 X2.0388 Y-1.5769
N10870 G2 X2.0383 Y-1.5887 R0.135
N10880 G1 X2.0371 Y-1.6032
N10890 G2 X2.0356 Y-1.6143 R0.135
N10900 G1 X2.0343 Y-1.6221
N10910 G2 X2.0327 Y-1.63 R0.135
N10920 G1 X2.0308 Y-1.6378
N10930 G2 X2.0288 Y-1.6456 R0.135
N10940 G1 X2.0264 Y-1.6535
N10950 G2 X2.0238 Y-1.6613 R0.135
N10960 G1 X2.0209 Y-1.6691
N10970 G2 X2.0175 Y-1.6776 R0.135
N10980 G1 X2.0134 Y-1.6868
N10990 G2 X2.0089 Y-1.6959 R0.135
N11000 G1 X2.004 Y-1.7051
N11010 G2 X1.9985 Y-1.7143 R0.135
N11020 G1 X1.9926 Y-1.7234
N11030 G2 X1.9861 Y-1.7326 R0.135
N11040 G1 X1.9791 Y-1.7418
N11050 G2 X1.9722 Y-1.75 R0.135
N11060 G1 X1.9655 Y-1.7573
N11070 G2 X1.9576 Y-1.7654 R0.135
N11080 G1 X1.9483 Y-1.774
N11090 G2 X1.939 Y-1.7819 R0.135
N11100 G1 X1.9298 Y-1.7891
N11110 G2 X1.9205 Y-1.7957 R0.135
N11120 G1 X1.9112 Y-1.8017
N11130 G2 X1.9061 Y-1.8049 R0.135
N11140 G3 X1.8944 Y-1.821 R0.025
N11150 G1 X1.8776 Y-1.8962
N11160 G2 X1.8565 Y-1.9156 R0.025
N11170 G2 X1.8513 Y-1.9158 R0.0266
N11180 G1 X0.4528 Y-1.8223
N11190 G2 X0.4418 Y-1.8191 R0.0266
N11200 G3 X0.4167 Y-1.8198 R0.025
N11210 G1 X0.2594 Y-1.9174
N11220 G3 X0.2767 Y-1.9633 R0.025
N11230 G3 X0.1989 Y-1.4948 Z-0.2486 R0.2375
N11240 G3 X0.0092 Y-1.7935 Z-0.2625 R0.2375
N11250 G3 X0.2456 Y-1.9259 R0.1916
N11260 G3 X0.3779 Y-1.6895 R0.1916
N11270 G2 X0.3685 Y-1.6532 R0.973
N11280 G2 X0.3601 Y-1.5988 R0.3262
N11290 G2 X0.3503 Y-0.9342 R6.3009
N11300 G3 X0.3629 Y-0.2696 R17.5522
N11310 G3 X0.2797 Y-0.1864 R0.0832
N11320 G1 X0.2697
N11330 G3 X0.1865 Y-0.2696 R0.0832
N11340 G1 Y-1.7304
N11350 G3 X0.2697 Y-1.8136 R0.0832
N11360 G1 X0.3032
N11370 G3 X0.3829 Y-1.7063 R0.0832
N11380 G2 X0.3779 Y-1.6895 R0.973
N11390 G3 X0.3749 Y-1.6814 Z-0.2617 R0.05
N11400 G3 X0.3707 Y-1.6741 Z-0.2595 R0.05
N11410 G3 X0.3657 Y-1.668 Z-0.2558 R0.05
N11420 G3 X0.3604 Y-1.6632 Z-0.2508 R0.05
N11430 G3 X0.3553 Y-1.6598 Z-0.2446 R0.05
N11440 G3 X0.3509 Y-1.6574 Z-0.2375 R0.05
N11450 G3 X0.3475 Y-1.656 Z-0.2296 R0.05
N11460 G3 X0.3454 Y-1.6553 Z-0.2212 R0.05
N11470 G3 X0.3446 Y-1.655 Z-0.2125 R0.05
N11480 G0 Z0.2
N11490 G0 X2.7919 Y-0.652
N11500 G0 Z-0.1305
N11510 G3 X2.7916 Y-0.6527 Z-0.1391 R0.2375 F92.
N11520 G3 X2.7905 Y-0.6546 Z-0.1473 R0.2375
N11530 G3 X2.7888 Y-0.6577 Z-0.1551 R0.2375
N11540 G3 X2.7865 Y-0.662 Z-0.1622 R0.2375
N11550 G3 X2.7839 Y-0.6673 Z-0.1683 R0.2375
N11560 G3 X2.781 Y-0.6736 Z-0.1734 R0.2375
N11570 G3 X2.778 Y-0.6807 Z-0.1771 R0.2375
N11580 G3 X2.775 Y-0.6884 Z-0.1795 R0.2375
N11590 G3 X2.7723 Y-0.6964 Z-0.1805 R0.2375
N11600 G3 X3.224 Y-0.8432 Z-0.2005 R0.2375
N11610 G3 X2.7723 Y-0.6964 Z-0.2205 R0.2375
N11620 G3 X3.224 Y-0.8432 Z-0.2405 R0.2375
N11630 G3 X2.7723 Y-0.6964 Z-0.2605 R0.2375
N11640 G3 X2.7606 Y-0.7698 Z-0.2625 R0.2375
N11650 G1 Y-1.1876
N11660 G3 X2.8567 R-0.048
N11670 G1 Y-0.7702
N11680 G1 Y-0.7654
N11690 G3 X2.8131 Y-0.7218 R0.0436
N11700 G1 X2.8043
N11710 G3 X2.7606 Y-0.7654 R0.0436
N11720 G1 Y-0.7698
N11730 G2 X2.5764 Y-1.0462 R0.2994
N11740 G3 X2.3921 Y-1.3226 R0.2994
N11750 G1 Y-1.4961
N11760 G3 X2.5427 Y-1.6466 R0.1505
N11770 G1 X3.0746
N11780 G3 X3.2252 Y-1.4961 R0.1505
N11790 G1 Y-0.505
N11800 G3 X3.0736 Y-0.3533 R0.1517
N11810 G1 X2.5419
N11820 G3 X2.3921 Y-0.5031 R0.1498
N11830 G1 Y-1.3226
N11840 G2 X2.2133 Y-1.6284 R0.3508
N11850 G3 X1.9061 Y-1.8049 R18.6953
N11860 G2 X1.902 Y-1.8072 R0.135
N11870 G1 X1.8927 Y-1.8123
N11880 G2 X1.8815 Y-1.8177 R0.135
N11890 G1 X1.8683 Y-1.8233
N11900 G2 X1.8577 Y-1.8273 R0.135
N11910 G1 X1.8498 Y-1.8299
N11920 G2 X1.8418 Y-1.8323 R0.135
N11930 G1 X1.8338 Y-1.8344
N11940 G2 X1.8259 Y-1.8363 R0.135
N11950 G1 X1.8179 Y-1.8378
N11960 G2 X1.8093 Y-1.8393 R0.135
N11970 G1 X1.8001 Y-1.8405
N11980 G2 X1.7908 Y-1.8414 R0.135
N11990 G1 X1.7815 Y-1.842
N12000 G2 X1.7729 Y-1.8423 R0.135
N12010 G1 X0.8282 Y-1.8424
N12020 G2 X0.8258 Y-1.8423 R0.135
N12030 G1 X0.8073 Y-1.842
N12040 G2 X0.7956 Y-1.8413 R0.135
N12050 G1 X0.7864 Y-1.8403
N12060 G2 X0.7771 Y-1.839 R0.135
N12070 G1 X0.7679 Y-1.8374
N12080 G2 X0.7566 Y-1.835 R0.135
N12090 G1 X0.7434 Y-1.8315
N12100 G2 X0.7301 Y-1.8272 R0.135
N12110 G1 X0.7169 Y-1.8222
N12120 G2 X0.705 Y-1.817 R0.135
N12130 G1 X0.6944 Y-1.8118
N12140 G2 X0.6845 Y-1.8064 R0.135
N12150 G1 X0.6752 Y-1.8008
N12160 G2 X0.6659 Y-1.7947 R0.135
N12170 G1 X0.6567 Y-1.788
N12180 G2 X0.6474 Y-1.7807 R0.135
N12190 G1 X0.6381 Y-1.7727
N12200 G2 X0.6288 Y-1.7639 R0.135
N12210 G1 X0.6196 Y-1.7542
N12220 G2 X0.6107 Y-1.744 R0.135
N12230 G1 X0.6024 Y-1.7334
N12240 G2 X0.5953 Y-1.7234 R0.135
N12250 G1 X0.5894 Y-1.7143
N12260 G2 X0.584 Y-1.7051 R0.135
N12270 G1 X0.579 Y-1.6959
N12280 G2 X0.5745 Y-1.6868 R0.135
N12290 G1 X0.5704 Y-1.6776
N12300 G2 X0.5668 Y-1.6685 R0.135
N12310 G1 X0.5635 Y-1.6593
N12320 G2 X0.5605 Y-1.6501 R0.135
N12330 G1 X0.5579 Y-1.641
N12340 G2 X0.5557 Y-1.6318 R0.135
N12350 G1 X0.5538 Y-1.6227
N12360 G2 X0.5522 Y-1.6135 R0.135
N12370 G1 X0.551 Y-1.6043
N12380 G2 X0.55 Y-1.5952 R0.135
N12390 G1 X0.5494 Y-1.586
N12400 G2 X0.5491 Y-1.5769 R0.135
N12410 G1 X0.5492 Y0.
N12420 G1 X0.0002 Y-0.0001
N12430 G1 Y-1.9999
N12440 G1 X5.2498
N12450 G1 X5.2499 Y-1.8423
N12460 G1 X3.8476 Y-1.8424
N12470 G2 X3.8421 Y-1.8423 R0.135
N12480 G1 X3.8329 Y-1.8419
N12490 G2 X3.8236 Y-1.8412 R0.135
N12500 G1 X3.8143 Y-1.8402
N12510 G2 X3.8053 Y-1.8389 R0.135
N12520 G1 X3.7966 Y-1.8373
N12530 G2 X3.7878 Y-1.8354 R0.135
N12540 G1 X3.7791 Y-1.8333
N12550 G2 X3.7703 Y-1.8308 R0.135
N12560 G1 X3.7616 Y-1.828
N12570 G2 X3.7518 Y-1.8244 R0.135
N12580 G1 X3.741 Y-1.82
N12590 G2 X3.7309 Y-1.8154 R0.135
N12600 G1 X3.7217 Y-1.8107
N12610 G2 X3.7124 Y-1.8056 R0.135
N12620 G1 X3.7031 Y-1.7999
N12630 G2 X3.6939 Y-1.7937 R0.135
N12640 G1 X3.6846 Y-1.7869
N12650 G2 X3.6753 Y-1.7795 R0.135
N12660 G1 X3.6661 Y-1.7714
N12670 G2 X3.6565 Y-1.7621 R0.135
N12680 G1 X3.6466 Y-1.7516
N12690 G2 X3.6382 Y-1.7418 R0.135
N12700 G1 X3.6312 Y-1.7326
N12710 G2 X3.6247 Y-1.7234 R0.135
N12720 G1 X3.6188 Y-1.7143
N12730 G2 X3.6133 Y-1.7051 R0.135
N12740 G1 X3.6084 Y-1.6959
N12750 G2 X3.6039 Y-1.6868 R0.135
N12760 G1 X3.5998 Y-1.6776
N12770 G2 X3.5964 Y-1.6691 R0.135
N12780 G1 X3.5935 Y-1.6613
N12790 G2 X3.5909 Y-1.6534 R0.135
N12800 G1 X3.5885 Y-1.6456
N12810 G2 X3.5862 Y-1.6364 R0.135
N12820 G1 X3.5838 Y-1.626
N12830 G2 X3.5819 Y-1.6155 R0.135
N12840 G1 X3.5804 Y-1.605
N12850 G2 X3.5794 Y-1.5952 R0.135
N12860 G1 X3.5788 Y-1.586
N12870 G2 X3.5785 Y-1.5769 R0.135
N12880 G1 X3.5786 Y0.
N12890 G1 X2.0389
N12900 G1 X2.0388 Y-1.5769
N12910 G2 X2.0383 Y-1.5887 R0.135
N12920 G1 X2.0371 Y-1.6032
N12930 G2 X2.0356 Y-1.6143 R0.135
N12940 G1 X2.0343 Y-1.6221
N12950 G2 X2.0327 Y-1.63 R0.135
N12960 G1 X2.0308 Y-1.6378
N12970 G2 X2.0288 Y-1.6456 R0.135
N12980 G1 X2.0264 Y-1.6535
N12990 G2 X2.0238 Y-1.6613 R0.135
N13000 G1 X2.0209 Y-1.6691
N13010 G2 X2.0175 Y-1.6776 R0.135
N13020 G1 X2.0134 Y-1.6868
N13030 G2 X2.0089 Y-1.6959 R0.135
N13040 G1 X2.004 Y-1.7051
N13050 G2 X1.9985 Y-1.7143 R0.135
N13060 G1 X1.9926 Y-1.7234
N13070 G2 X1.9861 Y-1.7326 R0.135
N13080 G1 X1.9791 Y-1.7418
N13090 G2 X1.9722 Y-1.75 R0.135
N13100 G1 X1.9655 Y-1.7573
N13110 G2 X1.9576 Y-1.7654 R0.135
N13120 G1 X1.9483 Y-1.774
N13130 G2 X1.939 Y-1.7819 R0.135
N13140 G1 X1.9298 Y-1.7891
N13150 G2 X1.9205 Y-1.7957 R0.135
N13160 G1 X1.9112 Y-1.8017
N13170 G2 X1.9061 Y-1.8049 R0.135
N13180 G3 X1.8944 Y-1.821 R0.025
N13190 G1 X1.8776 Y-1.8962
N13200 G2 X1.8565 Y-1.9156 R0.025
N13210 G2 X1.8513 Y-1.9158 R0.0266
N13220 G1 X0.4528 Y-1.8223
N13230 G2 X0.4418 Y-1.8191 R0.0266
N13240 G3 X0.4167 Y-1.8198 R0.025
N13250 G1 X0.2594 Y-1.9174
N13260 G3 X0.2767 Y-1.9633 R0.025
N13270 G3 X0.1989 Y-1.4948 Z-0.2886 R0.2375
N13280 G3 X0.0092 Y-1.7935 Z-0.3025 R0.2375
N13290 G3 X0.2456 Y-1.9259 R0.1916
N13300 G3 X0.3779 Y-1.6895 R0.1916
N13310 G2 X0.3685 Y-1.6532 R0.973
N13320 G2 X0.3601 Y-1.5988 R0.3262
N13330 G2 X0.3503 Y-0.9342 R6.3009
N13340 G3 X0.3629 Y-0.2696 R17.5522
N13350 G3 X0.2797 Y-0.1864 R0.0832
N13360 G1 X0.2697
N13370 G3 X0.1865 Y-0.2696 R0.0832
N13380 G1 Y-1.7304
N13390 G3 X0.2697 Y-1.8136 R0.0832
N13400 G1 X0.3032
N13410 G3 X0.3829 Y-1.7063 R0.0832
N13420 G2 X0.3779 Y-1.6895 R0.973
N13430 G3 X0.3749 Y-1.6814 Z-0.3017 R0.05
N13440 G3 X0.3707 Y-1.6741 Z-0.2995 R0.05
N13450 G3 X0.3657 Y-1.668 Z-0.2958 R0.05
N13460 G3 X0.3604 Y-1.6632 Z-0.2908 R0.05
N13470 G3 X0.3553 Y-1.6598 Z-0.2846 R0.05
N13480 G3 X0.3509 Y-1.6574 Z-0.2775 R0.05
N13490 G3 X0.3475 Y-1.656 Z-0.2696 R0.05
N13500 G3 X0.3454 Y-1.6553 Z-0.2612 R0.05
N13510 G3 X0.3446 Y-1.655 Z-0.2525 R0.05
N13520 G0 Z0.2
N13530 G0 X2.7919 Y-0.652
N13540 G0 Z-0.1705
N13550 G3 X2.7916 Y-0.6527 Z-0.1791 R0.2375 F92.
N13560 G3 X2.7905 Y-0.6546 Z-0.1873 R0.2375
N13570 G3 X2.7888 Y-0.6577 Z-0.1951 R0.2375
N13580 G3 X2.7865 Y-0.662 Z-0.2022 R0.2375
N13590 G3 X2.7839 Y-0.6673 Z-0.2083 R0.2375
N13600 G3 X2.781 Y-0.6736 Z-0.2134 R0.2375
N13610 G3 X2.778 Y-0.6807 Z-0.2171 R0.2375
N13620 G3 X2.775 Y-0.6884 Z-0.2195 R0.2375
N13630 G3 X2.7723 Y-0.6964 Z-0.2205 R0.2375
N13640 G3 X3.224 Y-0.8432 Z-0.2405 R0.2375
N13650 G3 X2.7723 Y-0.6964 Z-0.2605 R0.2375
N13660 G3 X3.224 Y-0.8432 Z-0.2805 R0.2375
N13670 G3 X2.7723 Y-0.6964 Z-0.3005 R0.2375
N13680 G3 X2.7606 Y-0.7698 Z-0.3025 R0.2375
N13690 G1 Y-1.1876
N13700 G3 X2.8567 R-0.048
N13710 G1 Y-0.7702
N13720 G1 Y-0.7654
N13730 G3 X2.8131 Y-0.7218 R0.0436
N13740 G1 X2.8043
N13750 G3 X2.7606 Y-0.7654 R0.0436
N13760 G1 Y-0.7698
N13770 G2 X2.5764 Y-1.0462 R0.2994
N13780 G3 X2.3921 Y-1.3226 R0.2994
N13790 G1 Y-1.4961
N13800 G3 X2.5427 Y-1.6466 R0.1505
N13810 G1 X3.0746
N13820 G3 X3.2252 Y-1.4961 R0.1505
N13830 G1 Y-0.505
N13840 G3 X3.0736 Y-0.3533 R0.1517
N13850 G1 X2.5419
N13860 G3 X2.3921 Y-0.5031 R0.1498
N13870 G1 Y-1.3226
N13880 G2 X2.2133 Y-1.6284 R0.3508
N13890 G3 X1.9061 Y-1.8049 R18.6953
N13900 G2 X1.902 Y-1.8072 R0.135
N13910 G1 X1.8927 Y-1.8123
N13920 G2 X1.8815 Y-1.8177 R0.135
N13930 G1 X1.8683 Y-1.8233
N13940 G2 X1.8577 Y-1.8273 R0.135
N13950 G1 X1.8498 Y-1.8299
N13960 G2 X1.8418 Y-1.8323 R0.135
N13970 G1 X1.8338 Y-1.8344
N13980 G2 X1.8259 Y-1.8363 R0.135
N13990 G1 X1.8179 Y-1.8378
N14000 G2 X1.8093 Y-1.8393 R0.135
N14010 G1 X1.8001 Y-1.8405
N14020 G2 X1.7908 Y-1.8414 R0.135
N14030 G1 X1.7815 Y-1.842
N14040 G2 X1.7729 Y-1.8423 R0.135
N14050 G1 X0.8282 Y-1.8424
N14060 G2 X0.8258 Y-1.8423 R0.135
N14070 G1 X0.8073 Y-1.842
N14080 G2 X0.7956 Y-1.8413 R0.135
N14090 G1 X0.7864 Y-1.8403
N14100 G2 X0.7771 Y-1.839 R0.135
N14110 G1 X0.7679 Y-1.8374
N14120 G2 X0.7566 Y-1.835 R0.135
N14130 G1 X0.7434 Y-1.8315
N14140 G2 X0.7301 Y-1.8272 R0.135
N14150 G1 X0.7169 Y-1.8222
N14160 G2 X0.705 Y-1.817 R0.135
N14170 G1 X0.6944 Y-1.8118
N14180 G2 X0.6845 Y-1.8064 R0.135
N14190 G1 X0.6752 Y-1.8008
N14200 G2 X0.6659 Y-1.7947 R0.135
N14210 G1 X0.6567 Y-1.788
N14220 G2 X0.6474 Y-1.7807 R0.135
N14230 G1 X0.6381 Y-1.7727
N14240 G2 X0.6288 Y-1.7639 R0.135
N14250 G1 X0.6196 Y-1.7542
N14260 G2 X0.6107 Y-1.744 R0.135
N14270 G1 X0.6024 Y-1.7334
N14280 G2 X0.5953 Y-1.7234 R0.135
N14290 G1 X0.5894 Y-1.7143
N14300 G2 X0.584 Y-1.7051 R0.135
N14310 G1 X0.579 Y-1.6959
N14320 G2 X0.5745 Y-1.6868 R0.135
N14330 G1 X0.5704 Y-1.6776
N14340 G2 X0.5668 Y-1.6685 R0.135
N14350 G1 X0.5635 Y-1.6593
N14360 G2 X0.5605 Y-1.6501 R0.135
N14370 G1 X0.5579 Y-1.641
N14380 G2 X0.5557 Y-1.6318 R0.135
N14390 G1 X0.5538 Y-1.6227
N14400 G2 X0.5522 Y-1.6135 R0.135
N14410 G1 X0.551 Y-1.6043
N14420 G2 X0.55 Y-1.5952 R0.135
N14430 G1 X0.5494 Y-1.586
N14440 G2 X0.5491 Y-1.5769 R0.135
N14450 G1 X0.5492 Y0.
N14460 G1 X0.0002 Y-0.0001
N14470 G1 Y-1.9999
N14480 G1 X5.2498
N14490 G1 X5.2499 Y-1.8423
N14500 G1 X3.8476 Y-1.8424
N14510 G2 X3.8421 Y-1.8423 R0.135
N14520 G1 X3.8329 Y-1.8419
N14530 G2 X3.8236 Y-1.8412 R0.135
N14540 G1 X3.8143 Y-1.8402
N14550 G2 X3.8053 Y-1.8389 R0.135
N14560 G1 X3.7966 Y-1.8373
N14570 G2 X3.7878 Y-1.8354 R0.135
N14580 G1 X3.7791 Y-1.8333
N14590 G2 X3.7703 Y-1.8308 R0.135
N14600 G1 X3.7616 Y-1.828
N14610 G2 X3.7518 Y-1.8244 R0.135
N14620 G1 X3.741 Y-1.82
N14630 G2 X3.7309 Y-1.8154 R0.135
N14640 G1 X3.7217 Y-1.8107
N14650 G2 X3.7124 Y-1.8056 R0.135
N14660 G1 X3.7031 Y-1.7999
N14670 G2 X3.6939 Y-1.7937 R0.135
N14680 G1 X3.6846 Y-1.7869
N14690 G2 X3.6753 Y-1.7795 R0.135
N14700 G1 X3.6661 Y-1.7714
N14710 G2 X3.6565 Y-1.7621 R0.135
N14720 G1 X3.6466 Y-1.7516
N14730 G2 X3.6382 Y-1.7418 R0.135
N14740 G1 X3.6312 Y-1.7326
N14750 G2 X3.6247 Y-1.7234 R0.135
N14760 G1 X3.6188 Y-1.7143
N14770 G2 X3.6133 Y-1.7051 R0.135
N14780 G1 X3.6084 Y-1.6959
N14790 G2 X3.6039 Y-1.6868 R0.135
N14800 G1 X3.5998 Y-1.6776
N14810 G2 X3.5964 Y-1.6691 R0.135
N14820 G1 X3.5935 Y-1.6613
N14830 G2 X3.5909 Y-1.6534 R0.135
N14840 G1 X3.5885 Y-1.6456
N14850 G2 X3.5862 Y-1.6364 R0.135
N14860 G1 X3.5838 Y-1.626
N14870 G2 X3.5819 Y-1.6155 R0.135
N14880 G1 X3.5804 Y-1.605
N14890 G2 X3.5794 Y-1.5952 R0.135
N14900 G1 X3.5788 Y-1.586
N14910 G2 X3.5785 Y-1.5769 R0.135
N14920 G1 X3.5786 Y0.
N14930 G1 X2.0389
N14940 G1 X2.0388 Y-1.5769
N14950 G2 X2.0383 Y-1.5887 R0.135
N14960 G1 X2.0371 Y-1.6032
N14970 G2 X2.0356 Y-1.6143 R0.135
N14980 G1 X2.0343 Y-1.6221
N14990 G2 X2.0327 Y-1.63 R0.135
N15000 G1 X2.0308 Y-1.6378
N15010 G2 X2.0288 Y-1.6456 R0.135
N15020 G1 X2.0264 Y-1.6535
N15030 G2 X2.0238 Y-1.6613 R0.135
N15040 G1 X2.0209 Y-1.6691
N15050 G2 X2.0175 Y-1.6776 R0.135
N15060 G1 X2.0134 Y-1.6868
N15070 G2 X2.0089 Y-1.6959 R0.135
N15080 G1 X2.004 Y-1.7051
N15090 G2 X1.9985 Y-1.7143 R0.135
N15100 G1 X1.9926 Y-1.7234
N15110 G2 X1.9861 Y-1.7326 R0.135
N15120 G1 X1.9791 Y-1.7418
N15130 G2 X1.9722 Y-1.75 R0.135
N15140 G1 X1.9655 Y-1.7573
N15150 G2 X1.9576 Y-1.7654 R0.135
N15160 G1 X1.9483 Y-1.774
N15170 G2 X1.939 Y-1.7819 R0.135
N15180 G1 X1.9298 Y-1.7891
N15190 G2 X1.9205 Y-1.7957 R0.135
N15200 G1 X1.9112 Y-1.8017
N15210 G2 X1.9061 Y-1.8049 R0.135
N15220 G3 X1.8944 Y-1.821 R0.025
N15230 G1 X1.8776 Y-1.8962
N15240 G2 X1.8565 Y-1.9156 R0.025
N15250 G2 X1.1586 Y-1.9768 R8.4097
N15260 G2 X0.4726 Y-1.835 R1.4184
N15270 G2 X0.3517 Y-1.7716 R2.249
N15280 G2 X0.278 Y-1.6567 R0.1462
N15290 G2 X0.2791 Y-1.6468 R0.025
N15300 G1 X0.317 Y-1.5317
N15310 G3 X0.2998 Y-1.4998 R0.025
N15320 G3 X0.0092 Y-1.7935 Z-0.32 R0.2375
N15330 G3 X0.2456 Y-1.9259 R0.1916
N15340 G3 X0.3779 Y-1.6895 R0.1916
N15350 G2 X0.3685 Y-1.6532 R0.973
N15360 G2 X0.3601 Y-1.5988 R0.3262
N15370 G2 X0.3503 Y-0.9342 R6.3009
N15380 G3 X0.3629 Y-0.2696 R17.5522
N15390 G3 X0.2797 Y-0.1864 R0.0832
N15400 G1 X0.2697
N15410 G3 X0.1865 Y-0.2696 R0.0832
N15420 G1 Y-1.7304
N15430 G3 X0.2697 Y-1.8136 R0.0832
N15440 G1 X0.3032
N15450 G3 X0.3829 Y-1.7063 R0.0832
N15460 G2 X0.3779 Y-1.6895 R0.973
N15470 G3 X0.3749 Y-1.6814 Z-0.3192 R0.05
N15480 G3 X0.3707 Y-1.6741 Z-0.317 R0.05
N15490 G3 X0.3657 Y-1.668 Z-0.3133 R0.05
N15500 G3 X0.3604 Y-1.6632 Z-0.3083 R0.05
N15510 G3 X0.3553 Y-1.6598 Z-0.3021 R0.05
N15520 G3 X0.3509 Y-1.6574 Z-0.295 R0.05
N15530 G3 X0.3475 Y-1.656 Z-0.2871 R0.05
N15540 G3 X0.3454 Y-1.6553 Z-0.2787 R0.05
N15550 G3 X0.3446 Y-1.655 Z-0.27 R0.05
N15560 G0 Z0.2
N15570 G0 X3.2337 Y-0.7998
N15580 G0 Z-0.2105
N15590 G3 X3.2338 Y-0.799 Z-0.2191 R0.2375 F92.
N15600 G3 X3.2341 Y-0.7969 Z-0.2273 R0.2375
N15610 G3 X3.2345 Y-0.7933 Z-0.2351 R0.2375
N15620 G3 X3.2349 Y-0.7885 Z-0.2422 R0.2375
N15630 G3 X3.2353 Y-0.7826 Z-0.2483 R0.2375
N15640 G3 X3.2356 Y-0.7756 Z-0.2534 R0.2375
N15650 G3 Y-0.7679 Z-0.2571 R0.2375
N15660 G3 X3.2354 Y-0.7597 Z-0.2595 R0.2375
N15670 G3 X3.2349 Y-0.7512 Z-0.2605 R0.2375
N15680 G3 X2.7614 Y-0.7885 Z-0.2805 R0.2375
N15690 G3 X3.2349 Y-0.7512 Z-0.3005 R0.2375
N15700 G3 X2.7606 Y-0.7698 Z-0.32 R0.2375
N15710 G1 Y-1.1876
N15720 G3 X2.8567 R-0.048
N15730 G1 Y-0.7702
N15740 G1 Y-0.7654
N15750 G3 X2.8131 Y-0.7218 R0.0436
N15760 G1 X2.8043
N15770 G3 X2.7606 Y-0.7654 R0.0436
N15780 G1 Y-0.7698
N15790 G2 X2.5764 Y-1.0462 R0.2994
N15800 G3 X2.3921 Y-1.3226 R0.2994
N15810 G1 Y-1.4961
N15820 G3 X2.5427 Y-1.6466 R0.1505
N15830 G1 X3.0746
N15840 G3 X3.2252 Y-1.4961 R0.1505
N15850 G1 Y-0.505
N15860 G3 X3.0736 Y-0.3533 R0.1517
N15870 G1 X2.5419
N15880 G3 X2.3921 Y-0.5031 R0.1498
N15890 G1 Y-1.3226
N15900 G2 X2.2133 Y-1.6284 R0.3508
N15910 G3 X1.9061 Y-1.8049 R18.6953
N15920 G2 X1.902 Y-1.8072 R0.135
N15930 G1 X1.8927 Y-1.8123
N15940 G2 X1.8815 Y-1.8177 R0.135
N15950 G1 X1.8683 Y-1.8233
N15960 G2 X1.8577 Y-1.8273 R0.135
N15970 G1 X1.8498 Y-1.8299
N15980 G2 X1.8418 Y-1.8323 R0.135
N15990 G1 X1.8338 Y-1.8344
N16000 G2 X1.8259 Y-1.8363 R0.135
N16010 G1 X1.8179 Y-1.8378
N16020 G2 X1.8093 Y-1.8393 R0.135
N16030 G1 X1.8001 Y-1.8405
N16040 G2 X1.7908 Y-1.8414 R0.135
N16050 G1 X1.7815 Y-1.842
N16060 G2 X1.7729 Y-1.8423 R0.135
N16070 G1 X0.8282 Y-1.8424
N16080 G2 X0.8258 Y-1.8423 R0.135
N16090 G1 X0.8073 Y-1.842
N16100 G2 X0.7956 Y-1.8413 R0.135
N16110 G1 X0.7864 Y-1.8403
N16120 G2 X0.7771 Y-1.839 R0.135
N16130 G1 X0.7679 Y-1.8374
N16140 G2 X0.7566 Y-1.835 R0.135
N16150 G1 X0.7434 Y-1.8315
N16160 G2 X0.7301 Y-1.8272 R0.135
N16170 G1 X0.7169 Y-1.8222
N16180 G2 X0.705 Y-1.817 R0.135
N16190 G1 X0.6944 Y-1.8118
N16200 G2 X0.6845 Y-1.8064 R0.135
N16210 G1 X0.6752 Y-1.8008
N16220 G2 X0.6659 Y-1.7947 R0.135
N16230 G1 X0.6567 Y-1.788
N16240 G2 X0.6474 Y-1.7807 R0.135
N16250 G1 X0.6381 Y-1.7727
N16260 G2 X0.6288 Y-1.7639 R0.135
N16270 G1 X0.6196 Y-1.7542
N16280 G2 X0.6107 Y-1.744 R0.135
N16290 G1 X0.6024 Y-1.7334
N16300 G2 X0.5953 Y-1.7234 R0.135
N16310 G1 X0.5894 Y-1.7143
N16320 G2 X0.584 Y-1.7051 R0.135
N16330 G1 X0.579 Y-1.6959
N16340 G2 X0.5745 Y-1.6868 R0.135
N16350 G1 X0.5704 Y-1.6776
N16360 G2 X0.5668 Y-1.6685 R0.135
N16370 G1 X0.5635 Y-1.6593
N16380 G2 X0.5605 Y-1.6501 R0.135
N16390 G1 X0.5579 Y-1.641
N16400 G2 X0.5557 Y-1.6318 R0.135
N16410 G1 X0.5538 Y-1.6227
N16420 G2 X0.5522 Y-1.6135 R0.135
N16430 G1 X0.551 Y-1.6043
N16440 G2 X0.55 Y-1.5952 R0.135
N16450 G1 X0.5494 Y-1.586
N16460 G2 X0.5491 Y-1.5769 R0.135
N16470 G1 X0.5492 Y0.
N16480 G1 X0.0002 Y-0.0001
N16490 G1 Y-1.9999
N16500 G1 X5.2498
N16510 G1 X5.2499 Y-1.8423
N16520 G1 X3.8476 Y-1.8424
N16530 G2 X3.8421 Y-1.8423 R0.135
N16540 G1 X3.8329 Y-1.8419
N16550 G2 X3.8236 Y-1.8412 R0.135
N16560 G1 X3.8143 Y-1.8402
N16570 G2 X3.8053 Y-1.8389 R0.135
N16580 G1 X3.7966 Y-1.8373
N16590 G2 X3.7878 Y-1.8354 R0.135
N16600 G1 X3.7791 Y-1.8333
N16610 G2 X3.7703 Y-1.8308 R0.135
N16620 G1 X3.7616 Y-1.828
N16630 G2 X3.7518 Y-1.8244 R0.135
N16640 G1 X3.741 Y-1.82
N16650 G2 X3.7309 Y-1.8154 R0.135
N16660 G1 X3.7217 Y-1.8107
N16670 G2 X3.7124 Y-1.8056 R0.135
N16680 G1 X3.7031 Y-1.7999
N16690 G2 X3.6939 Y-1.7937 R0.135
N16700 G1 X3.6846 Y-1.7869
N16710 G2 X3.6753 Y-1.7795 R0.135
N16720 G1 X3.6661 Y-1.7714
N16730 G2 X3.6565 Y-1.7621 R0.135
N16740 G1 X3.6466 Y-1.7516
N16750 G2 X3.6382 Y-1.7418 R0.135
N16760 G1 X3.6312 Y-1.7326
N16770 G2 X3.6247 Y-1.7234 R0.135
N16780 G1 X3.6188 Y-1.7143
N16790 G2 X3.6133 Y-1.7051 R0.135
N16800 G1 X3.6084 Y-1.6959
N16810 G2 X3.6039 Y-1.6868 R0.135
N16820 G1 X3.5998 Y-1.6776
N16830 G2 X3.5964 Y-1.6691 R0.135
N16840 G1 X3.5935 Y-1.6613
N16850 G2 X3.5909 Y-1.6534 R0.135
N16860 G1 X3.5885 Y-1.6456
N16870 G2 X3.5862 Y-1.6364 R0.135
N16880 G1 X3.5838 Y-1.626
N16890 G2 X3.5819 Y-1.6155 R0.135
N16900 G1 X3.5804 Y-1.605
N16910 G2 X3.5794 Y-1.5952 R0.135
N16920 G1 X3.5788 Y-1.586
N16930 G2 X3.5785 Y-1.5769 R0.135
N16940 G1 X3.5786 Y0.
N16950 G1 X2.0389
N16960 G1 X2.0388 Y-1.5769
N16970 G2 X2.0383 Y-1.5887 R0.135
N16980 G1 X2.0371 Y-1.6032
N16990 G2 X2.0356 Y-1.6143 R0.135
N17000 G1 X2.0343 Y-1.6221
N17010 G2 X2.0327 Y-1.63 R0.135
N17020 G1 X2.0308 Y-1.6378
N17030 G2 X2.0288 Y-1.6456 R0.135
N17040 G1 X2.0264 Y-1.6535
N17050 G2 X2.0238 Y-1.6613 R0.135
N17060 G1 X2.0209 Y-1.6691
N17070 G2 X2.0175 Y-1.6776 R0.135
N17080 G1 X2.0134 Y-1.6868
N17090 G2 X2.0089 Y-1.6959 R0.135
N17100 G1 X2.004 Y-1.7051
N17110 G2 X1.9985 Y-1.7143 R0.135
N17120 G1 X1.9926 Y-1.7234
N17130 G2 X1.9861 Y-1.7326 R0.135
N17140 G1 X1.9791 Y-1.7418
N17150 G2 X1.9722 Y-1.75 R0.135
N17160 G1 X1.9655 Y-1.7573
N17170 G2 X1.9576 Y-1.7654 R0.135
N17180 G1 X1.9483 Y-1.774
N17190 G2 X1.939 Y-1.7819 R0.135
N17200 G1 X1.9298 Y-1.7891
N17210 G2 X1.9205 Y-1.7957 R0.135
N17220 G1 X1.9112 Y-1.8017
N17230 G2 X1.9061 Y-1.8049 R0.135
N17240 G3 X1.899 Y-1.8099 Z-0.3192 R0.05
N17250 G3 X1.8931 Y-1.8159 Z-0.317 R0.05
N17260 G3 X1.8885 Y-1.8223 Z-0.3133 R0.05
N17270 G3 X1.8853 Y-1.8287 Z-0.3083 R0.05
N17280 G3 X1.8833 Y-1.8345 Z-0.3021 R0.05
N17290 G3 X1.8822 Y-1.8394 Z-0.295 R0.05
N17300 G3 X1.8817 Y-1.843 Z-0.2871 R0.05
N17310 G3 X1.8815 Y-1.8453 Z-0.2787 R0.05
N17320 G3 Y-1.846 Z-0.27 R0.05
N17330 G0 Z0.6

N17350 M9
N17360 G28 G91 Z0.
N17370 G28 X0. Y0.
N17380 M30
