%
O0000
N10 (PART - )
N20 (FILE - E:\CNC TOOLS\RHINODRAWINGS\TOOLS\BANDSAW\BASEPLATE.XFA)
N30 (AUTHOR - BOB WARFIELD)
N40 (GROUP - TOOLPATH GROUP #1)
N50 (POSTED - SUNDAY, JUNE 13, 2010 17:34)
N60 (CREATED - WEDNESDAY, JUNE 09, 2010 22:13)
N70 (SYSTEM- ONECNC-XR4 MILL 3D ADVANTAGE - VERSION 20.46)
N80 (NOTES - NONE)
N90 G49
N100 G17 G40
N110 G49
N120 G17 G40
N130 G20
N140 G80
N150 G90
N160 G98
N170 (0.5INCH END MILL)
N180 T0 M06
N190 S1600
N200 M08
N210 G43 H0 D0
N220 G00 X0.0532 Y-3.1706 Z0.2
N230 Z0.05
N240 G01 Z-0.2 F5.0 S1600
N250 G02 X-0.2333 Y-2.871 I1.4468 J1.6706 F10.0
N260 X-0.435 Y-2.291 I0.7333 J0.58
N270 G01 Y-0.709
N280 G02 X-0.2333 Y-0.129 I0.935 J0.
N290 X3.2333 Y-0.129 I1.7333 J-1.371
N300 X3.435 Y-0.709 I-0.7333 J-0.58
N310 G01 Y-2.291
N320 G02 X3.2333 Y-2.871 I-0.935 J0.
N330 X0.0532 Y-3.1706 I-1.7333 J1.371
N340 G01 Z-0.4 F5.0
N350 G02 X-0.2333 Y-2.871 I1.4468 J1.6706 F10.0
N360 X-0.435 Y-2.291 I0.7333 J0.58
N370 G01 Y-0.709
N380 G02 X-0.2333 Y-0.129 I0.935 J0.
N390 X3.2333 Y-0.129 I1.7333 J-1.371
N400 X3.435 Y-0.709 I-0.7333 J-0.58
N410 G01 Y-2.291
N420 G02 X3.2333 Y-2.871 I-0.935 J0.
N430 X0.0532 Y-3.1706 I-1.7333 J1.371
N440 G01 Z-0.48 F5.0
N450 G02 X-0.2333 Y-2.871 I1.4468 J1.6706 F10.0
N460 X-0.435 Y-2.291 I0.7333 J0.58
N470 G01 Y-0.709
N480 G02 X-0.2333 Y-0.129 I0.935 J0.
N490 X3.2333 Y-0.129 I1.7333 J-1.371
N500 X3.435 Y-0.709 I-0.7333 J-0.58
N510 G01 Y-2.291
N520 G02 X3.2333 Y-2.871 I-0.935 J0.
N530 X0.0532 Y-3.1706 I-1.7333 J1.371
N540 G00 Z0.2
N550 X0.1612 Y-3.0458
N560 Z0.05
N570 G01 Z-0.2 F5.0
N580 G02 X-0.1039 Y-2.7686 I1.3388 J1.5458 F10.0
N590 X-0.27 Y-2.291 I0.6039 J0.4777
N600 G01 Y-0.709
N610 G02 X-0.1039 Y-0.2314 I0.77 J0.
N620 X3.1039 Y-0.2314 I1.6039 J-1.2686
N630 X3.27 Y-0.709 I-0.6039 J-0.4777
N640 G01 Y-2.291
N650 G02 X3.1039 Y-2.7686 I-0.77 J0.
N660 X0.1612 Y-3.0458 I-1.6039 J1.2686
N670 G01 Z-0.4 F5.0
N680 G02 X-0.1039 Y-2.7686 I1.3388 J1.5458 F10.0
N690 X-0.27 Y-2.291 I0.6039 J0.4777
N700 G01 Y-0.709
N710 G02 X-0.1039 Y-0.2314 I0.77 J0.
N720 X3.1039 Y-0.2314 I1.6039 J-1.2686
N730 X3.27 Y-0.709 I-0.6039 J-0.4777
N740 G01 Y-2.291
N750 G02 X3.1039 Y-2.7686 I-0.77 J0.
N760 X0.1612 Y-3.0458 I-1.6039 J1.2686
N770 G01 Z-0.48 F5.0
N780 G02 X-0.1039 Y-2.7686 I1.3388 J1.5458 F10.0
N790 X-0.27 Y-2.291 I0.6039 J0.4777
N800 G01 Y-0.709
N810 G02 X-0.1039 Y-0.2314 I0.77 J0.
N820 X3.1039 Y-0.2314 I1.6039 J-1.2686
N830 X3.27 Y-0.709 I-0.6039 J-0.4777
N840 G01 Y-2.291
N850 G02 X3.1039 Y-2.7686 I-0.77 J0.
N860 X0.1612 Y-3.0458 I-1.6039 J1.2686
N870 G00 Z0.2
N880 X0.2692 Y-2.9211
N890 Z0.05
N900 G01 Z-0.2 F5.0
N910 G02 X0.0255 Y-2.6663 I1.2308 J1.4211 F10.0
N920 X-0.105 Y-2.291 I0.4745 J0.3753
N930 G01 Y-0.709
N940 G02 X0.0255 Y-0.3337 I0.605 J0.
N950 X2.9745 Y-0.3337 I1.4745 J-1.1663
N960 X3.105 Y-0.709 I-0.4745 J-0.3753
N970 G01 Y-2.291
N980 G02 X2.9745 Y-2.6663 I-0.605 J0.
N990 X0.2692 Y-2.9211 I-1.4745 J1.1663
N1000 G01 Z-0.4 F5.0
N1010 G02 X0.0255 Y-2.6663 I1.2308 J1.4211 F10.0
N1020 X-0.105 Y-2.291 I0.4745 J0.3753
N1030 G01 Y-0.709
N1040 G02 X0.0255 Y-0.3337 I0.605 J0.
N1050 X2.9745 Y-0.3337 I1.4745 J-1.1663
N1060 X3.105 Y-0.709 I-0.4745 J-0.3753
N1070 G01 Y-2.291
N1080 G02 X2.9745 Y-2.6663 I-0.605 J0.
N1090 X0.2692 Y-2.9211 I-1.4745 J1.1663
N1100 G01 Z-0.48 F5.0
N1110 G02 X0.0255 Y-2.6663 I1.2308 J1.4211 F10.0
N1120 X-0.105 Y-2.291 I0.4745 J0.3753
N1130 G01 Y-0.709
N1140 G02 X0.0255 Y-0.3337 I0.605 J0.
N1150 X2.9745 Y-0.3337 I1.4745 J-1.1663
N1160 X3.105 Y-0.709 I-0.4745 J-0.3753
N1170 G01 Y-2.291
N1180 G02 X2.9745 Y-2.6663 I-0.605 J0.
N1190 X0.2692 Y-2.9211 I-1.4745 J1.1663
N1200 G00 Z0.2
N1210 X0.3772 Y-2.7964
N1220 Z0.05
N1230 G01 Z-0.2 F5.0
N1240 G02 X0.1549 Y-2.5639 I1.1228 J1.2964 F10.0
N1250 X0.06 Y-2.291 I0.3451 J0.273
N1260 G01 Y-0.709
N1270 G02 X0.1549 Y-0.4361 I0.44 J0.
N1280 X2.8451 Y-0.4361 I1.3451 J-1.0639
N1290 X2.94 Y-0.709 I-0.3451 J-0.273
N1300 G01 Y-2.291
N1310 G02 X2.8451 Y-2.5639 I-0.44 J0.
N1320 X0.3772 Y-2.7964 I-1.3451 J1.0639
N1330 G01 Z-0.4 F5.0
N1340 G02 X0.1549 Y-2.5639 I1.1228 J1.2964 F10.0
N1350 X0.06 Y-2.291 I0.3451 J0.273
N1360 G01 Y-0.709
N1370 G02 X0.1549 Y-0.4361 I0.44 J0.
N1380 X2.8451 Y-0.4361 I1.3451 J-1.0639
N1390 X2.94 Y-0.709 I-0.3451 J-0.273
N1400 G01 Y-2.291
N1410 G02 X2.8451 Y-2.5639 I-0.44 J0.
N1420 X0.3772 Y-2.7964 I-1.3451 J1.0639
N1430 G01 Z-0.48 F5.0
N1440 G02 X0.1549 Y-2.5639 I1.1228 J1.2964 F10.0
N1450 X0.06 Y-2.291 I0.3451 J0.273
N1460 G01 Y-0.709
N1470 G02 X0.1549 Y-0.4361 I0.44 J0.
N1480 X2.8451 Y-0.4361 I1.3451 J-1.0639
N1490 X2.94 Y-0.709 I-0.3451 J-0.273
N1500 G01 Y-2.291
N1510 G02 X2.8451 Y-2.5639 I-0.44 J0.
N1520 X0.3772 Y-2.7964 I-1.3451 J1.0639
N1530 G00 Z0.2
N1540 X0.4361 Y-2.7284
N1550 Z0.05
N1560 G01 Z-0.2 F5.0
N1570 G02 X0.2255 Y-2.5081 I1.0639 J1.2284 F10.0
N1580 X0.15 Y-2.291 I0.2745 J0.2171
N1590 G01 Y-0.709
N1600 G02 X0.2255 Y-0.4919 I0.35 J0.
N1610 X2.7745 Y-0.4919 I1.2745 J-1.0081
N1620 X2.85 Y-0.709 I-0.2745 J-0.2171
N1630 G01 Y-2.291
N1640 G02 X2.7745 Y-2.5081 I-0.35 J0.
N1650 X0.4361 Y-2.7283 I-1.2745 J1.0081
N1660 G01 Z-0.4 F5.0
N1670 G02 X0.2255 Y-2.5081 I1.0639 J1.2284 F10.0
N1680 X0.15 Y-2.291 I0.2745 J0.2171
N1690 G01 Y-0.709
N1700 G02 X0.2255 Y-0.4919 I0.35 J0.
N1710 X2.7745 Y-0.4919 I1.2745 J-1.0081
N1720 X2.85 Y-0.709 I-0.2745 J-0.2171
N1730 G01 Y-2.291
N1740 G02 X2.7745 Y-2.5081 I-0.35 J0.
N1750 X0.4361 Y-2.7283 I-1.2745 J1.0081
N1760 G01 Z-0.48 F5.0
N1770 G02 X0.2255 Y-2.5081 I1.0639 J1.2284 F10.0
N1780 X0.15 Y-2.291 I0.2745 J0.2171
N1790 G01 Y-0.709
N1800 G02 X0.2255 Y-0.4919 I0.35 J0.
N1810 X2.7745 Y-0.4919 I1.2745 J-1.0081
N1820 X2.85 Y-0.709 I-0.2745 J-0.2171
N1830 G01 Y-2.291
N1840 G02 X2.7745 Y-2.5081 I-0.35 J0.
N1850 X0.4361 Y-2.7283 I-1.2745 J1.0081
N1860 G00 Z0.2
N1870 X0.5016 Y-2.6528
N1880 Z0.05
N1890 G01 Z-0.2 F5.0
N1900 G02 X0.3039 Y-2.4461 I0.9984 J1.1528 F10.0
N1910 X0.25 Y-2.291 I0.1961 J0.1551
N1920 G01 Y-0.709
N1930 G02 X0.3039 Y-0.5539 I0.25 J0.
N1940 X2.6961 Y-0.5539 I1.1961 J-0.9461
N1950 X2.75 Y-0.709 I-0.1961 J-0.1551
N1960 G01 Y-2.291
N1970 G02 X2.6961 Y-2.4461 I-0.25 J0.
N1980 X0.5016 Y-2.6528 I-1.1961 J0.9461
N1990 G01 Z-0.4 F5.0
N2000 G02 X0.3039 Y-2.4461 I0.9984 J1.1528 F10.0
N2010 X0.25 Y-2.291 I0.1961 J0.1551
N2020 G01 Y-0.709
N2030 G02 X0.3039 Y-0.5539 I0.25 J0.
N2040 X2.6961 Y-0.5539 I1.1961 J-0.9461
N2050 X2.75 Y-0.709 I-0.1961 J-0.1551
N2060 G01 Y-2.291
N2070 G02 X2.6961 Y-2.4461 I-0.25 J0.
N2080 X0.5016 Y-2.6528 I-1.1961 J0.9461
N2090 G01 Z-0.48 F5.0
N2100 G02 X0.3039 Y-2.4461 I0.9984 J1.1528 F10.0
N2110 X0.25 Y-2.291 I0.1961 J0.1551
N2120 G01 Y-0.709
N2130 G02 X0.3039 Y-0.5539 I0.25 J0.
N2140 X2.6961 Y-0.5539 I1.1961 J-0.9461
N2150 X2.75 Y-0.709 I-0.1961 J-0.1551
N2160 G01 Y-2.291
N2170 G02 X2.6961 Y-2.4461 I-0.25 J0.
N2180 X0.5016 Y-2.6528 I-1.1961 J0.9461
N2190 G00 Z0.2
N2200 X3.3296 Y-3.4651
N2210 Z0.05
N2220 G01 Z-0.6 F5.0
N2230 G02 X-1.185 Y-1.5 I-1.8296 J1.9651 F10.0
N2240 X4.185 Y-1.5 I2.685 J0.
N2250 X3.3296 Y-3.4651 I-2.685 J0.
N2260 G00 Z0.2
N2270 X3.2172 Y-3.3444
N2280 Z0.05
N2290 G01 Z-0.6 F5.0
N2300 G02 X-1.02 Y-1.5 I-1.7172 J1.8444 F10.0
N2310 X4.02 Y-1.5 I2.52 J0.
N2320 X3.2172 Y-3.3444 I-2.52 J0.
N2330 G00 Z0.2
N2340 X3.1047 Y-3.2236
N2350 Z0.05
N2360 G01 Z-0.6 F5.0
N2370 G02 X-0.855 Y-1.5 I-1.6047 J1.7236 F10.0
N2380 X3.855 Y-1.5 I2.355 J0.
N2390 X3.1047 Y-3.2236 I-2.355 J0.
N2400 G00 Z0.2
N2410 X2.9923 Y-3.1029
N2420 Z0.05
N2430 G01 Z-0.6 F5.0
N2440 G02 X-0.69 Y-1.5 I-1.4923 J1.6029 F10.0
N2450 X3.69 Y-1.5 I2.19 J0.
N2460 X2.9923 Y-3.1028 I-2.19 J0.
N2470 G00 Z0.2
N2480 X2.8799 Y-2.9821
N2490 Z0.05
N2500 G01 Z-0.6 F5.0
N2510 G02 X-0.525 Y-1.5 I-1.3799 J1.4821 F10.0
N2520 X3.525 Y-1.5 I2.025 J0.
N2530 X2.8799 Y-2.9821 I-2.025 J0.
N2540 G00 Z0.2
N2550 X2.7674 Y-2.8613
N2560 Z0.05
N2570 G01 Z-0.6 F5.0
N2580 G02 X-0.36 Y-1.5 I-1.2674 J1.3613 F10.0
N2590 X3.36 Y-1.5 I1.86 J0.
N2600 X2.7674 Y-2.8613 I-1.86 J0.
N2610 G00 Z0.2
N2620 X2.7606 Y-2.854
N2630 Z0.05
N2640 G01 Z-0.6 F5.0
N2650 G02 X-0.35 Y-1.5 I-1.2606 J1.354 F10.0
N2660 X3.35 Y-1.5 I1.85 J0.
N2670 X2.7606 Y-2.854 I-1.85 J0.
N2680 G00 Z0.2
N2690 X2.6925 Y-2.7808
N2700 Z0.05
N2710 G01 Z-0.6 F5.0
N2720 G02 X-0.25 Y-1.5 I-1.1925 J1.2808 F10.0
N2730 X3.25 Y-1.5 I1.75 J0.
N2740 X2.6925 Y-2.7808 I-1.75 J0.
N2750 G00 Z0.2
N2760 (END TOOL)
N2770 M5
N2780 M09
N2790 M25
N2800 M30
%
