%
O0000
N10 (MACH3 MILL - )
N20 (AUTHOR - {Bob Warfield})
N30 (GROUP - TOOLPATH GROUP #1)
N40 (SYSTEM- ONECNC-XR2 MILL ADVANTAGE - VERSION 7.36)
N50 (NOTES - Turtle Glyph)
N60 G0 G40 G49 G50 G80 G94
N70 (.125 INCH 1/8 HSS BALL MILL ) ( )
N80 T4 M06 G43 H4
N90 S12039.0 F14.4468 M3 M07
N100 G4 P3
N110 G00 X0.0999 Y0.7109 Z0.2
N120 Z0.05
N130 G01 Z-0.1 F7.2234
N140 G03 X0.0994 Y0.7032 I0.0609 J-0.0077 F14.4468
N150 X0.1116 Y0.6664 I0.0614 J0.
N160 X0.1434 Y0.6471 I0.0424 J0.0339
N170 X0.174 Y0.6437 I0.0305 J0.1385
N180 X0.1751 Y0.6437 I0. J0.1419
N190 G02 X0.1863 Y0.6438 I0.0113 J-0.6259
N200 X0.227 Y0.6425 I0. J-0.626
N210 X0.2711 Y0.6282 I-0.0056 J-0.0922
N220 X0.2901 Y0.616 I-0.5426 J-0.8731
N230 G03 X0.3241 Y0.6039 I0.0433 J0.0674
N240 X0.3342 Y0.6034 I0.0101 J0.1035
N250 X0.3733 Y0.611 I0. J0.104
N260 X0.4264 Y0.6429 I-0.0746 J0.1844
N270 X0.4776 Y0.694 I-0.2467 J0.2983
N280 G02 X0.5789 Y0.8106 I1.7172 J-1.3887
N290 X0.6031 Y0.8307 I0.0899 J-0.0839
N300 X0.6244 Y0.8366 I0.0213 J-0.0351
N310 X0.6262 Y0.8366 I0. J-0.041
N320 X0.6428 Y0.8325 I-0.0039 J-0.0519
N330 X0.6715 Y0.8171 I-0.0704 J-0.1656
N340 G03 X0.7932 Y0.757 I0.2677 J0.3889
N350 X1.0337 Y0.7104 I0.3009 J0.9099
N360 G02 X1.3929 Y0.6844 I-0.424 J-8.3251
N370 X1.5394 Y0.6643 I-0.065 J-1.0214
N380 X1.5614 Y0.6561 I-0.0186 J-0.0831
N390 X1.5712 Y0.6467 I-0.0124 J-0.0228
N400 X1.5736 Y0.6369 I-0.0184 J-0.0098
N410 X1.5734 Y0.6338 I-0.0208 J0.
N420 X1.5697 Y0.6207 I-0.0485 J0.0066
N430 X1.5543 Y0.5932 I-0.1382 J0.0595
N440 X1.4953 Y0.5212 I-0.5031 J0.3518
N450 X1.3603 Y0.3845 I-2.9302 J2.7589
N460 G03 X1.2991 Y0.3206 I0.7768 J-0.8043
N470 X1.2347 Y0.1918 I0.1895 J-0.1753
N480 X1.2297 Y0.1517 I0.4568 J-0.0779
N490 G02 X1.2258 Y0.1264 I-0.2298 J0.0224
N500 X1.2202 Y0.1032 I-0.8273 J0.1864
N510 G03 X1.2186 Y0.0894 I0.0595 J-0.0139
N520 X1.2215 Y0.0798 I0.0177 J0.
N530 G01 X1.2228 Y0.0781
N540 X1.2245 Y0.0767
N550 G03 X1.2326 Y0.0728 I0.0143 J0.0195
N560 X1.2533 Y0.0701 I0.0207 J0.0784
N570 X1.2564 Y0.0702 I0. J0.0811
N580 X1.3158 Y0.0773 I-0.0062 J0.3018
N590 X1.5735 Y0.1682 I-0.3246 J1.3303
N600 X1.7629 Y0.2929 I-0.2441 J0.577
N610 G02 X1.8183 Y0.3416 I0.3904 J-0.3888
N620 X1.866 Y0.3747 I0.7044 J-0.9628
N630 G03 X1.9134 Y0.4173 I-0.1251 J0.1866
N640 X1.9479 Y0.5094 I-0.1055 J0.0921
N650 X1.9477 Y0.5158 I-0.14 J0.
N660 X1.9274 Y0.6053 I-0.276 J-0.0155
N670 X1.8823 Y0.7008 I-1.0203 J-0.4239
N680 X1.8405 Y0.7637 I-0.2418 J-0.1155
N690 X1.8042 Y0.8007 I-0.6112 J-0.5635
N700 G02 X1.7802 Y0.8272 I0.2036 J0.2082
N710 X1.764 Y0.8608 I0.0618 J0.0505
N720 X1.7627 Y0.8748 I0.0754 J0.0141
N730 X1.7645 Y0.8914 I0.0767 J0.
N740 X1.7752 Y0.9251 I0.1738 J-0.0364
N750 X1.815 Y1.0007 I0.4878 J-0.209
N760 G03 X1.9043 Y1.1518 I-1.3846 J0.9198
N770 G02 X1.921 Y1.1782 I0.181 J-0.096
N780 X1.9388 Y1.192 I0.0344 J-0.0262
N790 X1.9629 Y1.1965 I0.0257 J-0.0709
N800 X1.9797 Y1.1969 I0.0168 J-0.3572
N810 X2.0156 Y1.1951 I0. J-0.3576
N820 G03 X2.1272 Y1.1847 I0.3298 J2.9488
N830 X2.1428 Y1.1841 I0.0156 J0.206
N840 X2.2092 Y1.1951 I0. J0.2066
N850 X2.3031 Y1.2467 I-0.1567 J0.3967
N860 X2.3577 Y1.3181 I-0.0845 J0.1212
N870 X2.3704 Y1.3948 I-0.225 J0.0767
N880 X2.3658 Y1.4412 I-0.2377 J0.
N890 X2.2166 Y1.5869 I-0.1715 J-0.0264
N900 X2.1659 Y1.5927 I-0.1234 J-0.8488
N910 X2.1307 Y1.5949 I-0.0351 J-0.2845
N920 X2.0803 Y1.5904 I0. J-0.2867
N930 X2.0166 Y1.5762 I0.2355 J-1.2061
N940 G02 X1.9439 Y1.5659 I-0.0866 J0.3491
N950 X1.9425 Y1.5659 I-0.0013 J0.0779
N960 X1.9096 Y1.5732 I0. J0.0779
N970 X1.8855 Y1.5922 I0.0397 J0.0753
N980 X1.8602 Y1.624 I0.2194 J0.2002
N990 G03 X1.7868 Y1.7269 I-2.7107 J-1.8546
N1000 G02 X1.7536 Y1.773 I0.3658 J0.299
N1010 X1.7384 Y1.8132 I0.0902 J0.0571
N1020 X1.7378 Y1.8233 I0.0846 J0.0101
N1030 X1.7435 Y1.8539 I0.0852 J0.
N1040 X1.7598 Y1.8908 I0.2663 J-0.0958
N1050 G03 X1.8258 Y2.0289 I-3.295 J1.6597
N1060 X1.8592 Y2.1511 I-0.2944 J0.1463
N1070 X1.8601 Y2.1728 I-0.2897 J0.0217
N1080 X1.8327 Y2.296 I-0.2905 J0.
N1090 X1.7681 Y2.3898 I-0.3803 J-0.1925
N1100 X1.5124 Y2.5693 I-0.5081 J-0.4521
N1110 X1.3876 Y2.6139 I-0.6275 J-1.5589
N1120 X1.2226 Y2.6626 I-0.448 J-1.2147
N1130 X1.1966 Y2.6654 I-0.026 J-0.1187
N1140 X1.1833 Y2.6646 I0. J-0.1215
N1150 X1.1483 Y2.643 I0.0055 J-0.048
N1160 X1.1436 Y2.6349 I0.0578 J-0.0383
N1170 X1.1319 Y2.5958 I0.1345 J-0.0616
N1180 X1.127 Y2.5355 I0.3636 J-0.0603
N1190 X1.1278 Y2.5101 I0.3686 J0.
N1200 X1.1493 Y2.4168 I0.2418 J0.0066
N1210 X1.1871 Y2.3654 I0.1747 J0.0888
N1220 G02 X1.2211 Y2.328 I-0.2591 J-0.2692
N1230 G03 X1.2917 Y2.2373 I0.8678 J0.6029
N1240 X1.3708 Y2.1542 I1.6753 J1.5153
N1250 G02 X1.4277 Y2.0651 I-0.1779 J-0.1764
N1260 X1.4441 Y1.9963 I-0.2685 J-0.1003
N1270 X1.4444 Y1.9897 I-0.0661 J-0.0067
N1280 X1.4422 Y1.9728 I-0.0664 J0.
N1290 X1.4301 Y1.9585 I-0.0215 J0.006
N1300 X1.4178 Y1.9549 I-0.0177 J0.038
N1310 X1.3968 Y1.9535 I-0.021 J0.1477
N1320 X1.3926 Y1.9535 I0. J0.1492
N1330 G03 X1.3704 Y1.9539 I-0.0222 J-0.576
N1340 X1.2445 Y1.94 I0. J-0.5765
N1350 G02 X1.0811 Y1.9119 I-0.5033 J2.4361
N1360 G03 X0.8125 Y1.8473 I0.5321 J-2.8015
N1370 G02 X0.7773 Y1.8399 I-0.0572 J0.1859
N1380 X0.77 Y1.8395 I-0.0073 J0.0606
N1390 X0.7406 Y1.847 I0. J0.061
N1400 X0.7119 Y1.8688 I0.0718 J0.1247
N1410 G03 X0.6278 Y1.9362 I-0.358 J-0.3603
N1420 X0.5102 Y1.9946 I-0.3427 J-0.5423
N1430 X0.3743 Y2.0284 I-0.1696 J-0.3918
N1440 G02 X0.2704 Y2.0339 I0.2337 J5.4488
N1450 G03 X0.255 Y2.0344 I-0.0154 J-0.2193
N1460 X0.1955 Y2.0262 I0. J-0.2198
N1470 X0.1635 Y2.0078 I0.0219 J-0.075
N1480 X0.147 Y1.9825 I0.054 J-0.0532
N1490 X0.1367 Y1.9256 I0.1508 J-0.0568
N1500 X0.1597 Y1.8425 I0.1612 J0.
N1510 X0.2063 Y1.7808 I0.3329 J0.2024
N1520 G02 X0.2801 Y1.699 I-2.687 J-2.4992
N1530 X0.3361 Y1.6034 I-0.2211 J-0.1937
N1540 X0.3448 Y1.5519 I-0.1473 J-0.0515
N1550 X0.3434 Y1.5307 I-0.156 J0.
N1560 X0.3234 Y1.4737 I-0.1805 J0.0312
N1570 X0.2913 Y1.4318 I-0.1266 J0.064
N1580 X0.2411 Y1.41 I-0.065 J0.0808
N1590 X0.2202 Y1.4079 I-0.0209 J0.1042
N1600 X0.1744 Y1.4183 I0. J0.1063
N1610 X0.1135 Y1.4622 I0.1082 J0.214
N1620 X0.0889 Y1.4881 I0.4406 J0.4448
N1630 G03 X0.0786 Y1.4967 I-0.0417 J-0.0389
N1640 X0.0753 Y1.498 I-0.0058 J-0.01
N1650 G00 Z0.2
N1660 X0.0738 Y1.4981
N1670 Z0.05
N1680 G01 Z-0.1 F7.2234
N1690 X0.0753 Y1.498 F14.4468
N1700 G00 Z0.2
N1710 X0.0738 Y1.4981
N1720 Z0.05
N1730 G01 Z-0.1 F7.2234
N1740 X0.0725 Y1.4978 F14.4468
N1750 G00 Z0.2
N1760 X0.0713 Y1.497
N1770 Z0.05
N1780 G01 Z-0.1 F7.2234
N1790 X0.0725 Y1.4978 F14.4468
N1800 G00 Z0.2
N1810 X0.0713 Y1.497
N1820 Z0.05
N1830 G01 Z-0.1 F7.2234
N1840 X0.0702 Y1.4957 F14.4468
N1850 G03 X0.068 Y1.4907 I0.0137 J-0.0088
N1860 X0.0666 Y1.4815 I0.0474 J-0.0124
N1870 X0.0663 Y1.4715 I0.1808 J-0.0099
N1880 X0.0692 Y1.4394 I0.1811 J0.
N1890 X0.1129 Y1.3279 I0.2739 J0.0432
N1900 X0.1754 Y1.2657 I0.2344 J0.1732
N1910 X0.2547 Y1.2088 I1.3505 J1.7944
N1920 G02 X0.3259 Y1.1493 I-0.2316 J-0.3501
N1930 X0.3463 Y1.1154 I-0.0689 J-0.0644
N1940 X0.3506 Y1.0857 I-0.1006 J-0.0298
N1950 X0.3498 Y1.0731 I-0.1049 J0.
N1960 X0.3403 Y1.0255 I-0.185 J0.0122
N1970 X0.3161 Y0.9921 I-0.0665 J0.0227
N1980 X0.2858 Y0.9749 I-0.0959 J0.1337
N1990 G03 X0.2527 Y0.958 I0.1539 J-0.3419
N2000 X0.1954 Y0.9059 I0.12 J-0.1895
N2010 X0.1156 Y0.7667 I0.4786 J-0.3668
N2020 X0.0999 Y0.7109 I0.1868 J-0.0829
N2030 G00 Z0.2
N2040 X0.5756 Y1.1113
N2050 Z0.05
N2060 G01 Z-0.1 F7.2234
N2070 G03 X0.6055 Y1.0745 I0.1941 J0.1273 F14.4468
N2080 X0.7174 Y0.9779 I0.7009 J0.6987
N2090 X0.8282 Y0.9136 I0.2711 J0.3394
N2100 X0.9608 Y0.8852 I0.1753 J0.4956
N2110 X1.0244 Y0.8817 I0.0635 J0.5697
N2120 X1.0759 Y0.884 I0. J0.5732
N2130 X1.1167 Y0.8945 I-0.0117 J0.1299
N2140 X1.1396 Y0.9173 I-0.0195 J0.0425
N2150 X1.1458 Y0.9439 I-0.0689 J0.0301
N2160 X1.1462 Y0.959 I-0.2761 J0.0151
N2170 X1.1437 Y0.9959 I-0.2766 J0.
N2180 X1.1225 Y1.1343 I-1.505 J-0.1593
N2190 X1.1011 Y1.1907 I-0.1791 J-0.0356
N2200 X1.0658 Y1.2207 I-0.0606 J-0.0358
N2210 X1.0357 Y1.2258 I-0.0314 J-0.0934
N2220 X0.8887 Y1.2131 I0.0013 J-0.8714
N2230 G02 X0.7299 Y1.1854 I-0.4359 J2.0294
N2240 G03 X0.6563 Y1.1755 I1.0646 J-8.1725
N2250 X0.5959 Y1.1634 I0.0376 J-0.3441
N2260 X0.5756 Y1.1528 I0.0187 J-0.0609
N2270 X0.5677 Y1.1411 I0.0152 J-0.0187
N2280 X0.5669 Y1.1347 I0.0255 J-0.0063
N2290 X0.5687 Y1.1253 I0.0263 J0.
N2300 X0.5756 Y1.1113 I0.0628 J0.0221
N2310 G00 Z0.2
N2320 X0.5044 Y1.4436
N2330 Z0.05
N2340 G01 Z-0.1 F7.2234
N2350 G03 X0.5198 Y1.4259 I0.0668 J0.0426 F14.4468
N2360 X0.572 Y1.3947 I0.1188 J0.1395
N2370 X0.6603 Y1.3722 I0.1346 J0.3442
N2380 X0.8268 Y1.3627 I0.1665 J1.453
N2390 X1.05 Y1.3798 I0. J1.4625
N2400 X1.0742 Y1.3863 I-0.0136 J0.099
N2410 X1.0906 Y1.4013 I-0.0132 J0.031
N2420 X1.0958 Y1.4168 I-0.0457 J0.0239
N2430 X1.0984 Y1.4469 I-0.1744 J0.0301
N2440 X1.0982 Y1.4551 I-0.1769 J0.
N2450 X1.0845 Y1.6285 I-2.8361 J-0.1378
N2460 X1.0736 Y1.6781 I-0.1896 J-0.0155
N2470 X1.0377 Y1.7183 I-0.0675 J-0.0241
N2480 X1.0218 Y1.7241 I-0.0402 J-0.0847
N2490 X0.9709 Y1.7304 I-0.0508 J-0.203
N2500 X0.9696 Y1.7304 I0. J-0.2092
N2510 X0.8688 Y1.7221 I0.0018 J-0.6378
N2520 X0.741 Y1.688 I0.0577 J-0.4722
N2530 X0.6388 Y1.6225 I0.2064 J-0.4344
N2540 X0.52 Y1.5093 I0.5655 J-0.7129
N2550 X0.5024 Y1.4834 I0.1006 J-0.087
N2560 X0.4979 Y1.4645 I0.037 J-0.0189
N2570 X0.498 Y1.4614 I0.0416 J0.
N2580 X0.5044 Y1.4436 I0.0399 J0.0044
N2590 G00 Z0.2
N2600 X1.2936 Y0.8798
N2610 Z0.05
N2620 G01 Z-0.1 F7.2234
N2630 G03 X1.2972 Y0.8717 I0.0255 J0.0066 F14.4468
N2640 X1.3086 Y0.8653 I0.0123 J0.0084
N2650 X1.3112 Y0.8652 I0.0026 J0.0413
N2660 X1.3213 Y0.8665 I0. J0.0414
N2670 X1.3441 Y0.8738 I-0.0437 J0.1744
N2680 X1.576 Y1.0182 I-0.2394 J0.6429
N2690 X1.6412 Y1.0857 I-0.4286 J0.4789
N2700 X1.6874 Y1.1748 I-0.1695 J0.1444
N2710 X1.6921 Y1.2118 I-0.1416 J0.037
N2720 X1.692 Y1.218 I-0.1463 J0.
N2730 X1.6863 Y1.2426 I-0.0644 J-0.002
N2740 X1.6842 Y1.2464 I-0.036 J-0.0172
N2750 X1.6622 Y1.2628 I-0.0333 J-0.0218
N2760 X1.6342 Y1.2673 I-0.0295 J-0.0956
N2770 X1.6303 Y1.2673 I-0.0039 J-0.6595
N2780 X1.56 Y1.2635 I0. J-0.6595
N2790 G02 X1.3693 Y1.2507 I-0.2759 J2.6833
N2800 G03 X1.3362 Y1.2469 I0.0087 J-0.2175
N2810 X1.3167 Y1.2397 I0.0108 J-0.0597
N2820 X1.3004 Y1.2195 I0.0214 J-0.0341
N2830 X1.293 Y1.185 I0.1278 J-0.0453
N2840 X1.2896 Y1.0905 I1.3232 J-0.0945
N2850 X1.2898 Y1.0659 I1.3265 J0.
N2860 G01 X1.2898 Y0.9627
N2870 G03 X1.2897 Y0.9428 I1.1192 J-0.0198
N2880 X1.2903 Y0.9047 I1.1194 J0.
N2890 X1.2936 Y0.8798 I0.1057 J0.0014
N2900 G00 Z0.2
N2910 X1.2506 Y1.4239
N2920 Z0.05
N2930 G01 Z-0.1 F7.2234
N2940 G03 X1.2827 Y1.3943 I0.0464 J0.018 F14.4468
N2950 X1.3154 Y1.3895 I0.0332 J0.1137
N2960 X1.3177 Y1.3895 I0.0023 J0.4787
N2970 X1.3962 Y1.396 I0. J0.4787
N2980 X1.5824 Y1.4251 I-3.1128 J20.5462
N2990 X1.65 Y1.4355 I-0.0703 J0.6797
N3000 X1.6756 Y1.4455 I-0.0187 J0.0857
N3010 X1.6884 Y1.4605 I-0.0165 J0.0271
N3020 X1.6909 Y1.4745 I-0.0385 J0.0139
N3030 X1.6908 Y1.4773 I-0.041 J0.
N3040 X1.6835 Y1.5098 I-0.1102 J-0.0077
N3050 X1.6154 Y1.6134 I-0.2647 J-0.0998
N3060 X1.5797 Y1.6446 I-0.5034 J-0.5409
N3070 X1.5138 Y1.6868 I-0.1652 J-0.185
N3080 X1.3899 Y1.7222 I-0.259 J-0.6736
N3090 X1.2941 Y1.7344 I-0.178 J-1.0156
N3100 X1.2652 Y1.7364 I-0.036 J-0.3006
N3110 X1.2625 Y1.7365 I-0.0028 J-0.0695
N3120 X1.2421 Y1.7334 I0. J-0.0695
N3130 X1.2277 Y1.7201 I0.0075 J-0.0226
N3140 X1.2232 Y1.698 I0.0554 J-0.0227
N3150 X1.223 Y1.6872 I0.263 J-0.0109
N3160 X1.2239 Y1.665 I0.2632 J0.
N3170 X1.2417 Y1.46 I4.2581 J0.2663
N3180 X1.2506 Y1.4239 I0.1404 J0.0153
N3190 G00 Z0.2
N3200 X0.0999 Y0.7109
N3210 Z-0.05
N3220 G01 Z-0.2 F7.2234
N3230 G03 X0.0994 Y0.7032 I0.0609 J-0.0077 F14.4468
N3240 X0.1116 Y0.6664 I0.0614 J0.
N3250 X0.1434 Y0.6471 I0.0424 J0.0339
N3260 X0.174 Y0.6437 I0.0305 J0.1385
N3270 X0.1751 Y0.6437 I0. J0.1419
N3280 G02 X0.1863 Y0.6438 I0.0113 J-0.6259
N3290 X0.227 Y0.6425 I0. J-0.626
N3300 X0.2711 Y0.6282 I-0.0056 J-0.0922
N3310 X0.2901 Y0.616 I-0.5426 J-0.8731
N3320 G03 X0.3241 Y0.6039 I0.0433 J0.0674
N3330 X0.3342 Y0.6034 I0.0101 J0.1035
N3340 X0.3733 Y0.611 I0. J0.104
N3350 X0.4264 Y0.6429 I-0.0746 J0.1844
N3360 X0.4776 Y0.694 I-0.2467 J0.2983
N3370 G02 X0.5789 Y0.8106 I1.7172 J-1.3887
N3380 X0.6031 Y0.8307 I0.0899 J-0.0839
N3390 X0.6244 Y0.8366 I0.0213 J-0.0351
N3400 X0.6262 Y0.8366 I0. J-0.041
N3410 X0.6428 Y0.8325 I-0.0039 J-0.0519
N3420 X0.6715 Y0.8171 I-0.0704 J-0.1656
N3430 G03 X0.7932 Y0.757 I0.2677 J0.3889
N3440 X1.0337 Y0.7104 I0.3009 J0.9099
N3450 G02 X1.3929 Y0.6844 I-0.424 J-8.3251
N3460 X1.5394 Y0.6643 I-0.065 J-1.0214
N3470 X1.5614 Y0.6561 I-0.0186 J-0.0831
N3480 X1.5712 Y0.6467 I-0.0124 J-0.0228
N3490 X1.5736 Y0.6369 I-0.0184 J-0.0098
N3500 X1.5734 Y0.6338 I-0.0208 J0.
N3510 X1.5697 Y0.6207 I-0.0485 J0.0066
N3520 X1.5543 Y0.5932 I-0.1382 J0.0595
N3530 X1.4953 Y0.5212 I-0.5031 J0.3518
N3540 X1.3603 Y0.3845 I-2.9302 J2.7589
N3550 G03 X1.2991 Y0.3206 I0.7768 J-0.8043
N3560 X1.2347 Y0.1918 I0.1895 J-0.1753
N3570 X1.2297 Y0.1517 I0.4568 J-0.0779
N3580 G02 X1.2258 Y0.1264 I-0.2298 J0.0224
N3590 X1.2202 Y0.1032 I-0.8273 J0.1864
N3600 G03 X1.2186 Y0.0894 I0.0595 J-0.0139
N3610 X1.2215 Y0.0798 I0.0177 J0.
N3620 G01 X1.2228 Y0.0781
N3630 X1.2245 Y0.0767
N3640 G03 X1.2326 Y0.0728 I0.0143 J0.0195
N3650 X1.2533 Y0.0701 I0.0207 J0.0784
N3660 X1.2564 Y0.0702 I0. J0.0811
N3670 X1.3158 Y0.0773 I-0.0062 J0.3018
N3680 X1.5735 Y0.1682 I-0.3246 J1.3303
N3690 X1.7629 Y0.2929 I-0.2441 J0.577
N3700 G02 X1.8183 Y0.3416 I0.3904 J-0.3888
N3710 X1.866 Y0.3747 I0.7044 J-0.9628
N3720 G03 X1.9134 Y0.4173 I-0.1251 J0.1866
N3730 X1.9479 Y0.5094 I-0.1055 J0.0921
N3740 X1.9477 Y0.5158 I-0.14 J0.
N3750 X1.9274 Y0.6053 I-0.276 J-0.0155
N3760 X1.8823 Y0.7008 I-1.0203 J-0.4239
N3770 X1.8405 Y0.7637 I-0.2418 J-0.1155
N3780 X1.8042 Y0.8007 I-0.6112 J-0.5635
N3790 G02 X1.7802 Y0.8272 I0.2036 J0.2082
N3800 X1.764 Y0.8608 I0.0618 J0.0505
N3810 X1.7627 Y0.8748 I0.0754 J0.0141
N3820 X1.7645 Y0.8914 I0.0767 J0.
N3830 X1.7752 Y0.9251 I0.1738 J-0.0364
N3840 X1.815 Y1.0007 I0.4878 J-0.209
N3850 G03 X1.9043 Y1.1518 I-1.3846 J0.9198
N3860 G02 X1.921 Y1.1782 I0.181 J-0.096
N3870 X1.9388 Y1.192 I0.0344 J-0.0262
N3880 X1.9629 Y1.1965 I0.0257 J-0.0709
N3890 X1.9797 Y1.1969 I0.0168 J-0.3572
N3900 X2.0156 Y1.1951 I0. J-0.3576
N3910 G03 X2.1272 Y1.1847 I0.3298 J2.9488
N3920 X2.1428 Y1.1841 I0.0156 J0.206
N3930 X2.2092 Y1.1951 I0. J0.2066
N3940 X2.3031 Y1.2467 I-0.1567 J0.3967
N3950 X2.3577 Y1.3181 I-0.0845 J0.1212
N3960 X2.3704 Y1.3948 I-0.225 J0.0767
N3970 X2.3658 Y1.4412 I-0.2377 J0.
N3980 X2.2166 Y1.5869 I-0.1715 J-0.0264
N3990 X2.1659 Y1.5927 I-0.1234 J-0.8488
N4000 X2.1307 Y1.5949 I-0.0351 J-0.2845
N4010 X2.0803 Y1.5904 I0. J-0.2867
N4020 X2.0166 Y1.5762 I0.2355 J-1.2061
N4030 G02 X1.9439 Y1.5659 I-0.0866 J0.3491
N4040 X1.9425 Y1.5659 I-0.0013 J0.0779
N4050 X1.9096 Y1.5732 I0. J0.0779
N4060 X1.8855 Y1.5922 I0.0397 J0.0753
N4070 X1.8602 Y1.624 I0.2194 J0.2002
N4080 G03 X1.7868 Y1.7269 I-2.7107 J-1.8546
N4090 G02 X1.7536 Y1.773 I0.3658 J0.299
N4100 X1.7384 Y1.8132 I0.0902 J0.0571
N4110 X1.7378 Y1.8233 I0.0846 J0.0101
N4120 X1.7435 Y1.8539 I0.0852 J0.
N4130 X1.7598 Y1.8908 I0.2663 J-0.0958
N4140 G03 X1.8258 Y2.0289 I-3.295 J1.6597
N4150 X1.8592 Y2.1511 I-0.2944 J0.1463
N4160 X1.8601 Y2.1728 I-0.2897 J0.0217
N4170 X1.8327 Y2.296 I-0.2905 J0.
N4180 X1.7681 Y2.3898 I-0.3803 J-0.1925
N4190 X1.5124 Y2.5693 I-0.5081 J-0.4521
N4200 X1.3876 Y2.6139 I-0.6275 J-1.5589
N4210 X1.2226 Y2.6626 I-0.448 J-1.2147
N4220 X1.1966 Y2.6654 I-0.026 J-0.1187
N4230 X1.1833 Y2.6646 I0. J-0.1215
N4240 X1.1483 Y2.643 I0.0055 J-0.048
N4250 X1.1436 Y2.6349 I0.0578 J-0.0383
N4260 X1.1319 Y2.5958 I0.1345 J-0.0616
N4270 X1.127 Y2.5355 I0.3636 J-0.0603
N4280 X1.1278 Y2.5101 I0.3686 J0.
N4290 X1.1493 Y2.4168 I0.2418 J0.0066
N4300 X1.1871 Y2.3654 I0.1747 J0.0888
N4310 G02 X1.2211 Y2.328 I-0.2591 J-0.2692
N4320 G03 X1.2917 Y2.2373 I0.8678 J0.6029
N4330 X1.3708 Y2.1542 I1.6753 J1.5153
N4340 G02 X1.4277 Y2.0651 I-0.1779 J-0.1764
N4350 X1.4441 Y1.9963 I-0.2685 J-0.1003
N4360 X1.4444 Y1.9897 I-0.0661 J-0.0067
N4370 X1.4422 Y1.9728 I-0.0664 J0.
N4380 X1.4301 Y1.9585 I-0.0215 J0.006
N4390 X1.4178 Y1.9549 I-0.0177 J0.038
N4400 X1.3968 Y1.9535 I-0.021 J0.1477
N4410 X1.3926 Y1.9535 I0. J0.1492
N4420 G03 X1.3704 Y1.9539 I-0.0222 J-0.576
N4430 X1.2445 Y1.94 I0. J-0.5765
N4440 G02 X1.0811 Y1.9119 I-0.5033 J2.4361
N4450 G03 X0.8125 Y1.8473 I0.5321 J-2.8015
N4460 G02 X0.7773 Y1.8399 I-0.0572 J0.1859
N4470 X0.77 Y1.8395 I-0.0073 J0.0606
N4480 X0.7406 Y1.847 I0. J0.061
N4490 X0.7119 Y1.8688 I0.0718 J0.1247
N4500 G03 X0.6278 Y1.9362 I-0.358 J-0.3603
N4510 X0.5102 Y1.9946 I-0.3427 J-0.5423
N4520 X0.3743 Y2.0284 I-0.1696 J-0.3918
N4530 G02 X0.2704 Y2.0339 I0.2337 J5.4488
N4540 G03 X0.255 Y2.0344 I-0.0154 J-0.2193
N4550 X0.1955 Y2.0262 I0. J-0.2198
N4560 X0.1635 Y2.0078 I0.0219 J-0.075
N4570 X0.147 Y1.9825 I0.054 J-0.0532
N4580 X0.1367 Y1.9256 I0.1508 J-0.0568
N4590 X0.1597 Y1.8425 I0.1612 J0.
N4600 X0.2063 Y1.7808 I0.3329 J0.2024
N4610 G02 X0.2801 Y1.699 I-2.687 J-2.4992
N4620 X0.3361 Y1.6034 I-0.2211 J-0.1937
N4630 X0.3448 Y1.5519 I-0.1473 J-0.0515
N4640 X0.3434 Y1.5307 I-0.156 J0.
N4650 X0.3234 Y1.4737 I-0.1805 J0.0312
N4660 X0.2913 Y1.4318 I-0.1266 J0.064
N4670 X0.2411 Y1.41 I-0.065 J0.0808
N4680 X0.2202 Y1.4079 I-0.0209 J0.1042
N4690 X0.1744 Y1.4183 I0. J0.1063
N4700 X0.1135 Y1.4622 I0.1082 J0.214
N4710 X0.0889 Y1.4881 I0.4406 J0.4448
N4720 G03 X0.0786 Y1.4967 I-0.0417 J-0.0389
N4730 X0.0753 Y1.498 I-0.0058 J-0.01
N4740 G00 Z0.2
N4750 X0.0738 Y1.4981
N4760 Z-0.05
N4770 G01 Z-0.2 F7.2234
N4780 X0.0753 Y1.498 F14.4468
N4790 G00 Z0.2
N4800 X0.0738 Y1.4981
N4810 Z-0.05
N4820 G01 Z-0.2 F7.2234
N4830 X0.0725 Y1.4978 F14.4468
N4840 G00 Z0.2
N4850 X0.0713 Y1.497
N4860 Z-0.05
N4870 G01 Z-0.2 F7.2234
N4880 X0.0725 Y1.4978 F14.4468
N4890 G00 Z0.2
N4900 X0.0713 Y1.497
N4910 Z-0.05
N4920 G01 Z-0.2 F7.2234
N4930 X0.0702 Y1.4957 F14.4468
N4940 G03 X0.068 Y1.4907 I0.0137 J-0.0088
N4950 X0.0666 Y1.4815 I0.0474 J-0.0124
N4960 X0.0663 Y1.4715 I0.1808 J-0.0099
N4970 X0.0692 Y1.4394 I0.1811 J0.
N4980 X0.1129 Y1.3279 I0.2739 J0.0432
N4990 X0.1754 Y1.2657 I0.2344 J0.1732
N5000 X0.2547 Y1.2088 I1.3505 J1.7944
N5010 G02 X0.3259 Y1.1493 I-0.2316 J-0.3501
N5020 X0.3463 Y1.1154 I-0.0689 J-0.0644
N5030 X0.3506 Y1.0857 I-0.1006 J-0.0298
N5040 X0.3498 Y1.0731 I-0.1049 J0.
N5050 X0.3403 Y1.0255 I-0.185 J0.0122
N5060 X0.3161 Y0.9921 I-0.0665 J0.0227
N5070 X0.2858 Y0.9749 I-0.0959 J0.1337
N5080 G03 X0.2527 Y0.958 I0.1539 J-0.3419
N5090 X0.1954 Y0.9059 I0.12 J-0.1895
N5100 X0.1156 Y0.7667 I0.4786 J-0.3668
N5110 X0.0999 Y0.7109 I0.1868 J-0.0829
N5120 G00 Z0.2
N5130 X0.5756 Y1.1113
N5140 Z-0.05
N5150 G01 Z-0.2 F7.2234
N5160 G03 X0.6055 Y1.0745 I0.1941 J0.1273 F14.4468
N5170 X0.7174 Y0.9779 I0.7009 J0.6987
N5180 X0.8282 Y0.9136 I0.2711 J0.3394
N5190 X0.9608 Y0.8852 I0.1753 J0.4956
N5200 X1.0244 Y0.8817 I0.0635 J0.5697
N5210 X1.0759 Y0.884 I0. J0.5732
N5220 X1.1167 Y0.8945 I-0.0117 J0.1299
N5230 X1.1396 Y0.9173 I-0.0195 J0.0425
N5240 X1.1458 Y0.9439 I-0.0689 J0.0301
N5250 X1.1462 Y0.959 I-0.2761 J0.0151
N5260 X1.1437 Y0.9959 I-0.2766 J0.
N5270 X1.1225 Y1.1343 I-1.505 J-0.1593
N5280 X1.1011 Y1.1907 I-0.1791 J-0.0356
N5290 X1.0658 Y1.2207 I-0.0606 J-0.0358
N5300 X1.0357 Y1.2258 I-0.0314 J-0.0934
N5310 X0.8887 Y1.2131 I0.0013 J-0.8714
N5320 G02 X0.7299 Y1.1854 I-0.4359 J2.0294
N5330 G03 X0.6563 Y1.1755 I1.0646 J-8.1725
N5340 X0.5959 Y1.1634 I0.0376 J-0.3441
N5350 X0.5756 Y1.1528 I0.0187 J-0.0609
N5360 X0.5677 Y1.1411 I0.0152 J-0.0187
N5370 X0.5669 Y1.1347 I0.0255 J-0.0063
N5380 X0.5687 Y1.1253 I0.0263 J0.
N5390 X0.5756 Y1.1113 I0.0628 J0.0221
N5400 G00 Z0.2
N5410 X0.5044 Y1.4436
N5420 Z-0.05
N5430 G01 Z-0.2 F7.2234
N5440 G03 X0.5198 Y1.4259 I0.0668 J0.0426 F14.4468
N5450 X0.572 Y1.3947 I0.1188 J0.1395
N5460 X0.6603 Y1.3722 I0.1346 J0.3442
N5470 X0.8268 Y1.3627 I0.1665 J1.453
N5480 X1.05 Y1.3798 I0. J1.4625
N5490 X1.0742 Y1.3863 I-0.0136 J0.099
N5500 X1.0906 Y1.4013 I-0.0132 J0.031
N5510 X1.0958 Y1.4168 I-0.0457 J0.0239
N5520 X1.0984 Y1.4469 I-0.1744 J0.0301
N5530 X1.0982 Y1.4551 I-0.1769 J0.
N5540 X1.0845 Y1.6285 I-2.8361 J-0.1378
N5550 X1.0736 Y1.6781 I-0.1896 J-0.0155
N5560 X1.0377 Y1.7183 I-0.0675 J-0.0241
N5570 X1.0218 Y1.7241 I-0.0402 J-0.0847
N5580 X0.9709 Y1.7304 I-0.0508 J-0.203
N5590 X0.9696 Y1.7304 I0. J-0.2092
N5600 X0.8688 Y1.7221 I0.0018 J-0.6378
N5610 X0.741 Y1.688 I0.0577 J-0.4722
N5620 X0.6388 Y1.6225 I0.2064 J-0.4344
N5630 X0.52 Y1.5093 I0.5655 J-0.7129
N5640 X0.5024 Y1.4834 I0.1006 J-0.087
N5650 X0.4979 Y1.4645 I0.037 J-0.0189
N5660 X0.498 Y1.4614 I0.0416 J0.
N5670 X0.5044 Y1.4436 I0.0399 J0.0044
N5680 G00 Z0.2
N5690 X1.2936 Y0.8798
N5700 Z-0.05
N5710 G01 Z-0.2 F7.2234
N5720 G03 X1.2972 Y0.8717 I0.0255 J0.0066 F14.4468
N5730 X1.3086 Y0.8653 I0.0123 J0.0084
N5740 X1.3112 Y0.8652 I0.0026 J0.0413
N5750 X1.3213 Y0.8665 I0. J0.0414
N5760 X1.3441 Y0.8738 I-0.0437 J0.1744
N5770 X1.576 Y1.0182 I-0.2394 J0.6429
N5780 X1.6412 Y1.0857 I-0.4286 J0.4789
N5790 X1.6874 Y1.1748 I-0.1695 J0.1444
N5800 X1.6921 Y1.2118 I-0.1416 J0.037
N5810 X1.692 Y1.218 I-0.1463 J0.
N5820 X1.6863 Y1.2426 I-0.0644 J-0.002
N5830 X1.6842 Y1.2464 I-0.036 J-0.0172
N5840 X1.6622 Y1.2628 I-0.0333 J-0.0218
N5850 X1.6342 Y1.2673 I-0.0295 J-0.0956
N5860 X1.6303 Y1.2673 I-0.0039 J-0.6595
N5870 X1.56 Y1.2635 I0. J-0.6595
N5880 G02 X1.3693 Y1.2507 I-0.2759 J2.6833
N5890 G03 X1.3362 Y1.2469 I0.0087 J-0.2175
N5900 X1.3167 Y1.2397 I0.0108 J-0.0597
N5910 X1.3004 Y1.2195 I0.0214 J-0.0341
N5920 X1.293 Y1.185 I0.1278 J-0.0453
N5930 X1.2896 Y1.0905 I1.3232 J-0.0945
N5940 X1.2898 Y1.0659 I1.3265 J0.
N5950 G01 X1.2898 Y0.9627
N5960 G03 X1.2897 Y0.9428 I1.1192 J-0.0198
N5970 X1.2903 Y0.9047 I1.1194 J0.
N5980 X1.2936 Y0.8798 I0.1057 J0.0014
N5990 G00 Z0.2
N6000 X1.2506 Y1.4239
N6010 Z-0.05
N6020 G01 Z-0.2 F7.2234
N6030 G03 X1.2827 Y1.3943 I0.0464 J0.018 F14.4468
N6040 X1.3154 Y1.3895 I0.0332 J0.1137
N6050 X1.3177 Y1.3895 I0.0023 J0.4787
N6060 X1.3962 Y1.396 I0. J0.4787
N6070 X1.5824 Y1.4251 I-3.1128 J20.5462
N6080 X1.65 Y1.4355 I-0.0703 J0.6797
N6090 X1.6756 Y1.4455 I-0.0187 J0.0857
N6100 X1.6884 Y1.4605 I-0.0165 J0.0271
N6110 X1.6909 Y1.4745 I-0.0385 J0.0139
N6120 X1.6908 Y1.4773 I-0.041 J0.
N6130 X1.6835 Y1.5098 I-0.1102 J-0.0077
N6140 X1.6154 Y1.6134 I-0.2647 J-0.0998
N6150 X1.5797 Y1.6446 I-0.5034 J-0.5409
N6160 X1.5138 Y1.6868 I-0.1652 J-0.185
N6170 X1.3899 Y1.7222 I-0.259 J-0.6736
N6180 X1.2941 Y1.7344 I-0.178 J-1.0156
N6190 X1.2652 Y1.7364 I-0.036 J-0.3006
N6200 X1.2625 Y1.7365 I-0.0028 J-0.0695
N6210 X1.2421 Y1.7334 I0. J-0.0695
N6220 X1.2277 Y1.7201 I0.0075 J-0.0226
N6230 X1.2232 Y1.698 I0.0554 J-0.0227
N6240 X1.223 Y1.6872 I0.263 J-0.0109
N6250 X1.2239 Y1.665 I0.2632 J0.
N6260 X1.2417 Y1.46 I4.2581 J0.2663
N6270 X1.2506 Y1.4239 I0.1404 J0.0153
N6280 G00 Z0.2
N6290 M05 M09
N6300 (END TOOL)
N6310 M05 M09
N6320 M30
%
