%
O0000
N10 (MACH3 MILL - )
N20 (AUTHOR - {SCOTT SHAFER})
N30 (GROUP - TOOLPATH GROUP #1)
N40 (SYSTEM- ONECNC-XR3 MILL 3D ADVANTAGE - VERSION 11.30)
N50 (NOTES - NONE)
N60 G0 G40 G49 G50 G80 G94
N70 (0.625INCH END MILL ) ( )
N80 T0 M06 G43 H0
N90 S1600.0 F20.0 M3 M07
N100 G4 P3
N110 G00 X9.2882 Y1.9626 Z0.2
N120 Z0.05
N130 G01 X9.2894 Y2.0259 Z0.0433 F20.0
N140 X9.2772 Y2.088 Z0.0367
N150 X9.2521 Y2.1462 Z0.03
N160 X9.2152 Y2.1976 Z0.0233
N170 X9.1683 Y2.2401 Z0.0167
N180 X9.1134 Y2.2717 Z0.01 F10.0
N190 X9.0531 Y2.2909 Z0.0033
N200 X8.99 Y2.2969 Z-0.0033
N210 X8.9272 Y2.2893 Z-0.01
N220 X8.8673 Y2.2687 Z-0.0167
N230 X8.8133 Y2.2358 Z-0.0233
N240 X8.7674 Y2.1922 Z-0.03
N250 X8.7318 Y2.1398 Z-0.0367
N260 X8.7081 Y2.0811 Z-0.0433
N270 X8.6974 Y2.0187 Z-0.05
N280 X8.7001 Y1.9555 Z-0.0567
N290 X8.7162 Y1.8943 Z-0.0633
N300 X8.745 Y1.8378 Z-0.07
N310 X8.785 Y1.7888 Z-0.0767
N320 X8.8345 Y1.7494 Z-0.0833
N330 X8.8913 Y1.7213 Z-0.09
N340 X8.9527 Y1.706 Z-0.0967
N350 X9.016 Y1.704 Z-0.1033
N360 X9.0782 Y1.7154 Z-0.11
N370 X9.1366 Y1.7398 Z-0.1167
N380 X9.1886 Y1.7761 Z-0.1233
N390 X9.2316 Y1.8225 Z-0.13
N400 X9.2638 Y1.877 Z-0.1367
N410 X9.2838 Y1.9371 Z-0.1433
N420 X9.2905 Y2. Z-0.15
N430 G03 X9.289 Y2.0305 I-0.2969 J0. F20.0
N440 X9.2842 Y2.0607 I-0.2953 J-0.0305
N450 X9.2765 Y2.0903 I-0.2906 J-0.0607
N460 X9.2657 Y2.1189 I-0.2828 J-0.0903
N470 X9.252 Y2.1462 I-0.272 J-0.1189
N480 X9.2356 Y2.172 I-0.2584 J-0.1462
N490 X9.2166 Y2.196 I-0.242 J-0.172
N500 X9.1953 Y2.2179 I-0.223 J-0.196
N510 X9.1718 Y2.2375 I-0.2016 J-0.2179
N520 X9.1465 Y2.2545 I-0.1782 J-0.2375
N530 X9.1195 Y2.2689 I-0.1528 J-0.2545
N540 X9.0912 Y2.2804 I-0.1258 J-0.2689
N550 X9.0618 Y2.2889 I-0.0975 J-0.2804
N560 X9.0317 Y2.2944 I-0.0682 J-0.2889
N570 X8.9937 Y2.2969 I-0.0381 J-0.2944
N580 X8.9631 Y2.2953 I0. J-0.2969
N590 X8.9329 Y2.2906 I0.0305 J-0.2953
N600 X8.9034 Y2.2828 I0.0607 J-0.2906
N610 X8.8748 Y2.272 I0.0903 J-0.2828
N620 X8.8474 Y2.2584 I0.1189 J-0.272
N630 X8.8216 Y2.242 I0.1462 J-0.2584
N640 X8.7977 Y2.223 I0.172 J-0.242
N650 X8.7758 Y2.2016 I0.196 J-0.223
N660 X8.7562 Y2.1782 I0.2179 J-0.2016
N670 X8.7391 Y2.1528 I0.2375 J-0.1782
N680 X8.7248 Y2.1258 I0.2545 J-0.1528
N690 X8.7132 Y2.0975 I0.2689 J-0.1258
N700 X8.7047 Y2.0682 I0.2804 J-0.0975
N710 X8.6992 Y2.0381 I0.2889 J-0.0682
N720 X8.6968 Y2. I0.2944 J-0.0381
N730 X8.6983 Y1.9695 I0.2969 J0.
N740 X8.7031 Y1.9393 I0.2953 J0.0305
N750 X8.7108 Y1.9097 I0.2906 J0.0607
N760 X8.7216 Y1.8811 I0.2828 J0.0903
N770 X8.7353 Y1.8538 I0.272 J0.1189
N780 X8.7517 Y1.828 I0.2584 J0.1462
N790 X8.7707 Y1.804 I0.242 J0.172
N800 X8.792 Y1.7821 I0.223 J0.196
N810 X8.8155 Y1.7625 I0.2016 J0.2179
N820 X8.8408 Y1.7455 I0.1782 J0.2375
N830 X8.8678 Y1.7311 I0.1528 J0.2545
N840 X8.8961 Y1.7196 I0.1258 J0.2689
N850 X8.9255 Y1.7111 I0.0975 J0.2804
N860 X8.9556 Y1.7056 I0.0682 J0.2889
N870 X8.9937 Y1.7031 I0.0381 J0.2944
N880 X9.0242 Y1.7047 I0. J0.2969
N890 X9.0544 Y1.7094 I-0.0305 J0.2953
N900 X9.0839 Y1.7172 I-0.0607 J0.2906
N910 X9.0984 Y1.7222 I-0.0903 J0.2828
N920 X9.102 Y1.7236 I-0.1047 J0.2778
N930 X9.1033 Y1.7241 I-0.1083 J0.2764
N940 X9.1125 Y1.728 I-0.1096 J0.2759
N950 X9.1399 Y1.7416 I-0.1189 J0.272
N960 X9.1657 Y1.758 I-0.1462 J0.2584
N970 X9.1896 Y1.777 I-0.172 J0.242
N980 X9.2115 Y1.7984 I-0.196 J0.223
N990 X9.2311 Y1.8218 I-0.2179 J0.2016
N1000 X9.2482 Y1.8472 I-0.2375 J0.1782
N1010 X9.2625 Y1.8742 I-0.2545 J0.1528
N1020 X9.2741 Y1.9025 I-0.2689 J0.1258
N1030 X9.2826 Y1.9318 I-0.2804 J0.0975
N1040 X9.2881 Y1.9619 I-0.2889 J0.0682
N1050 X9.2899 Y1.9809 I-0.2944 J0.0381
N1060 X9.2904 Y1.9905 I-0.2963 J0.0191
N1070 X9.2905 Y1.9952 I-0.2967 J0.0095
N1080 X9.2905 Y1.9976 I-0.2968 J0.0048
N1090 X9.2905 Y2. I-0.2969 J0.0024
N1100 G02 X9.2904 Y2.005 I0.1574 J0.005
N1110 X9.2914 Y2.0227 I0.1575 J0.
N1120 G01 X9.2981 Y2.0675
N1130 G03 X9.3097 Y2.1254 I-0.1384 J0.0579
N1140 X9.3081 Y2.1477 I-0.15 J0.
N1150 X9.1399 Y2.3603 I-0.2843 J-0.052
N1160 X8.9822 Y2.3937 I-0.1577 J-0.3551
N1170 X8.5963 Y2.0504 I0. J-0.3885
N1180 X8.5931 Y1.9998 I0.3975 J-0.0506
N1190 X8.9938 Y1.5992 I0.4007 J0.
N1200 X9.3661 Y1.8518 I0. J0.4007
N1210 X9.4219 Y2.0808 I-0.442 J0.2291
N1220 X9.4156 Y2.16 I-0.4978 J0.
N1230 X8.993 Y2.504 I-0.4266 J-0.0926
N1240 X8.9869 Y2.504 I-0.0061 J-0.5062
N1250 X8.4807 Y1.9978 I0. J-0.5062
N1260 X8.6156 Y1.6538 I0.5062 J0.
N1270 X8.9946 Y1.4875 I0.379 J0.3488
N1280 X9.4347 Y1.7349 I0. J0.5151
N1290 X9.5389 Y2.0672 I-0.4782 J0.3323
N1300 X9.5077 Y2.2552 I-0.5824 J0.
N1310 X8.9761 Y2.6215 I-0.5316 J-0.2026
N1320 X8.8032 Y2.5946 I0. J-0.5689
N1330 X8.3637 Y1.9962 I0.1876 J-0.5984
N1340 X8.9807 Y1.3692 I0.6271 J0.
N1350 X8.9828 Y1.3692 I0.002 J0.6661
N1360 X9.5922 Y1.7664 I0. J0.6661
N1370 X9.6601 Y2.063 I-0.6137 J0.2966
N1380 X8.9785 Y2.7446 I-0.6816 J0.
N1390 X8.769 Y2.7116 I0. J-0.6816
N1400 X8.2405 Y1.9958 I0.2204 J-0.7158
N1410 X8.8127 Y1.2679 I0.749 J0.
N1420 X8.9906 Y1.2474 I0.1778 J0.7594
N1430 X9.6671 Y1.6392 I0. J0.78
N1440 X9.7853 Y2.0607 I-0.6923 J0.4214
N1450 X8.9749 Y2.8711 I-0.8105 J0.
N1460 X8.6552 Y2.8054 I0. J-0.8105
N1470 X8.1139 Y1.9955 I0.3354 J-0.81
N1480 X8.9853 Y1.1188 I0.8767 J0.
N1490 X9.8196 Y1.6502 I-0.0027 J0.925
N1500 X9.9139 Y2.0603 I-0.8451 J0.41
N1510 X8.9746 Y2.9996 I-0.9393 J0.
N1520 X8.6553 Y2.9436 I0. J-0.9393
N1530 X7.9833 Y1.995 I0.3336 J-0.9486
N1540 X8.7582 Y1.0163 I1.0055 J0.
N1550 X8.9906 Y0.9901 I0.2324 J1.0192
N1560 X9.9116 Y1.5409 I0. J1.0453
N1570 X10.0451 Y2.0593 I-0.9394 J0.5184
N1580 X8.9722 Y3.1322 I-1.0729 J0.
N1590 X8.5323 Y3.0379 I0. J-1.0729
N1600 X7.8507 Y1.995 I0.4569 J-1.0429
N1610 X8.743 Y0.8833 I1.1386 J0.
N1620 X8.9905 Y0.8571 I0.2475 J1.1556
N1630 X10.0608 Y1.5379 I0. J1.1818
N1640 X10.1792 Y2.0591 I-1.0883 J0.5212
N1650 X8.9726 Y3.2657 I-1.2066 J0.
N1660 X8.5551 Y3.1912 I0. J-1.2066
N1670 X7.7153 Y1.9948 I0.4324 J-1.1964
N1680 X8.4861 Y0.8256 I1.2722 J0.
N1690 X8.9959 Y0.722 I0.5098 J1.2037
N1700 X10.1117 Y1.3482 I0. J1.3072
N1710 X10.3148 Y2.0586 I-1.1412 J0.7104
N1720 X8.9706 Y3.4028 I-1.3442 J0.
N1730 X8.3984 Y3.275 I0. J-1.3442
N1740 X7.579 Y1.9946 I0.5907 J-1.2804
N1750 X8.7096 Y0.6124 I1.4101 J0.
N1760 X8.9905 Y0.5851 I0.2808 J1.4304
N1770 X10.3359 Y1.4819 I0. J1.4577
N1780 X10.454 Y2.0601 I-1.3567 J0.5783
N1790 X9.3002 Y3.4996 I-1.4748 J0.
N1800 X9.2959 Y3.5 I-0.0043 J-0.0205
N1810 G01 X8.7881
N1820 G03 X8.148 Y3.2941 I0.0532 J-1.2632
N1830 X7.4406 Y1.9943 I0.8404 J-1.2998
N1840 X8.5157 Y0.5205 I1.5478 J0.
N1850 X8.5797 Y0.5021 I0.1656 J0.4544
N1860 X8.6028 Y0.5 I0.0231 J0.1278
N1870 G01 X9.2334
N1880 G03 X9.7931 Y0.6658 I-0.0437 J1.1753
N1890 X10.492 Y1.4986 I-0.8043 J1.3846
N1900 X10.5 Y1.5435 I-0.1219 J0.0449
N1910 G01 Y2.4101
N1920 G03 X10.4943 Y2.5007 I-1.7975 J-0.0673
N1930 X10.3132 Y2.9613 I-1.1114 J-0.171
N1940 X9.7353 Y3.485 I-1.3137 J-0.8691
N1950 X9.6747 Y3.5 I-0.0606 J-0.1149
N1960 G01 X9.2959
N1970 G03 X9.2569 Y3.4881 I0.0027 J-0.0787
N1980 G02 X9.2152 Y3.4761 I-0.0417 J0.0668
N1990 X9.2121 Y3.4762 I0. J0.0787
N2000 G01 X8.8475 Y3.4906
N2010 G02 X8.8289 Y3.4936 I0.0031 J0.0787
N2020 G03 X8.7881 Y3.5 I-0.0466 J-0.1626
N2030 G01 X8.4114
N2040 G03 X8.1083 Y3.4148 I0.0332 J-0.6997
N2050 X7.5561 Y2.8888 I0.7137 J-1.3021
N2060 X7.3009 Y1.996 I1.4338 J-0.8927
N2070 X8.1758 Y0.5161 I1.689 J0.
N2080 X8.2385 Y0.5 I0.0627 J0.1138
N2090 G01 X8.5826
N2100 G03 X8.6216 Y0.5119 I-0.0027 J0.0787
N2110 G02 X8.6633 Y0.5239 I0.0417 J-0.0668
N2120 X8.6656 Y0.5238 I0. J-0.0787
N2130 G01 X9.1732 Y0.5095
N2140 G02 X9.1927 Y0.5064 I-0.0022 J-0.0787
N2150 G03 X9.2334 Y0.5 I0.0466 J0.1626
N2160 G01 X9.6102
N2170 G03 X9.866 Y0.5686 I-0.0431 J0.6719
N2180 X10.3803 Y1.005 I-0.6679 J1.3084
N2190 X10.4822 Y1.1556 I-1.3657 J1.0338
N2200 X10.5 Y1.2212 I-0.1122 J0.0656
N2210 G01 Y1.5435
N2220 G03 X10.4881 Y1.5825 I-0.0787 J-0.0027
N2230 G02 X10.4761 Y1.6242 I0.0668 J0.0417
N2240 X10.4761 Y1.6258 I0.0787 J0.
N2250 G01 X10.4905 Y2.3493
N2260 G02 X10.4936 Y2.3694 I0.0787 J-0.0016
N2270 G03 X10.5 Y2.4101 I-0.1626 J0.0466
N2280 G01 Y2.7519
N2290 G03 X10.4911 Y2.83 I-0.3543 J-0.0011
N2300 X10.3069 Y3.1908 I-0.921 J-0.2426
N2310 X10.0139 Y3.4736 I-1.2122 J-0.9629
N2320 G01 X10.0114 Y3.4754
N2330 G03 X9.9353 Y3.5 I-0.0761 J-0.1053
N2340 G01 X9.6747
N2350 G03 X9.5987 Y3.4213 I0.0027 J-0.0787
N2360 X9.6249 Y3.3627 I0.0787 J0.
N2370 G01 X10.3688 Y2.696
N2380 G03 X10.4213 Y2.6759 I0.0525 J0.0586
N2390 X10.5 Y2.7519 I0. J0.0787
N2400 G01 Y2.9912
N2410 G03 X10.4446 Y3.1862 I-0.4812 J-0.0313
N2420 X10.2352 Y3.4626 I-0.9661 J-0.5141
N2430 X10.144 Y3.5 I-0.0912 J-0.0925
N2440 G01 X9.9527
N2450 G03 X9.8767 Y3.4213 I0.0027 J-0.0787
N2460 X9.9022 Y3.3633 I0.0787 J0.
N2470 G01 X10.3681 Y2.9359
N2480 G03 X10.4213 Y2.9152 I0.0532 J0.058
N2490 X10.5 Y2.9912 I0. J0.0787
N2500 G01 Y3.1962
N2510 G03 X10.4925 Y3.2566 I-0.2743 J-0.0035
N2520 X10.4062 Y3.4441 I-0.5329 J-0.1316
N2530 X10.2994 Y3.5 I-0.1068 J-0.074
N2540 G01 X10.1582
N2550 G03 X10.0822 Y3.4213 I0.0027 J-0.0787
N2560 X10.1098 Y3.3614 I0.0787 J0.
N2570 G01 X10.3702 Y3.1391
N2580 G03 X10.4213 Y3.1202 I0.0511 J0.0599
N2590 X10.5 Y3.1962 I0. J0.0787
N2600 G01 Y3.3671
N2610 G03 X10.5 Y3.3693 I-0.2177 J0.0021
N2620 X10.4951 Y3.4152 I-0.2177 J0.
N2630 X10.3833 Y3.5 I-0.1118 J-0.0312
N2640 G01 X10.2994
N2650 G03 X10.2234 Y3.4213 I0.0027 J-0.0787
N2660 X10.271 Y3.349 I0.0787 J0.
N2670 G01 X10.3901 Y3.2976
N2680 G03 X10.4213 Y3.2911 I0.0312 J0.0723
N2690 X10.5 Y3.3671 I0. J0.0787
N2700 G01 Y3.4458
N2710 X10.4996 Y3.4548
N2720 G03 X10.4464 Y3.5 I-0.0531 J-0.0086
N2730 G01 X10.398
N2740 G03 X10.322 Y3.4213 I0.0027 J-0.0787
N2750 X10.4007 Y3.3426 I0.0787 J0.
N2760 X10.4636 Y3.3739 I0. J0.0787
N2770 G01 X10.4842 Y3.4011
N2780 G03 X10.5 Y3.4458 I-0.0629 J0.0474
N2790 G01 Y3.4782
N2800 X10.4998 Y3.4814
N2810 X10.4973 Y3.4887
N2820 X10.4923 Y3.4947
N2830 X10.4856 Y3.4986
N2840 X10.478 Y3.5
N2850 X10.4464
N2860 G03 X10.3803 Y3.4595 I0.0027 J-0.0787
N2870 X10.3755 Y3.441 I0.0333 J-0.0185
N2880 X10.4064 Y3.4036 I0.0381 J0.
N2890 X10.4213 Y3.4022 I0.0149 J0.0773
N2900 X10.5 Y3.4782 I0. J0.0787
N2910 G01 Y3.4914
N2920 X10.4999 Y3.4938
N2930 X10.4984 Y3.4969
N2940 X10.4958 Y3.4991
N2950 X10.4924 Y3.5
N2960 X10.478
N2970 G03 X10.4411 Y3.4766 I0.0015 J-0.0433
N2980 X10.439 Y3.4681 I0.0164 J-0.0085
N2990 X10.4575 Y3.4496 I0.0185 J0.
N3000 X10.4581 Y3.4496 I0. J0.0185
N3010 X10.5 Y3.4914 I-0.0014 J0.0433
N3020 X10.5 Y3.4922 I-0.0638 J0.0008
N3030 X10.4996 Y3.4993 I-0.0638 J0.
N3040 G01 X10.4924 Y3.5
N3050 G03 X10.4531 Y3.4894 I0.0001 J-0.0787
N3060 G01 X10.432 Y3.4772 Z-0.1461
N3070 X10.413 Y3.4662 Z-0.135
N3080 X10.3979 Y3.4575 Z-0.1175
N3090 X10.3883 Y3.4519 Z-0.0956
N3100 X10.3849 Y3.4499 Z-0.0713
N3110 G00 Z0.2
N3120 X10.4478 Y3.3904
N3130 Z0.05
N3140 G01 Z-0.0713 F10.0
N3150 X10.4498 Y3.3936 Z-0.0956 F20.0
N3160 X10.4556 Y3.4032 Z-0.1175
N3170 X10.4647 Y3.4181 Z-0.135
N3180 X10.4762 Y3.4368 Z-0.1461
N3190 X10.4888 Y3.4575 Z-0.15
N3200 G03 X10.4998 Y3.4965 I-0.0638 J0.039
N3210 X10.4998 Y3.4973 I-0.0748 J0.
N3220 G01 Y3.4991
N3230 X10.4996 Y3.4993
N3240 G00 Z0.2
N3250 X8.5278 Y3.4718
N3260 Z0.05
N3270 G01 Z-0.0713 F10.0
N3280 X8.5241 Y3.4729 Z-0.0956 F20.0
N3290 X8.5133 Y3.476 Z-0.1175
N3300 X8.4966 Y3.4808 Z-0.135
N3310 X8.4755 Y3.4868 Z-0.1461
N3320 X8.4521 Y3.4936 Z-0.15
N3330 G03 X8.4114 Y3.5 I-0.0466 J-0.1626
N3340 G01 X8.1373
N3350 X8.1167 Y3.499
N3360 G03 X7.8265 Y3.3773 I0.1123 J-0.6747
N3370 X7.3613 Y2.8289 I0.9058 J-1.2399
N3380 X7.1601 Y1.9951 I1.6267 J-0.8338
N3390 X7.9004 Y0.526 I1.8279 J0.
N3400 X7.9783 Y0.5 I0.0779 J0.104
N3410 G01 X8.2385
N3420 G03 X8.2775 Y0.5119 I-0.0027 J0.0787
N3430 G02 X8.3192 Y0.5239 I0.0417 J-0.0668
N3440 X8.3202 Y0.5239 I0. J-0.0787
N3450 G01 X9.5487 Y0.5095
N3460 G02 X9.5695 Y0.5064 I-0.0009 J-0.0787
N3470 G03 X9.6102 Y0.5 I0.0466 J0.1626
N3480 G01 X9.85
N3490 G03 X10.1046 Y0.576 I-0.0286 J0.5604
N3500 X10.4705 Y0.8965 I-0.672 J1.136
N3510 X10.5 Y0.979 I-0.1004 J0.0825
N3520 G01 Y1.2212
N3530 G03 X10.4213 Y1.2972 I-0.0787 J-0.0027
N3540 X10.3625 Y1.2708 I0. J-0.0787
N3550 G01 X9.7938 Y0.631
N3560 G03 X9.774 Y0.5787 I0.0589 J-0.0523
N3570 X9.85 Y0.5 I0.0787 J0.
N3580 G01 X10.0555
N3590 G03 X10.0624 Y0.4999 I0.0069 J0.3159
N3600 X10.1232 Y0.5058 I0. J0.316
N3610 X10.4046 Y0.6462 I-0.148 J0.6489
N3620 X10.4703 Y0.7052 I-0.2578 J0.3533
N3630 X10.5 Y0.7879 I-0.1002 J0.0827
N3640 G01 Y0.979
N3650 G03 X10.4213 Y1.055 I-0.0787 J-0.0027
N3660 X10.3632 Y1.0294 I0. J-0.0787
N3670 G01 X10.0001 Y0.6318
N3680 G03 X9.9795 Y0.5787 I0.0581 J-0.0531
N3690 X10.0555 Y0.5 I0.0787 J0.
N3700 G01 X10.261
N3710 G03 X10.4317 Y0.5454 I-0.0061 J0.3668
N3720 X10.5 Y0.6597 I-0.0616 J0.1144
N3730 G01 Y0.7696
N3740 G03 X10.4213 Y0.8456 I-0.0787 J-0.0027
N3750 X10.3609 Y0.8174 I0. J-0.0787
N3760 G01 X10.2034 Y0.6293
N3770 G03 X10.185 Y0.5787 I0.0604 J-0.0506
N3780 X10.261 Y0.5 I0.0787 J0.
N3790 G01 X10.4168
N3800 G03 X10.4193 Y0.5 I0.0024 J0.0667
N3810 X10.4429 Y0.5043 I0. J0.0668
N3820 X10.5 Y0.5848 I-0.0282 J0.0805
N3830 G01 Y0.6597
N3840 G03 X10.4213 Y0.7357 I-0.0787 J-0.0027
N3850 X10.3426 Y0.6587 I0. J-0.0787
N3860 G01 X10.3409 Y0.5804
N3870 G03 X10.3408 Y0.5787 I0.0787 J-0.0017
N3880 X10.4168 Y0.5 I0.0787 J0.
N3890 G01 X10.4634
N3900 X10.469 Y0.5003
N3910 G03 X10.5 Y0.5367 I-0.0059 J0.0364
N3920 G01 Y0.5645
N3930 G03 X10.4521 Y0.6342 I-0.0787 J-0.0027
N3940 X10.4349 Y0.6377 I-0.0173 J-0.0406
N3950 X10.3951 Y0.6126 I0. J-0.0441
N3960 X10.3874 Y0.5787 I0.0711 J-0.0339
N3970 X10.4634 Y0.5 I0.0787 J0.
N3980 G01 X10.4859
N3990 X10.4883 Y0.5002
N4000 X10.4929 Y0.5019
N4010 X10.4966 Y0.5051
N4020 X10.4991 Y0.5094
N4030 X10.5 Y0.5143
N4040 Y0.5367
N4050 G03 X10.478 Y0.558 I-0.022 J-0.0008
N4060 X10.4559 Y0.5359 I0. J-0.022
N4070 X10.4592 Y0.5244 I0.022 J0.
N4080 G01 X10.4677 Y0.5105
N4090 G03 X10.4859 Y0.5 I0.0188 J0.0115
N4100 X10.4888 Y0.5 I0.003 J0.0756
N4110 X10.4964 Y0.5003 I0. J0.0757
N4120 G01 X10.4981 Y0.5012
N4130 X10.4993 Y0.5027
N4140 G03 X10.4999 Y0.5062 I-0.0097 J0.0035
N4150 X10.4999 Y0.507 I-0.0103 J0.
N4160 G01 Y0.5143
N4170 G03 X10.4876 Y0.5336 I-0.022 J-0.0005
N4180 X10.4829 Y0.5347 I-0.0047 J-0.0097
N4190 X10.4722 Y0.5255 I0. J-0.0108
N4200 X10.472 Y0.5222 I0.0218 J-0.0034
N4210 X10.494 Y0.5001 I0.022 J0.
N4220 G01 X10.4985 Y0.5003
N4230 X10.4997 Y0.5009
N4240 X10.4998 Y0.5045
N4250 G03 X10.4998 Y0.5049 I-0.0787 J0.0004
N4260 X10.4895 Y0.544 I-0.0787 J0.
N4270 G01 X10.4774 Y0.5651 Z-0.1461
N4280 X10.4665 Y0.5842 Z-0.135
N4290 X10.4579 Y0.5993 Z-0.1175
N4300 X10.4523 Y0.609 Z-0.0956
N4310 X10.4504 Y0.6123 Z-0.0713
N4320 G00 Z0.2
N4330 X10.3921 Y0.5534
N4340 Z0.05
N4350 G01 Z-0.0713 F10.0
N4360 X10.3954 Y0.5514 Z-0.0956 F20.0
N4370 X10.4048 Y0.5454 Z-0.1175
N4380 X10.4196 Y0.5362 Z-0.135
N4390 X10.4382 Y0.5246 Z-0.1461
N4400 X10.4589 Y0.5117 Z-0.15
N4410 G03 X10.4985 Y0.5003 I0.0397 J0.0634
N4420 G01 X10.4993
N4430 G00 Z0.2
N4440 X8.2538 Y3.4718
N4450 Z0.05
N4460 G01 Z-0.0713 F10.0
N4470 X8.2501 Y3.4729 Z-0.0956 F20.0
N4480 X8.2393 Y3.476 Z-0.1175
N4490 X8.2226 Y3.4808 Z-0.135
N4500 X8.2015 Y3.4868 Z-0.1461
N4510 X8.1781 Y3.4936 Z-0.15
N4520 G03 X8.1373 Y3.5 I-0.0466 J-0.1626
N4530 G01 X7.9318
N4540 G03 X7.738 Y3.4437 I0.0243 J-0.4459
N4550 X7.4001 Y3.1455 I0.5748 J-0.9914
N4560 X7.0174 Y2.004 I1.5109 J-1.1415
N4570 X7.0196 Y1.9134 I1.8937 J0.
N4580 X7.6685 Y0.533 I1.9703 J0.0836
N4590 X7.755 Y0.5 I0.0865 J0.0969
N4600 G01 X7.9661
N4610 G03 X8.0051 Y0.5119 I-0.0027 J0.0787
N4620 G01 X8.0257 Y0.5248 Z-0.1461
N4630 X8.0443 Y0.5364 Z-0.135
N4640 X8.0591 Y0.5457 Z-0.1175
N4650 X8.0686 Y0.5516 Z-0.0956
N4660 X8.0718 Y0.5536 Z-0.0713
N4670 G00 Z0.2
N4680 X8.0482 Y3.4718
N4690 Z0.05
N4700 G01 Z-0.0713 F10.0
N4710 X8.0445 Y3.4729 Z-0.0956 F20.0
N4720 X8.0338 Y3.476 Z-0.1175
N4730 X8.017 Y3.4808 Z-0.135
N4740 X7.9959 Y3.4868 Z-0.1461
N4750 X7.9726 Y3.4936 Z-0.15
N4760 G03 X7.9318 Y3.5 I-0.0466 J-0.1626
N4770 G01 X7.7417
N4780 G03 X7.5512 Y3.4431 I0.0191 J-0.4117
N4790 X7.2515 Y3.1697 I0.5403 J-0.8931
N4800 X6.8858 Y2.2058 I1.5547 J-1.1411
N4810 X6.8753 Y1.9954 I2.1003 J-0.2103
N4820 X7.4563 Y0.5411 I2.1108 J0.
N4830 X7.477 Y0.5234 I0.1263 J0.127
N4840 X7.5514 Y0.5 I0.0743 J0.1065
N4850 G01 X7.755
N4860 G03 X7.794 Y0.5119 I-0.0027 J0.0787
N4870 G01 X7.8147 Y0.5248 Z-0.1461
N4880 X7.8333 Y0.5364 Z-0.135
N4890 X7.848 Y0.5457 Z-0.1175
N4900 X7.8575 Y0.5516 Z-0.0956
N4910 X7.8608 Y0.5536 Z-0.0713
N4920 G00 Z0.2
N4930 X7.8581 Y3.4718
N4940 Z0.05
N4950 G01 Z-0.0713 F10.0
N4960 X7.8544 Y3.4729 Z-0.0956 F20.0
N4970 X7.8437 Y3.476 Z-0.1175
N4980 X7.8269 Y3.4808 Z-0.135
N4990 X7.8058 Y3.4868 Z-0.1461
N5000 X7.7825 Y3.4936 Z-0.15
N5010 G03 X7.7417 Y3.5 I-0.0466 J-0.1626
N5020 G01 X7.5551
N5030 G03 X7.5005 Y3.4933 I0.0026 J-0.248
N5040 X7.2655 Y3.3648 I0.1596 J-0.571
N5050 X6.9438 Y2.9298 I0.9601 J-1.0464
N5060 X6.7313 Y1.9882 I1.98 J-0.9416
N5070 X6.817 Y1.3813 I2.1925 J0.
N5080 X7.2606 Y0.5462 I2.1455 J0.6042
N5090 X7.28 Y0.5278 I0.1471 J0.1363
N5100 X7.3603 Y0.5 I0.0803 J0.1021
N5110 G01 X7.5514
N5120 G03 X7.5904 Y0.5119 I-0.0027 J0.0787
N5130 G01 X7.611 Y0.5248 Z-0.1461
N5140 X7.6296 Y0.5364 Z-0.135
N5150 X7.6444 Y0.5457 Z-0.1175
N5160 X7.6539 Y0.5516 Z-0.0956
N5170 X7.6571 Y0.5536 Z-0.0713
N5180 G00 Z0.2
N5190 X7.6715 Y3.4718
N5200 Z0.05
N5210 G01 Z-0.0713 F10.0
N5220 X7.6678 Y3.4729 Z-0.0956 F20.0
N5230 X7.657 Y3.476 Z-0.1175
N5240 X7.6403 Y3.4808 Z-0.135
N5250 X7.6192 Y3.4868 Z-0.1461
N5260 X7.5958 Y3.4936 Z-0.15
N5270 G03 X7.5551 Y3.5 I-0.0466 J-0.1626
N5280 G01 X7.3838
N5290 G03 X7.3304 Y3.4936 I0.002 J-0.2425
N5300 X7.0985 Y3.3641 I0.1528 J-0.5461
N5310 X6.8061 Y2.9632 I0.9243 J-0.9812
N5320 X6.5869 Y1.9914 I2.0444 J-0.9718
N5330 X6.6083 Y1.6809 I2.2636 J0.
N5340 X7.0669 Y0.5595 I2.3506 J0.3068
N5350 X7.0936 Y0.5312 I0.2135 J0.1743
N5360 X7.178 Y0.5 I0.0844 J0.0988
N5370 X7.1783 Y0.5 I0. J0.1299
N5380 G01 X7.3603
N5390 G03 X7.3993 Y0.5119 I-0.0027 J0.0787
N5400 G01 X7.42 Y0.5248 Z-0.1461
N5410 X7.4386 Y0.5364 Z-0.135
N5420 X7.4533 Y0.5457 Z-0.1175
N5430 X7.4628 Y0.5516 Z-0.0956
N5440 X7.4661 Y0.5536 Z-0.0713
N5450 G00 Z0.2
N5460 X7.5002 Y3.4718
N5470 Z0.05
N5480 G01 Z-0.0713 F10.0
N5490 X7.4965 Y3.4729 Z-0.0956 F20.0
N5500 X7.4858 Y3.476 Z-0.1175
N5510 X7.469 Y3.4808 Z-0.135
N5520 X7.4479 Y3.4868 Z-0.1461
N5530 X7.4245 Y3.4936 Z-0.15
N5540 G03 X7.3838 Y3.5 I-0.0466 J-0.1626
N5550 G01 X7.2125
N5560 X7.1976 Y3.4993
N5570 G03 X7.0068 Y3.4206 I0.0621 J-0.4214
N5580 X6.7369 Y3.1176 I0.6335 J-0.8361
N5590 X6.4637 Y2.3064 I1.81 J-1.0613
N5600 X6.4434 Y1.9881 I2.4908 J-0.3183
N5610 X6.8759 Y0.5792 I2.511 J0.
N5620 G01 X6.9041 Y0.5436
N5630 X6.9055 Y0.542
N5640 G03 X7.0012 Y0.5 I0.0956 J0.0879
N5650 G01 X7.178
N5660 G03 X7.217 Y0.5119 I-0.0027 J0.0787
N5670 G01 X7.2376 Y0.5248 Z-0.1461
N5680 X7.2562 Y0.5364 Z-0.135
N5690 X7.271 Y0.5457 Z-0.1175
N5700 X7.2805 Y0.5516 Z-0.0956
N5710 X7.2837 Y0.5536 Z-0.0713
N5720 G00 Z0.2
N5730 X7.3289 Y3.4718
N5740 Z0.05
N5750 G01 Z-0.0713 F10.0
N5760 X7.3252 Y3.4729 Z-0.0956 F20.0
N5770 X7.3145 Y3.476 Z-0.1175
N5780 X7.2977 Y3.4808 Z-0.135
N5790 X7.2766 Y3.4868 Z-0.1461
N5800 X7.2533 Y3.4936 Z-0.15
N5810 G03 X7.2125 Y3.5 I-0.0466 J-0.1626
N5820 G01 X7.0567
N5830 G03 X6.8844 Y3.4451 I0.019 J-0.3574
N5840 X6.6294 Y3.1905 I0.497 J-0.7528
N5850 X6.3553 Y2.5228 I1.633 J-1.0606
N5860 X6.299 Y1.9812 I2.5768 J-0.5417
N5870 X6.6886 Y0.6027 I2.6331 J0.
N5880 X6.7419 Y0.5342 I0.3117 J0.1875
N5890 X6.8297 Y0.5 I0.0878 J0.0957
N5900 G01 X7.0012
N5910 G03 X7.0401 Y0.5119 I-0.0027 J0.0787
N5920 G01 X7.0608 Y0.5248 Z-0.1461
N5930 X7.0794 Y0.5364 Z-0.135
N5940 X7.0942 Y0.5457 Z-0.1175
N5950 X7.1037 Y0.5516 Z-0.0956
N5960 X7.1069 Y0.5536 Z-0.0713
N5970 G00 Z0.2
N5980 X7.1731 Y3.4718
N5990 Z0.05
N6000 G01 Z-0.0713 F10.0
N6010 X7.1694 Y3.4729 Z-0.0956 F20.0
N6020 X7.1586 Y3.476 Z-0.1175
N6030 X7.1419 Y3.4808 Z-0.135
N6040 X7.1208 Y3.4868 Z-0.1461
N6050 X7.0974 Y3.4936 Z-0.15
N6060 G03 X7.0567 Y3.5 I-0.0466 J-0.1626
N6070 G01 X6.9043
N6080 G03 X6.7266 Y3.445 I0.0117 J-0.3521
N6090 X6.474 Y3.1881 I0.4936 J-0.7381
N6100 X6.217 Y2.5617 I1.622 J-1.0314
N6110 X6.1537 Y1.9749 I2.6907 J-0.5868
N6120 X6.5044 Y0.6301 I2.754 J0.
N6130 X6.555 Y0.5548 I0.6723 J0.3964
N6140 X6.575 Y0.533 I0.1598 J0.1267
N6150 X6.6615 Y0.5 I0.0865 J0.097
N6160 G01 X6.8297
N6170 G03 X6.8687 Y0.5119 I-0.0027 J0.0787
N6180 G01 X6.8893 Y0.5248 Z-0.1461
N6190 X6.908 Y0.5364 Z-0.135
N6200 X6.9227 Y0.5457 Z-0.1175
N6210 X6.9322 Y0.5516 Z-0.0956
N6220 X6.9355 Y0.5536 Z-0.0713
N6230 G00 Z0.2
N6240 X7.0207 Y3.4718
N6250 Z0.05
N6260 G01 Z-0.0713 F10.0
N6270 X7.017 Y3.4729 Z-0.0956 F20.0
N6280 X7.0062 Y3.476 Z-0.1175
N6290 X6.9895 Y3.4808 Z-0.135
N6300 X6.9684 Y3.4868 Z-0.1461
N6310 X6.945 Y3.4936 Z-0.15
N6320 G03 X6.9043 Y3.5 I-0.0466 J-0.1626
N6330 G01 X6.733
N6340 X6.7198 Y3.4993
N6350 G03 X6.5345 Y3.421 I0.0583 J-0.3964
N6360 X6.2738 Y3.1104 I0.6237 J-0.788
N6370 X6.0363 Y2.3808 I1.8959 J-1.0207
N6380 X6.0073 Y1.9733 I2.8438 J-0.4075
N6390 X6.3445 Y0.6229 I2.8729 J0.
N6400 X6.395 Y0.5476 I0.6031 J0.3504
N6410 G01 X6.3969 Y0.5454
N6420 G03 X6.4956 Y0.5 I0.0987 J0.0845
N6430 G01 X6.6615
N6440 G03 X6.7005 Y0.5119 I-0.0027 J0.0787
N6450 G01 X6.7211 Y0.5248 Z-0.1461
N6460 X6.7397 Y0.5364 Z-0.135
N6470 X6.7545 Y0.5457 Z-0.1175
N6480 X6.764 Y0.5516 Z-0.0956
N6490 X6.7673 Y0.5536 Z-0.0713
N6500 G00 Z0.2
N6510 X6.8494 Y3.4718
N6520 Z0.05
N6530 G01 Z-0.0713 F10.0
N6540 X6.8457 Y3.4729 Z-0.0956 F20.0
N6550 X6.835 Y3.476 Z-0.1175
N6560 X6.8182 Y3.4808 Z-0.135
N6570 X6.7971 Y3.4868 Z-0.1461
N6580 X6.7737 Y3.4936 Z-0.15
N6590 G03 X6.733 Y3.5 I-0.0466 J-0.1626
N6600 G01 X6.596
N6610 G03 X6.4184 Y3.4458 I0.0077 J-0.3432
N6620 X6.1942 Y3.2238 I0.4447 J-0.6733
N6630 X5.9423 Y2.6442 I1.5264 J-1.0078
N6640 X5.8612 Y1.9581 I2.8587 J-0.686
N6650 X5.9707 Y1.1632 I2.9399 J0.
N6660 X6.1863 Y0.6155 I2.4112 J0.6331
N6670 X6.2389 Y0.54 I0.3664 J0.1988
N6680 X6.3326 Y0.5 I0.0938 J0.0899
N6690 G01 X6.4956
N6700 G03 X6.5345 Y0.5119 I-0.0027 J0.0787
N6710 G01 X6.5552 Y0.5248 Z-0.1461
N6720 X6.5738 Y0.5364 Z-0.135
N6730 X6.5886 Y0.5457 Z-0.1175
N6740 X6.5981 Y0.5516 Z-0.0956
N6750 X6.6013 Y0.5536 Z-0.0713
N6760 G00 Z0.2
N6770 X6.7124 Y3.4718
N6780 Z0.05
N6790 G01 Z-0.0713 F10.0
N6800 X6.7087 Y3.4729 Z-0.0956 F20.0
N6810 X6.6979 Y3.476 Z-0.1175
N6820 X6.6812 Y3.4808 Z-0.135
N6830 X6.6601 Y3.4868 Z-0.1461
N6840 X6.6367 Y3.4936 Z-0.15
N6850 G03 X6.596 Y3.5 I-0.0466 J-0.1626
N6860 G01 X6.4247
N6870 X6.4119 Y3.4994
N6880 G03 X6.2295 Y3.4218 I0.0572 J-0.3878
N6890 X5.972 Y3.1086 I0.6166 J-0.7693
N6900 X5.7428 Y2.3763 I1.9478 J-1.0118
N6910 X5.7146 Y1.9604 I3.0586 J-0.4159
N6920 X6.0061 Y0.651 I3.0868 J0.
N6930 X6.0669 Y0.5528 I0.5038 J0.2438
N6940 X6.1714 Y0.5 I0.1046 J0.0771
N6950 G01 X6.3326
N6960 G03 X6.3716 Y0.5119 I-0.0027 J0.0787
N6970 G01 X6.3922 Y0.5248 Z-0.1461
N6980 X6.4108 Y0.5364 Z-0.135
N6990 X6.4256 Y0.5457 Z-0.1175
N7000 X6.4351 Y0.5516 Z-0.0956
N7010 X6.4384 Y0.5536 Z-0.0713
N7020 G00 Z0.2
N7030 X6.5411 Y3.4718
N7040 Z0.05
N7050 G01 Z-0.0713 F10.0
N7060 X6.5374 Y3.4729 Z-0.0956 F20.0
N7070 X6.5267 Y3.476 Z-0.1175
N7080 X6.5099 Y3.4808 Z-0.135
N7090 X6.4888 Y3.4868 Z-0.1461
N7100 X6.4655 Y3.4936 Z-0.15
N7110 G03 X6.4247 Y3.5 I-0.0466 J-0.1626
N7120 G01 X6.2877
N7130 G03 X6.1155 Y3.4466 I0.0099 J-0.3362
N7140 X5.8928 Y3.2232 I0.4383 J-0.6597
N7150 X5.6581 Y2.685 I1.4904 J-0.9701
N7160 X5.5673 Y1.944 I2.9777 J-0.741
N7170 X5.6196 Y1.3797 I3.0685 J0.
N7180 X5.8497 Y0.6459 I2.7856 J0.4704
N7190 X5.9075 Y0.5521 I0.4552 J0.2157
N7200 X6.0116 Y0.5 I0.104 J0.0778
N7210 G01 X6.1507
N7220 G03 X6.1897 Y0.5119 I-0.0027 J0.0787
N7230 G01 X6.2103 Y0.5248 Z-0.1461
N7240 X6.2289 Y0.5364 Z-0.135
N7250 X6.2437 Y0.5457 Z-0.1175
N7260 X6.2532 Y0.5516 Z-0.0956
N7270 X6.2565 Y0.5536 Z-0.0713
N7280 G00 Z0.2
N7290 X6.4041 Y3.4718
N7300 Z0.05
N7310 G01 Z-0.0713 F10.0
N7320 X6.4004 Y3.4729 Z-0.0956 F20.0
N7330 X6.3897 Y3.476 Z-0.1175
N7340 X6.3729 Y3.4808 Z-0.135
N7350 X6.3518 Y3.4868 Z-0.1461
N7360 X6.3284 Y3.4936 Z-0.15
N7370 G03 X6.2877 Y3.5 I-0.0466 J-0.1626
N7380 G01 X6.1319
N7390 G03 X5.9654 Y3.447 I0.0145 J-0.3336
N7400 X5.7432 Y3.2232 I0.436 J-0.655
N7410 X5.5105 Y2.6841 I1.4952 J-0.9652
N7420 X5.4201 Y1.9382 I3.0324 J-0.7459
N7430 X5.4557 Y1.468 I3.1228 J0.
N7440 X5.6734 Y0.6834 I2.9653 J0.4002
N7450 X5.7394 Y0.5645 I0.724 J0.3243
N7460 X5.7603 Y0.5387 I0.2057 J0.1453
N7470 X5.8528 Y0.5 I0.0925 J0.0913
N7480 G01 X6.0116
N7490 G03 X6.0505 Y0.5119 I-0.0027 J0.0787
N7500 G01 X6.0712 Y0.5248 Z-0.1461
N7510 X6.0898 Y0.5364 Z-0.135
N7520 X6.1046 Y0.5457 Z-0.1175
N7530 X6.114 Y0.5516 Z-0.0956
N7540 X6.1173 Y0.5536 Z-0.0713
N7550 G00 Z0.2
N7560 X6.2483 Y3.4718
N7570 Z0.05
N7580 G01 Z-0.0713 F10.0
N7590 X6.2446 Y3.4729 Z-0.0956 F20.0
N7600 X6.2338 Y3.476 Z-0.1175
N7610 X6.2171 Y3.4808 Z-0.135
N7620 X6.196 Y3.4868 Z-0.1461
N7630 X6.1726 Y3.4936 Z-0.15
N7640 G03 X6.1319 Y3.5 I-0.0466 J-0.1626
N7650 G01 X5.9795
N7660 G03 X5.8158 Y3.4473 I0.0164 J-0.3317
N7670 X5.594 Y3.2231 I0.4342 J-0.6511
N7680 X5.363 Y2.6833 I1.5001 J-0.9616
N7690 X5.2729 Y1.9295 I3.1084 J-0.7538
N7700 X5.3065 Y1.4669 I3.1985 J0.
N7710 X5.5179 Y0.6806 I2.9584 J0.374
N7720 X5.5838 Y0.5616 I0.6931 J0.3059
N7730 X5.6029 Y0.5383 I0.1863 J0.1337
N7740 X5.6951 Y0.5 I0.0922 J0.0916
N7750 G01 X5.8528
N7760 G03 X5.8918 Y0.5119 I-0.0027 J0.0787
N7770 G01 X5.9124 Y0.5248 Z-0.1461
N7780 X5.931 Y0.5364 Z-0.135
N7790 X5.9458 Y0.5457 Z-0.1175
N7800 X5.9553 Y0.5516 Z-0.0956
N7810 X5.9586 Y0.5536 Z-0.0713
N7820 G00 Z0.2
N7830 X6.0959 Y3.4718
N7840 Z0.05
N7850 G01 Z-0.0713 F10.0
N7860 X6.0922 Y3.4729 Z-0.0956 F20.0
N7870 X6.0814 Y3.476 Z-0.1175
N7880 X6.0647 Y3.4808 Z-0.135
N7890 X6.0436 Y3.4868 Z-0.1461
N7900 X6.0202 Y3.4936 Z-0.15
N7910 G03 X5.9795 Y3.5 I-0.0466 J-0.1626
N7920 G01 X5.8236
N7930 G03 X5.7798 Y3.4946 I0.0024 J-0.1992
N7940 X5.5937 Y3.3941 I0.1112 J-0.4283
N7950 X5.3546 Y3.0661 I0.7282 J-0.782
N7960 X5.1491 Y2.3262 I2.1325 J-0.9909
N7970 X5.126 Y1.9279 I3.4229 J-0.3983
N7980 X5.3446 Y0.7201 I3.446 J0.
N7990 X5.4285 Y0.5594 I0.749 J0.2889
N8000 X5.4483 Y0.5361 I0.162 J0.1174
N8010 X5.5382 Y0.5 I0.0899 J0.0938
N8020 G01 X5.6951
N8030 G03 X5.734 Y0.5119 I-0.0027 J0.0787
N8040 G01 X5.7547 Y0.5248 Z-0.1461
N8050 X5.7733 Y0.5364 Z-0.135
N8060 X5.7881 Y0.5457 Z-0.1175
N8070 X5.7976 Y0.5516 Z-0.0956
N8080 X5.8008 Y0.5536 Z-0.0713
N8090 G00 Z0.2
N8100 X5.94 Y3.4718
N8110 Z0.05
N8120 G01 Z-0.0713 F10.0
N8130 X5.9363 Y3.4729 Z-0.0956 F20.0
N8140 X5.9256 Y3.476 Z-0.1175
N8150 X5.9088 Y3.4808 Z-0.135
N8160 X5.8877 Y3.4868 Z-0.1461
N8170 X5.8643 Y3.4936 Z-0.15
N8180 G03 X5.8236 Y3.5 I-0.0466 J-0.1626
N8190 G01 X5.6712
N8200 X5.6593 Y3.4994
N8210 G03 X5.4804 Y3.4227 I0.0559 J-0.3775
N8220 X5.2272 Y3.1064 I0.6081 J-0.7464
N8230 X5.0142 Y2.4157 I2.0112 J-0.9982
N8240 X4.9785 Y1.917 I3.4638 J-0.4987
N8250 X5.1902 Y0.7182 I3.4995 J0.
N8260 X5.2739 Y0.5575 I0.7207 J0.2729
N8270 X5.2926 Y0.5358 I0.1519 J0.1118
N8280 X5.3821 Y0.5 I0.0895 J0.0941
N8290 G01 X5.5382
N8300 G03 X5.5771 Y0.5119 I-0.0027 J0.0787
N8310 G01 X5.5978 Y0.5248 Z-0.1461
N8320 X5.6164 Y0.5364 Z-0.135
N8330 X5.6312 Y0.5457 Z-0.1175
N8340 X5.6406 Y0.5516 Z-0.0956
N8350 X5.6439 Y0.5536 Z-0.0713
N8360 G00 Z0.2
N8370 X5.7876 Y3.4718
N8380 Z0.05
N8390 G01 Z-0.0713 F10.0
N8400 X5.7839 Y3.4729 Z-0.0956 F20.0
N8410 X5.7731 Y3.476 Z-0.1175
N8420 X5.7564 Y3.4808 Z-0.135
N8430 X5.7353 Y3.4868 Z-0.1461
N8440 X5.7119 Y3.4936 Z-0.15
N8450 G03 X5.6712 Y3.5 I-0.0466 J-0.1626
N8460 G01 X5.5342
N8470 G03 X5.3691 Y3.4476 I0.0132 J-0.328
N8480 X5.1483 Y3.2225 I0.4305 J-0.6429
N8490 X4.9205 Y2.6813 I1.5137 J-0.9555
N8500 X4.8298 Y1.9063 I3.2636 J-0.775
N8510 X4.8483 Y1.5545 I3.3543 J0.
N8520 X5.0366 Y0.7159 I3.1686 J0.271
N8530 X5.1201 Y0.5551 I0.7004 J0.262
N8540 G01 X5.1242 Y0.55
N8550 G03 X5.2266 Y0.5 I0.1024 J0.0799
N8560 G01 X5.3629
N8570 G03 X5.4019 Y0.5119 I-0.0027 J0.0787
N8580 G01 X5.4225 Y0.5248 Z-0.1461
N8590 X5.4411 Y0.5364 Z-0.135
N8600 X5.4559 Y0.5457 Z-0.1175
N8610 X5.4654 Y0.5516 Z-0.0956
N8620 X5.4687 Y0.5536 Z-0.0713
N8630 G00 Z0.2
N8640 X5.6506 Y3.4718
N8650 Z0.05
N8660 G01 Z-0.0713 F10.0
N8670 X5.6469 Y3.4729 Z-0.0956 F20.0
N8680 X5.6361 Y3.476 Z-0.1175
N8690 X5.6194 Y3.4808 Z-0.135
N8700 X5.5983 Y3.4868 Z-0.1461
N8710 X5.5749 Y3.4936 Z-0.15
N8720 G03 X5.5342 Y3.5 I-0.0466 J-0.1626
N8730 G01 X5.3783
N8740 G03 X5.3333 Y3.4945 I0.002 J-0.2045
N8750 X5.1482 Y3.3942 I0.1101 J-0.4241
N8760 X4.9106 Y3.0652 I0.7264 J-0.7749
N8770 X4.7074 Y2.3245 I2.1801 J-0.9963
N8780 X4.6825 Y1.8996 I3.6151 J-0.425
N8790 X4.8664 Y0.7572 I3.64 J0.
N8800 X4.9661 Y0.554 I0.8378 J0.285
N8810 G01 X4.9693 Y0.5499
N8820 G03 X5.0717 Y0.5 I0.1023 J0.0801
N8830 G01 X5.2266
N8840 G03 X5.2656 Y0.5119 I-0.0027 J0.0787
N8850 G01 X5.2862 Y0.5248 Z-0.1461
N8860 X5.3048 Y0.5364 Z-0.135
N8870 X5.3196 Y0.5457 Z-0.1175
N8880 X5.3291 Y0.5516 Z-0.0956
N8890 X5.3323 Y0.5536 Z-0.0713
N8900 G00 Z0.2
N8910 X5.4947 Y3.4718
N8920 Z0.05
N8930 G01 Z-0.0713 F10.0
N8940 X5.491 Y3.4729 Z-0.0956 F20.0
N8950 X5.4803 Y3.476 Z-0.1175
N8960 X5.4635 Y3.4808 Z-0.135
N8970 X5.4424 Y3.4868 Z-0.1461
N8980 X5.419 Y3.4936 Z-0.15
N8990 G03 X5.3783 Y3.5 I-0.0466 J-0.1626
N9000 G01 X5.2259
N9010 X5.2137 Y3.4994
N9020 G03 X5.0356 Y3.4229 I0.0556 J-0.3749
N9030 X4.7834 Y3.1058 I0.6063 J-0.741
N9040 X4.5795 Y2.4592 I1.9869 J-0.9823
N9050 X4.5346 Y1.8871 I3.625 J-0.5721
N9060 X4.7131 Y0.7564 I3.6699 J0.
N9070 X4.8124 Y0.553 I0.8242 J0.2765
N9080 G01 X4.815 Y0.5497
N9090 G03 X4.9172 Y0.5 I0.1022 J0.0802
N9100 X4.9176 Y0.5 I0. J0.1299
N9110 G01 X5.0546
N9120 G03 X5.0936 Y0.5119 I-0.0027 J0.0787
N9130 G01 X5.1143 Y0.5248 Z-0.1461
N9140 X5.1329 Y0.5364 Z-0.135
N9150 X5.1476 Y0.5457 Z-0.1175
N9160 X5.1571 Y0.5516 Z-0.0956
N9170 X5.1604 Y0.5536 Z-0.0713
N9180 G00 Z0.2
N9190 X5.3423 Y3.4718
N9200 Z0.05
N9210 G01 Z-0.0713 F10.0
N9220 X5.3386 Y3.4729 Z-0.0956 F20.0
N9230 X5.3279 Y3.476 Z-0.1175
N9240 X5.3111 Y3.4808 Z-0.135
N9250 X5.29 Y3.4868 Z-0.1461
N9260 X5.2666 Y3.4936 Z-0.15
N9270 G03 X5.2259 Y3.5 I-0.0466 J-0.1626
N9280 G01 X5.0889
N9290 G03 X4.9249 Y3.4479 I0.0135 J-0.3261
N9300 X4.7047 Y3.2222 I0.4288 J-0.639
N9310 X4.4783 Y2.6804 I1.5247 J-0.955
N9320 X4.3854 Y1.8779 I3.4159 J-0.8025
N9330 X4.4004 Y1.5536 I3.5089 J0.
N9340 X4.5767 Y0.7124 I3.1388 J0.2188
N9350 X4.6596 Y0.5514 I0.6642 J0.2402
N9360 G01 X4.6612 Y0.5494
N9370 G03 X4.7631 Y0.5 I0.102 J0.0805
N9380 G01 X4.9172
N9390 G03 X4.9562 Y0.5119 I-0.0027 J0.0787
N9400 G01 X4.9768 Y0.5248 Z-0.1461
N9410 X4.9954 Y0.5364 Z-0.135
N9420 X5.0102 Y0.5457 Z-0.1175
N9430 X5.0197 Y0.5516 Z-0.0956
N9440 X5.023 Y0.5536 Z-0.0713
N9450 G00 Z0.2
N9460 X5.2053 Y3.4718
N9470 Z0.05
N9480 G01 Z-0.0713 F10.0
N9490 X5.2016 Y3.4729 Z-0.0956 F20.0
N9500 X5.1909 Y3.476 Z-0.1175
N9510 X5.1741 Y3.4808 Z-0.135
N9520 X5.153 Y3.4868 Z-0.1461
N9530 X5.1296 Y3.4936 Z-0.15
N9540 G03 X5.0889 Y3.5 I-0.0466 J-0.1626
N9550 G01 X4.933
N9560 G03 X4.8893 Y3.4946 I0.0023 J-0.1986
N9570 X4.7046 Y3.3943 I0.1096 J-0.4221
N9580 X4.4677 Y3.0649 I0.726 J-0.7719
N9590 X4.2648 Y2.324 I2.2179 J-1.0055
N9600 X4.2372 Y1.8704 I3.7108 J-0.4536
N9610 X4.4077 Y0.7545 I3.7384 J0.
N9620 X4.5064 Y0.5509 I0.8004 J0.2622
N9630 G01 X4.5075 Y0.5494
N9640 G03 X4.6095 Y0.5 I0.102 J0.0805
N9650 G01 X4.7464
N9660 G03 X4.7854 Y0.5119 I-0.0027 J0.0787
N9670 G01 X4.806 Y0.5248 Z-0.1461
N9680 X4.8246 Y0.5364 Z-0.135
N9690 X4.8394 Y0.5457 Z-0.1175
N9700 X4.8489 Y0.5516 Z-0.0956
N9710 X4.8521 Y0.5536 Z-0.0713
N9720 G00 Z0.2
N9730 X5.0495 Y3.4718
N9740 Z0.05
N9750 G01 Z-0.0713 F10.0
N9760 X5.0458 Y3.4729 Z-0.0956 F20.0
N9770 X5.035 Y3.476 Z-0.1175
N9780 X5.0183 Y3.4808 Z-0.135
N9790 X4.9972 Y3.4868 Z-0.1461
N9800 X4.9738 Y3.4936 Z-0.15
N9810 G03 X4.933 Y3.5 I-0.0466 J-0.1626
N9820 G01 X4.7806
N9830 X4.7701 Y3.4995
N9840 G03 X4.5925 Y3.4231 I0.0554 J-0.3737
N9850 X4.3407 Y3.1056 I0.6058 J-0.7389
N9860 X4.137 Y2.4589 I2.012 J-0.9893
N9870 X4.0893 Y1.8586 I3.7564 J-0.6003
N9880 X4.2404 Y0.7971 I3.8041 J0.
N9890 X4.329 Y0.5886 I1.0716 J0.3318
N9900 G01 X4.3535 Y0.5504
N9910 X4.3543 Y0.5494
N9920 G03 X4.4562 Y0.5 I0.1019 J0.0805
N9930 G01 X4.6095
N9940 G03 X4.6485 Y0.5119 I-0.0027 J0.0787
N9950 G01 X4.6691 Y0.5248 Z-0.1461
N9960 X4.6877 Y0.5364 Z-0.135
N9970 X4.7025 Y0.5457 Z-0.1175
N9980 X4.712 Y0.5516 Z-0.0956
N9990 X4.7153 Y0.5536 Z-0.0713
N10000 G00 Z0.2
N10010 X4.897 Y3.4718
N10020 Z0.05
N10030 G01 Z-0.0713 F10.0
N10040 X4.8933 Y3.4729 Z-0.0956 F20.0
N10050 X4.8826 Y3.476 Z-0.1175
N10060 X4.8658 Y3.4808 Z-0.135
N10070 X4.8447 Y3.4868 Z-0.1461
N10080 X4.8213 Y3.4936 Z-0.15
N10090 G03 X4.7806 Y3.5 I-0.0466 J-0.1626
N10100 G01 X4.6436
N10110 G03 X4.4821 Y3.448 I0.0154 J-0.3251
N10120 X4.262 Y3.2223 I0.4282 J-0.6375
N10130 X4.036 Y2.6802 I1.5347 J-0.958
N10140 X3.9398 Y1.8501 I3.5326 J-0.8301
N10150 X3.9519 Y1.5536 I3.6288 J0.
N10160 X4.119 Y0.7106 I3.1027 J0.1769
N10170 X4.2015 Y0.5492 I0.6415 J0.2259
N10180 X4.3032 Y0.5 I0.1018 J0.0808
N10190 G01 X4.4381
N10200 G03 X4.4771 Y0.5119 I-0.0027 J0.0787
N10210 G01 X4.4977 Y0.5248 Z-0.1461
N10220 X4.5163 Y0.5364 Z-0.135
N10230 X4.5311 Y0.5457 Z-0.1175
N10240 X4.5406 Y0.5516 Z-0.0956
N10250 X4.5439 Y0.5536 Z-0.0713
N10260 G00 Z0.2
N10270 X4.76 Y3.4718
N10280 Z0.05
N10290 G01 Z-0.0713 F10.0
N10300 X4.7563 Y3.4729 Z-0.0956 F20.0
N10310 X4.7456 Y3.476 Z-0.1175
N10320 X4.7288 Y3.4808 Z-0.135
N10330 X4.7077 Y3.4868 Z-0.1461
N10340 X4.6843 Y3.4936 Z-0.15
N10350 G03 X4.6436 Y3.5 I-0.0466 J-0.1626
N10360 G01 X4.5066
N10370 G03 X4.3342 Y3.4475 I0.0055 J-0.3276
N10380 X4.1142 Y3.2217 I0.4281 J-0.637
N10390 X3.8883 Y2.6796 I1.5385 J-0.9592
N10400 X3.7911 Y1.8412 I3.5653 J-0.8384
N10410 X3.8024 Y1.553 I3.6625 J0.
N10420 X3.9671 Y0.7096 I3.0878 J0.1652
N10430 X4.0422 Y0.5595 I0.5901 J0.2013
N10440 X4.1514 Y0.5 I0.1092 J0.0704
N10450 G01 X4.3032
N10460 G03 X4.3422 Y0.5119 I-0.0027 J0.0787
N10470 G01 X4.3628 Y0.5248 Z-0.1461
N10480 X4.3815 Y0.5364 Z-0.135
N10490 X4.3962 Y0.5457 Z-0.1175
N10500 X4.4057 Y0.5516 Z-0.0956
N10510 X4.409 Y0.5536 Z-0.0713
N10520 G00 Z0.2
N10530 X4.623 Y3.4718
N10540 Z0.05
N10550 G01 Z-0.0713 F10.0
N10560 X4.6193 Y3.4729 Z-0.0956 F20.0
N10570 X4.6086 Y3.476 Z-0.1175
N10580 X4.5918 Y3.4808 Z-0.135
N10590 X4.5707 Y3.4868 Z-0.1461
N10600 X4.5473 Y3.4936 Z-0.15
N10610 G03 X4.5066 Y3.5 I-0.0466 J-0.1626
N10620 G01 X4.3508
N10630 G03 X4.1871 Y3.4479 I0.0135 J-0.3257
N10640 X3.967 Y3.2221 I0.4281 J-0.6374
N10650 X3.7409 Y2.6801 I1.5403 J-0.961
N10660 X3.6422 Y1.8325 I3.593 J-0.8476
N10670 X3.6528 Y1.5536 I3.6916 J0.
N10680 X3.815 Y0.7097 I3.0781 J0.154
N10690 X3.8903 Y0.5594 I0.5895 J0.2013
N10700 X3.9994 Y0.5 I0.1091 J0.0705
N10710 G01 X4.1298
N10720 G03 X4.1688 Y0.5119 I-0.0027 J0.0787
N10730 G01 X4.1894 Y0.5248 Z-0.1461
N10740 X4.2081 Y0.5364 Z-0.135
N10750 X4.2228 Y0.5457 Z-0.1175
N10760 X4.2323 Y0.5516 Z-0.0956
N10770 X4.2356 Y0.5536 Z-0.0713
N10780 G00 Z0.2
N10790 X4.4672 Y3.4718
N10800 Z0.05
N10810 G01 Z-0.0713 F10.0
N10820 X4.4635 Y3.4729 Z-0.0956 F20.0
N10830 X4.4527 Y3.476 Z-0.1175
N10840 X4.436 Y3.4808 Z-0.135
N10850 X4.4149 Y3.4868 Z-0.1461
N10860 X4.3915 Y3.4936 Z-0.15
N10870 G03 X4.3508 Y3.5 I-0.0466 J-0.1626
N10880 G01 X4.1983
N10890 G03 X4.0398 Y3.4482 I0.0187 J-0.3254
N10900 X3.8197 Y3.2224 I0.4283 J-0.6376
N10910 X3.5933 Y2.6805 I1.5429 J-0.963
N10920 X3.4934 Y1.8242 I3.6181 J-0.8564
N10930 X3.5032 Y1.5541 I3.718 J0.
N10940 X3.6631 Y0.7098 I3.0639 J0.1432
N10950 X3.7384 Y0.5594 I0.5891 J0.2009
N10960 X3.8476 Y0.5 I0.1091 J0.0705
N10970 G01 X3.9994
N10980 G03 X4.0384 Y0.5119 I-0.0027 J0.0787
N10990 G01 X4.059 Y0.5248 Z-0.1461
N11000 X4.0776 Y0.5364 Z-0.135
N11010 X4.0924 Y0.5457 Z-0.1175
N11020 X4.1019 Y0.5516 Z-0.0956
N11030 X4.1052 Y0.5536 Z-0.0713
N11040 G00 Z0.2
N11050 X4.3147 Y3.4718
N11060 Z0.05
N11070 G01 Z-0.0713 F10.0
N11080 X4.311 Y3.4729 Z-0.0956 F20.0
N11090 X4.3003 Y3.476 Z-0.1175
N11100 X4.2835 Y3.4808 Z-0.135
N11110 X4.2624 Y3.4868 Z-0.1461
N11120 X4.2391 Y3.4936 Z-0.15
N11130 G03 X4.1983 Y3.5 I-0.0466 J-0.1626
N11140 G01 X4.0613
N11150 G03 X3.892 Y3.4477 I0.0081 J-0.3265
N11160 X3.6719 Y3.2218 I0.4283 J-0.6374
N11170 X3.4455 Y2.68 I1.5469 J-0.9648
N11180 X3.3444 Y1.816 I3.6418 J-0.864
N11190 X3.3536 Y1.5536 I3.7429 J0.
N11200 X3.4962 Y0.7517 I3.1415 J0.1448
N11210 X3.5868 Y0.5593 I0.7468 J0.2343
N11220 X3.6958 Y0.5 I0.109 J0.0706
N11230 G01 X3.8476
N11240 G03 X3.8865 Y0.5119 I-0.0027 J0.0787
N11250 G01 X3.9072 Y0.5248 Z-0.1461
N11260 X3.9258 Y0.5364 Z-0.135
N11270 X3.9406 Y0.5457 Z-0.1175
N11280 X3.95 Y0.5516 Z-0.0956
N11290 X3.9533 Y0.5536 Z-0.0713
N11300 G00 Z0.2
N11310 X4.1777 Y3.4718
N11320 Z0.05
N11330 G01 Z-0.0713 F10.0
N11340 X4.174 Y3.4729 Z-0.0956 F20.0
N11350 X4.1633 Y3.476 Z-0.1175
N11360 X4.1465 Y3.4808 Z-0.135
N11370 X4.1254 Y3.4868 Z-0.1461
N11380 X4.102 Y3.4936 Z-0.15
N11390 G03 X4.0613 Y3.5 I-0.0466 J-0.1626
N11400 G01 X3.9055
N11410 G03 X3.7448 Y3.4481 I0.0165 J-0.3254
N11420 X3.5247 Y3.2223 I0.4286 J-0.638
N11430 X3.2979 Y2.6806 I1.5487 J-0.9669
N11440 X3.1954 Y1.8082 I3.6613 J-0.8724
N11450 X3.2039 Y1.5544 I3.7638 J0.
N11460 X3.3446 Y0.7521 I3.1284 J0.135
N11470 X3.4351 Y0.5594 I0.7466 J0.2331
N11480 X3.5442 Y0.5 I0.1091 J0.0705
N11490 G01 X3.6958
N11500 G03 X3.7348 Y0.5119 I-0.0027 J0.0787
N11510 G01 X3.7554 Y0.5248 Z-0.1461
N11520 X3.7741 Y0.5364 Z-0.135
N11530 X3.7888 Y0.5457 Z-0.1175
N11540 X3.7983 Y0.5516 Z-0.0956
N11550 X3.8016 Y0.5536 Z-0.0713
N11560 G00 Z0.2
N11570 X4.0219 Y3.4718
N11580 Z0.05
N11590 G01 Z-0.0713 F10.0
N11600 X4.0182 Y3.4729 Z-0.0956 F20.0
N11610 X4.0074 Y3.476 Z-0.1175
N11620 X3.9907 Y3.4808 Z-0.135
N11630 X3.9696 Y3.4868 Z-0.1461
N11640 X3.9462 Y3.4936 Z-0.15
N11650 G03 X3.9055 Y3.5 I-0.0466 J-0.1626
N11660 G01 X3.7531
N11670 G03 X3.7091 Y3.4946 I0.0022 J-0.1995
N11680 X3.5246 Y3.3944 I0.1094 J-0.4213
N11690 X3.2878 Y3.0649 I0.7287 J-0.7736
N11700 X3.0877 Y2.3697 I2.2598 J-1.0266
N11710 X3.0464 Y1.8036 I3.8537 J-0.5661
N11720 X3.1791 Y0.7955 I3.8951 J0.
N11730 X3.2662 Y0.5864 I0.9925 J0.2911
N11740 X3.2947 Y0.5447 I0.3063 J0.1784
N11750 X3.3928 Y0.5 I0.0981 J0.0852
N11760 G01 X3.5442
N11770 G03 X3.5832 Y0.5119 I-0.0027 J0.0787
N11780 G01 X3.6038 Y0.5248 Z-0.1461
N11790 X3.6225 Y0.5364 Z-0.135
N11800 X3.6372 Y0.5457 Z-0.1175
N11810 X3.6467 Y0.5516 Z-0.0956
N11820 X3.65 Y0.5536 Z-0.0713
N11830 G00 Z0.2
N11840 X3.8695 Y3.4718
N11850 Z0.05
N11860 G01 Z-0.0713 F10.0
N11870 X3.8658 Y3.4729 Z-0.0956 F20.0
N11880 X3.855 Y3.476 Z-0.1175
N11890 X3.8383 Y3.4808 Z-0.135
N11900 X3.8172 Y3.4868 Z-0.1461
N11910 X3.7938 Y3.4936 Z-0.15
N11920 G03 X3.7531 Y3.5 I-0.0466 J-0.1626
N11930 G01 X3.616
N11940 G03 X3.4496 Y3.4478 I0.0107 J-0.3258
N11950 X3.2295 Y3.222 I0.429 J-0.6384
N11960 X3.0022 Y2.6805 I1.5551 J-0.9712
N11970 X2.8972 Y1.7935 I3.696 J-0.8871
N11980 X2.9047 Y1.5545 I3.8009 J0.
N11990 X3.0424 Y0.7517 I3.1002 J0.1184
N12000 X3.1324 Y0.5594 I0.7402 J0.2291
N12010 X3.2415 Y0.5 I0.1091 J0.0705
N12020 G01 X3.3763
N12030 G03 X3.4153 Y0.5119 I-0.0027 J0.0787
N12040 G01 X3.4359 Y0.5248 Z-0.1461
N12050 X3.4545 Y0.5364 Z-0.135
N12060 X3.4693 Y0.5457 Z-0.1175
N12070 X3.4788 Y0.5516 Z-0.0956
N12080 X3.482 Y0.5536 Z-0.0713
N12090 G00 Z0.2
N12100 X3.7325 Y3.4718
N12110 Z0.05
N12120 G01 Z-0.0713 F10.0
N12130 X3.7288 Y3.4729 Z-0.0956 F20.0
N12140 X3.718 Y3.476 Z-0.1175
N12150 X3.7013 Y3.4808 Z-0.135
N12160 X3.6802 Y3.4868 Z-0.1461
N12170 X3.6568 Y3.4936 Z-0.15
N12180 G03 X3.616 Y3.5 I-0.0466 J-0.1626
N12190 G01 X3.4602
N12200 G03 X3.3023 Y3.4482 I0.0195 J-0.3257
N12210 X3.0821 Y3.2225 I0.4292 J-0.6392
N12220 X2.8544 Y2.6811 I1.5566 J-0.9734
N12230 X2.748 Y1.7866 I3.7093 J-0.8945
N12240 X2.7551 Y1.5553 I3.8156 J0.
N12250 X2.8912 Y0.7523 I3.0911 J0.1109
N12260 X2.9811 Y0.5596 I0.7408 J0.2283
N12270 X3.0903 Y0.5 I0.1092 J0.0704
N12280 G01 X3.2415
N12290 G03 X3.2805 Y0.5119 I-0.0027 J0.0787
N12300 G01 X3.3011 Y0.5248 Z-0.1461
N12310 X3.3197 Y0.5364 Z-0.135
N12320 X3.3345 Y0.5457 Z-0.1175
N12330 X3.344 Y0.5516 Z-0.0956
N12340 X3.3472 Y0.5536 Z-0.0713
N12350 G00 Z0.2
N12360 X3.5766 Y3.4718
N12370 Z0.05
N12380 G01 Z-0.0713 F10.0
N12390 X3.5729 Y3.4729 Z-0.0956 F20.0
N12400 X3.5622 Y3.476 Z-0.1175
N12410 X3.5454 Y3.4808 Z-0.135
N12420 X3.5243 Y3.4868 Z-0.1461
N12430 X3.5009 Y3.4936 Z-0.15
N12440 G03 X3.4602 Y3.5 I-0.0466 J-0.1626
N12450 G01 X3.3078
N12460 X3.2949 Y3.4994
N12470 G03 X3.1173 Y3.423 I0.0554 J-0.3736
N12480 X2.8653 Y3.1057 I0.6087 J-0.742
N12490 X2.6579 Y2.46 I2.0719 J-1.0218
N12500 X2.5992 Y1.7815 I3.8943 J-0.6785
N12510 X2.7132 Y0.8393 I3.953 J0.
N12520 X2.8127 Y0.5865 I1.0513 J0.2678
N12530 X2.841 Y0.5448 I0.3055 J0.1774
N12540 X2.9392 Y0.5 I0.0982 J0.0851
N12550 G01 X3.0903
N12560 G03 X3.1293 Y0.5119 I-0.0027 J0.0787
N12570 G01 X3.1499 Y0.5248 Z-0.1461
N12580 X3.1685 Y0.5364 Z-0.135
N12590 X3.1833 Y0.5457 Z-0.1175
N12600 X3.1928 Y0.5516 Z-0.0956
N12610 X3.196 Y0.5536 Z-0.0713
N12620 G00 Z0.2
N12630 X3.4242 Y3.4718
N12640 Z0.05
N12650 G01 Z-0.0713 F10.0
N12660 X3.4205 Y3.4729 Z-0.0956 F20.0
N12670 X3.4097 Y3.476 Z-0.1175
N12680 X3.393 Y3.4808 Z-0.135
N12690 X3.3719 Y3.4868 Z-0.1461
N12700 X3.3485 Y3.4936 Z-0.15
N12710 G03 X3.3078 Y3.5 I-0.0466 J-0.1626
N12720 G01 X3.1708
N12730 G03 X3.0068 Y3.4479 I0.0132 J-0.3256
N12740 X2.7866 Y3.2223 I0.4297 J-0.6398
N12750 X2.5583 Y2.6811 I1.5625 J-0.9778
N12760 X2.4496 Y1.7738 I3.7333 J-0.9073
N12770 X2.4558 Y1.5555 I3.842 J0.
N12780 X2.5895 Y0.7521 I3.0699 J0.098
N12790 X2.679 Y0.5596 I0.7361 J0.2252
N12800 X2.7882 Y0.5 I0.1092 J0.0703
N12810 G01 X2.9392
N12820 G03 X2.9782 Y0.5119 I-0.0027 J0.0787
N12830 G01 X2.9988 Y0.5248 Z-0.1461
N12840 X3.0174 Y0.5364 Z-0.135
N12850 X3.0322 Y0.5457 Z-0.1175
N12860 X3.0417 Y0.5516 Z-0.0956
N12870 X3.045 Y0.5536 Z-0.0713
N12880 G00 Z0.2
N12890 X3.2872 Y3.4718
N12900 Z0.05
N12910 G01 Z-0.0713 F10.0
N12920 X3.2835 Y3.4729 Z-0.0956 F20.0
N12930 X3.2727 Y3.476 Z-0.1175
N12940 X3.256 Y3.4808 Z-0.135
N12950 X3.2349 Y3.4868 Z-0.1461
N12960 X3.2115 Y3.4936 Z-0.15
N12970 G03 X3.1708 Y3.5 I-0.0466 J-0.1626
N12980 G01 X3.0149
N12990 G03 X2.9712 Y3.4946 I0.0022 J-0.1986
N13000 X2.7865 Y3.3944 I0.1096 J-0.4222
N13010 X2.5492 Y3.0652 I0.7315 J-0.7775
N13020 X2.3463 Y2.3708 I2.2889 J-1.0458
N13030 X2.3004 Y1.7706 I3.9008 J-0.6001
N13040 X2.4118 Y0.8394 I3.9467 J0.
N13050 X2.5109 Y0.5864 I1.0457 J0.2639
N13060 X2.5392 Y0.5449 I0.3045 J0.1766
N13070 X2.6374 Y0.5 I0.0982 J0.085
N13080 G01 X2.7882
N13090 G03 X2.8272 Y0.5119 I-0.0027 J0.0787
N13100 G01 X2.8479 Y0.5248 Z-0.1461
N13110 X2.8665 Y0.5364 Z-0.135
N13120 X2.8812 Y0.5457 Z-0.1175
N13130 X2.8907 Y0.5516 Z-0.0956
N13140 X2.894 Y0.5536 Z-0.0713
N13150 G00 Z0.2
N13160 X3.1313 Y3.4718
N13170 Z0.05
N13180 G01 Z-0.0713 F10.0
N13190 X3.1276 Y3.4729 Z-0.0956 F20.0
N13200 X3.1169 Y3.476 Z-0.1175
N13210 X3.1001 Y3.4808 Z-0.135
N13220 X3.079 Y3.4868 Z-0.1461
N13230 X3.0556 Y3.4936 Z-0.15
N13240 G03 X3.0149 Y3.5 I-0.0466 J-0.1626
N13250 G01 X2.8625
N13260 X2.852 Y3.4995
N13270 G03 X2.6743 Y3.4231 I0.0555 J-0.3741
N13280 X2.422 Y3.106 I0.61 J-0.7442
N13290 X2.213 Y2.4608 I2.0841 J-1.0315
N13300 X2.1514 Y1.7651 I3.8934 J-0.6957
N13310 X2.2611 Y0.8398 I3.9551 J0.
N13320 X2.36 Y0.5868 I1.0458 J0.2627
N13330 X2.3883 Y0.545 I0.3059 J0.1769
N13340 X2.4866 Y0.5 I0.0983 J0.0849
N13350 G01 X2.6227
N13360 G03 X2.6617 Y0.5119 I-0.0027 J0.0787
N13370 G01 X2.6823 Y0.5248 Z-0.1461
N13380 X2.701 Y0.5364 Z-0.135
N13390 X2.7157 Y0.5457 Z-0.1175
N13400 X2.7252 Y0.5516 Z-0.0956
N13410 X2.7285 Y0.5536 Z-0.0713
N13420 G00 Z0.2
N13430 X2.9789 Y3.4718
N13440 Z0.05
N13450 G01 Z-0.0713 F10.0
N13460 X2.9752 Y3.4729 Z-0.0956 F20.0
N13470 X2.9645 Y3.476 Z-0.1175
N13480 X2.9477 Y3.4808 Z-0.135
N13490 X2.9266 Y3.4868 Z-0.1461
N13500 X2.9032 Y3.4936 Z-0.15
N13510 G03 X2.8625 Y3.5 I-0.0466 J-0.1626
N13520 G01 X2.7255
N13530 G03 X2.5636 Y3.448 I0.0154 J-0.3257
N13540 X2.3432 Y3.2225 I0.4306 J-0.6413
N13550 X2.1139 Y2.6817 I1.5689 J-0.9843
N13560 X2.0018 Y1.7569 I3.7583 J-0.9249
N13570 X2.007 Y1.5564 I3.8704 J0.
N13580 X2.1374 Y0.7525 I3.0464 J0.0818
N13590 X2.2266 Y0.5598 I0.7338 J0.2223
N13600 X2.3359 Y0.5 I0.1093 J0.0702
N13610 G01 X2.4866
N13620 G03 X2.5256 Y0.5119 I-0.0027 J0.0787
N13630 G01 X2.5462 Y0.5248 Z-0.1461
N13640 X2.5648 Y0.5364 Z-0.135
N13650 X2.5796 Y0.5457 Z-0.1175
N13660 X2.5891 Y0.5516 Z-0.0956
N13670 X2.5924 Y0.5536 Z-0.0713
N13680 G00 Z0.2
N13690 X2.8419 Y3.4718
N13700 Z0.05
N13710 G01 Z-0.0713 F10.0
N13720 X2.8382 Y3.4729 Z-0.0956 F20.0
N13730 X2.8274 Y3.476 Z-0.1175
N13740 X2.8107 Y3.4808 Z-0.135
N13750 X2.7896 Y3.4868 Z-0.1461
N13760 X2.7662 Y3.4936 Z-0.15
N13770 G03 X2.7255 Y3.5 I-0.0466 J-0.1626
N13780 G01 X2.5885
N13790 G03 X2.4154 Y3.4474 I0.0053 J-0.3286
N13800 X2.195 Y3.2219 I0.4308 J-0.6415
N13810 X1.9655 Y2.6812 I1.5716 J-0.9861
N13820 X1.8525 Y1.7517 I3.7655 J-0.9295
N13830 X1.8574 Y1.556 I3.8785 J0.
N13840 X1.9871 Y0.752 I3.0368 J0.0774
N13850 X2.076 Y0.5597 I0.73 J0.2207
N13860 X2.1853 Y0.5 I0.1093 J0.0703
N13870 G01 X2.3145
N13880 G03 X2.3534 Y0.5119 I-0.0027 J0.0787
N13890 G01 X2.3741 Y0.5248 Z-0.1461
N13900 X2.3927 Y0.5364 Z-0.135
N13910 X2.4075 Y0.5457 Z-0.1175
N13920 X2.4169 Y0.5516 Z-0.0956
N13930 X2.4202 Y0.5536 Z-0.0713
N13940 G00 Z0.2
N13950 X2.7049 Y3.4718
N13960 Z0.05
N13970 G01 Z-0.0713 F10.0
N13980 X2.7012 Y3.4729 Z-0.0956 F20.0
N13990 X2.6904 Y3.476 Z-0.1175
N14000 X2.6737 Y3.4808 Z-0.135
N14010 X2.6526 Y3.4868 Z-0.1461
N14020 X2.6292 Y3.4936 Z-0.15
N14030 G03 X2.5885 Y3.5 I-0.0466 J-0.1626
N14040 G01 X2.4326
N14050 G03 X2.2679 Y3.4478 I0.013 J-0.3269
N14060 X2.0473 Y3.2224 I0.4311 J-0.6424
N14070 X1.8173 Y2.6819 I1.5721 J-0.9881
N14080 X1.7031 Y1.747 I3.7698 J-0.9349
N14090 X1.7078 Y1.5568 I3.884 J0.
N14100 X1.8365 Y0.7527 I3.0325 J0.0728
N14110 X1.9254 Y0.5598 I0.7319 J0.2206
N14120 X2.0348 Y0.5 I0.1094 J0.0701
N14130 G01 X2.1853
N14140 G03 X2.2243 Y0.5119 I-0.0027 J0.0787
N14150 G01 X2.2449 Y0.5248 Z-0.1461
N14160 X2.2636 Y0.5364 Z-0.135
N14170 X2.2783 Y0.5457 Z-0.1175
N14180 X2.2878 Y0.5516 Z-0.0956
N14190 X2.2911 Y0.5536 Z-0.0713
N14200 G00 Z0.2
N14210 X2.549 Y3.4718
N14220 Z0.05
N14230 G01 Z-0.0713 F10.0
N14240 X2.5453 Y3.4729 Z-0.0956 F20.0
N14250 X2.5346 Y3.476 Z-0.1175
N14260 X2.5178 Y3.4808 Z-0.135
N14270 X2.4967 Y3.4868 Z-0.1461
N14280 X2.4734 Y3.4936 Z-0.15
N14290 G03 X2.4326 Y3.5 I-0.0466 J-0.1626
N14300 G01 X2.2802
N14310 G03 X2.1201 Y3.448 I0.0176 J-0.3267
N14320 X1.8995 Y3.2227 I0.4314 J-0.6431
N14330 X1.6691 Y2.6823 I1.5735 J-0.9902
N14340 X1.5538 Y1.7425 I3.7739 J-0.9399
N14350 X1.5582 Y1.5574 I3.8892 J0.
N14360 X1.686 Y0.7531 I3.0277 J0.0686
N14370 X1.7749 Y0.56 I0.7329 J0.2203
N14380 X1.8843 Y0.5 I0.1095 J0.07
N14390 G01 X2.0348
N14400 G03 X2.0738 Y0.5119 I-0.0027 J0.0787
N14410 G01 X2.0944 Y0.5248 Z-0.1461
N14420 X2.113 Y0.5364 Z-0.135
N14430 X2.1278 Y0.5457 Z-0.1175
N14440 X2.1373 Y0.5516 Z-0.0956
N14450 X2.1406 Y0.5536 Z-0.0713
N14460 G00 Z0.2
N14470 X2.3966 Y3.4718
N14480 Z0.05
N14490 G01 Z-0.0713 F10.0
N14500 X2.3929 Y3.4729 Z-0.0956 F20.0
N14510 X2.3822 Y3.476 Z-0.1175
N14520 X2.3654 Y3.4808 Z-0.135
N14530 X2.3443 Y3.4868 Z-0.1461
N14540 X2.3209 Y3.4936 Z-0.15
N14550 G03 X2.2802 Y3.5 I-0.0466 J-0.1626
N14560 G01 X2.1432
N14570 G03 X1.9716 Y3.4474 I0.0068 J-0.3285
N14580 X1.751 Y3.2221 I0.4316 J-0.6432
N14590 X1.5205 Y2.6818 I1.5763 J-0.9919
N14600 X1.4044 Y1.7381 I3.779 J-0.9438
N14610 X1.4087 Y1.557 I3.895 J0.
N14620 X1.5358 Y0.7526 I3.0193 J0.0651
N14630 X1.6245 Y0.5599 I0.7294 J0.2189
N14640 X1.7339 Y0.5 I0.1094 J0.0701
N14650 G01 X1.8692
N14660 G03 X1.9082 Y0.5119 I-0.0027 J0.0787
N14670 G01 X1.9288 Y0.5248 Z-0.1461
N14680 X1.9474 Y0.5364 Z-0.135
N14690 X1.9622 Y0.5457 Z-0.1175
N14700 X1.9717 Y0.5516 Z-0.0956
N14710 X1.9749 Y0.5536 Z-0.0713
N14720 G00 Z0.2
N14730 X2.2596 Y3.4718
N14740 Z0.05
N14750 G01 Z-0.0713 F10.0
N14760 X2.2559 Y3.4729 Z-0.0956 F20.0
N14770 X2.2452 Y3.476 Z-0.1175
N14780 X2.2284 Y3.4808 Z-0.135
N14790 X2.2073 Y3.4868 Z-0.1461
N14800 X2.1839 Y3.4936 Z-0.15
N14810 G03 X2.1432 Y3.5 I-0.0466 J-0.1626
N14820 G01 X1.9874
N14830 G03 X1.8239 Y3.4478 I0.0145 J-0.3272
N14840 X1.6032 Y3.2225 I0.432 J-0.6441
N14850 X1.3722 Y2.6825 I1.5768 J-0.9938
N14860 X1.2551 Y1.7341 I3.7815 J-0.9484
N14870 X1.2591 Y1.5577 I3.8986 J0.
N14880 X1.3854 Y0.7532 I3.0159 J0.0613
N14890 X1.4741 Y0.56 I0.7315 J0.2189
N14900 X1.5836 Y0.5 I0.1095 J0.0699
N14910 G01 X1.7339
N14920 G03 X1.7729 Y0.5119 I-0.0027 J0.0787
N14930 G01 X1.7936 Y0.5248 Z-0.1461
N14940 X1.8122 Y0.5364 Z-0.135
N14950 X1.8269 Y0.5457 Z-0.1175
N14960 X1.8364 Y0.5516 Z-0.0956
N14970 X1.8397 Y0.5536 Z-0.0713
N14980 G00 Z0.2
N14990 X2.1038 Y3.4718
N15000 Z0.05
N15010 G01 Z-0.0713 F10.0
N15020 X2.1001 Y3.4729 Z-0.0956 F20.0
N15030 X2.0893 Y3.476 Z-0.1175
N15040 X2.0726 Y3.4808 Z-0.135
N15050 X2.0515 Y3.4868 Z-0.1461
N15060 X2.0281 Y3.4936 Z-0.15
N15070 G03 X1.9874 Y3.5 I-0.0466 J-0.1626
N15080 G01 X1.8349
N15090 G03 X1.6759 Y3.448 I0.019 J-0.3272
N15100 X1.4551 Y3.2228 I0.4323 J-0.6447
N15110 X1.2238 Y2.6829 I1.578 J-0.9957
N15120 X1.1057 Y1.7303 I3.784 J-0.9526
N15130 X1.1095 Y1.5583 I3.9021 J0.
N15140 X1.235 Y0.7536 I3.0121 J0.0579
N15150 X1.3237 Y0.5601 I0.7326 J0.2187
N15160 X1.4333 Y0.5 I0.1096 J0.0698
N15170 G01 X1.5836
N15180 G03 X1.6226 Y0.5119 I-0.0027 J0.0787
N15190 G01 X1.6432 Y0.5248 Z-0.1461
N15200 X1.6618 Y0.5364 Z-0.135
N15210 X1.6766 Y0.5457 Z-0.1175
N15220 X1.6861 Y0.5516 Z-0.0956
N15230 X1.6894 Y0.5536 Z-0.0713
N15240 G00 Z0.2
N15250 X1.9513 Y3.4718
N15260 Z0.05
N15270 G01 Z-0.0713 F10.0
N15280 X1.9476 Y3.4729 Z-0.0956 F20.0
N15290 X1.9369 Y3.476 Z-0.1175
N15300 X1.9201 Y3.4808 Z-0.135
N15310 X1.899 Y3.4868 Z-0.1461
N15320 X1.8757 Y3.4936 Z-0.15
N15330 G03 X1.8349 Y3.5 I-0.0466 J-0.1626
N15340 G01 X1.6979
N15350 G03 X1.5273 Y3.4474 I0.0078 J-0.3286
N15360 X1.3065 Y3.2223 I0.4325 J-0.6448
N15370 X1.0751 Y2.6824 I1.5808 J-0.9973
N15380 X0.9563 Y1.7265 I3.7878 J-0.9558
N15390 X0.96 Y1.5578 I3.9065 J0.
N15400 X1.0851 Y0.7531 I3.0046 J0.055
N15410 X1.1736 Y0.56 I0.7292 J0.2174
N15420 X1.2831 Y0.5 I0.1095 J0.0699
N15430 G01 X1.4333
N15440 G03 X1.4723 Y0.5119 I-0.0027 J0.0787
N15450 G01 X1.4929 Y0.5248 Z-0.1461
N15460 X1.5116 Y0.5364 Z-0.135
N15470 X1.5263 Y0.5457 Z-0.1175
N15480 X1.5358 Y0.5516 Z-0.0956
N15490 X1.5391 Y0.5536 Z-0.0713
N15500 G00 Z0.2
N15510 X1.8143 Y3.4718
N15520 Z0.05
N15530 G01 Z-0.0713 F10.0
N15540 X1.8106 Y3.4729 Z-0.0956 F20.0
N15550 X1.7999 Y3.476 Z-0.1175
N15560 X1.7831 Y3.4808 Z-0.135
N15570 X1.762 Y3.4868 Z-0.1461
N15580 X1.7386 Y3.4936 Z-0.15
N15590 G03 X1.6979 Y3.5 I-0.0466 J-0.1626
N15600 G01 X1.5421
N15610 G03 X1.3794 Y3.4478 I0.0154 J-0.3275
N15620 X1.1585 Y3.2227 I0.4328 J-0.6456
N15630 X0.9266 Y2.683 I1.581 J-0.9989
N15640 X0.8069 Y1.7232 I3.7891 J-0.9598
N15650 X0.8104 Y1.5585 I3.9088 J0.
N15660 X0.9347 Y0.7537 I3.0022 J0.0518
N15670 X1.0233 Y0.5602 I0.7314 J0.2176
N15680 X1.1329 Y0.5 I0.1096 J0.0697
N15690 G01 X1.2831
N15700 G03 X1.3221 Y0.5119 I-0.0027 J0.0787
N15710 G01 X1.3427 Y0.5248 Z-0.1461
N15720 X1.3613 Y0.5364 Z-0.135
N15730 X1.3761 Y0.5457 Z-0.1175
N15740 X1.3856 Y0.5516 Z-0.0956
N15750 X1.3889 Y0.5536 Z-0.0713
N15760 G00 Z0.2
N15770 X1.6585 Y3.4718
N15780 Z0.05
N15790 G01 Z-0.0713 F10.0
N15800 X1.6548 Y3.4729 Z-0.0956 F20.0
N15810 X1.644 Y3.476 Z-0.1175
N15820 X1.6273 Y3.4808 Z-0.135
N15830 X1.6062 Y3.4868 Z-0.1461
N15840 X1.5828 Y3.4936 Z-0.15
N15850 G03 X1.5421 Y3.5 I-0.0466 J-0.1626
N15860 G01 X1.3897
N15870 G03 X1.3434 Y3.4945 I0.0016 J-0.21
N15880 X1.1582 Y3.3942 I0.1103 J-0.4248
N15890 X0.9196 Y3.0658 I0.7368 J-0.7863
N15900 X0.711 Y2.373 I2.3255 J-1.0782
N15910 X0.6573 Y1.7262 I3.8701 J-0.6468
N15920 X0.7584 Y0.8411 I3.9238 J0.
N15930 X0.8558 Y0.5875 I1.0354 J0.2522
N15940 X0.8842 Y0.5453 I0.3075 J0.1761
N15950 X0.9828 Y0.5 I0.0986 J0.0846
N15960 G01 X1.1156
N15970 G03 X1.1546 Y0.5119 I-0.0027 J0.0787
N15980 G01 X1.1752 Y0.5248 Z-0.1461
N15990 X1.1939 Y0.5364 Z-0.135
N16000 X1.2086 Y0.5457 Z-0.1175
N16010 X1.2181 Y0.5516 Z-0.0956
N16020 X1.2214 Y0.5536 Z-0.0713
N16030 G00 Z0.2
N16040 X1.5061 Y3.4718
N16050 Z0.05
N16060 G01 Z-0.0713 F10.0
N16070 X1.5024 Y3.4729 Z-0.0956 F20.0
N16080 X1.4916 Y3.476 Z-0.1175
N16090 X1.4749 Y3.4808 Z-0.135
N16100 X1.4538 Y3.4868 Z-0.1461
N16110 X1.4304 Y3.4936 Z-0.15
N16120 G03 X1.3897 Y3.5 I-0.0466 J-0.1626
N16130 G01 X1.2526
N16140 G03 X1.0824 Y3.4474 I0.0083 J-0.3288
N16150 X0.8615 Y3.2224 I0.4332 J-0.6462
N16160 X0.6292 Y2.6828 I1.5846 J-1.002
N16170 X0.5081 Y1.7168 I3.7935 J-0.9661
N16180 X0.5113 Y1.5585 I3.9146 J0.
N16190 X0.6347 Y0.7536 I2.9925 J0.0467
N16200 X0.7231 Y0.5602 I0.7293 J0.2163
N16210 X0.8327 Y0.5 I0.1096 J0.0697
N16220 G01 X0.9828
N16230 G03 X1.0218 Y0.5119 I-0.0027 J0.0787
N16240 G01 X1.0424 Y0.5248 Z-0.1461
N16250 X1.061 Y0.5364 Z-0.135
N16260 X1.0758 Y0.5457 Z-0.1175
N16270 X1.0853 Y0.5516 Z-0.0956
N16280 X1.0885 Y0.5536 Z-0.0713
N16290 G00 Z0.2
N16300 X1.3691 Y3.4718
N16310 Z0.05
N16320 G01 Z-0.0713 F10.0
N16330 X1.3654 Y3.4729 Z-0.0956 F20.0
N16340 X1.3546 Y3.476 Z-0.1175
N16350 X1.3379 Y3.4808 Z-0.135
N16360 X1.3168 Y3.4868 Z-0.1461
N16370 X1.2934 Y3.4936 Z-0.15
N16380 G03 X1.2526 Y3.5 I-0.0466 J-0.1626
N16390 G01 X1.0968
N16400 G03 X0.9343 Y3.4477 I0.0158 J-0.3279
N16410 X0.7133 Y3.2228 I0.4335 J-0.647
N16420 X0.5055 Y2.7686 I1.4871 J-0.9549
N16430 X0.5 Y2.731 I0.1244 J-0.0375
N16440 G01 Y0.9063
N16450 G03 X0.5055 Y0.8157 I2.251 J0.09
N16460 X0.5856 Y0.5585 I0.6232 J0.0531
N16470 G01 X0.5874 Y0.5559
N16480 G03 X0.6941 Y0.5 I0.1068 J0.074
N16490 G01 X0.8327
N16500 G03 X0.9087 Y0.5787 I-0.0027 J0.0787
N16510 X0.8922 Y0.6269 I-0.0787 J0.
N16520 G01 X0.641 Y0.9517
N16530 G03 X0.5787 Y0.9823 I-0.0623 J-0.0482
N16540 X0.5 Y0.9063 I0. J-0.0787
N16550 G01 Y0.614
N16560 G03 X0.504 Y0.5807 I0.1516 J0.0013
N16570 X0.6103 Y0.5 I0.1063 J0.0297
N16580 G01 X0.6941
N16590 G03 X0.7701 Y0.5787 I-0.0027 J0.0787
N16600 X0.7133 Y0.6543 I-0.0787 J0.
N16610 G01 X0.6006 Y0.6869
N16620 G03 X0.5787 Y0.69 I-0.0219 J-0.0756
N16630 X0.5 Y0.614 I0. J-0.0787
N16640 G01 Y0.5469
N16650 X0.5002 Y0.5423
N16660 G03 X0.55 Y0.5 I0.0497 J0.0081
N16670 G01 X0.6103
N16680 G03 X0.6863 Y0.5787 I-0.0027 J0.0787
N16690 X0.6075 Y0.6574 I-0.0787 J0.
N16700 X0.5471 Y0.6292 I0. J-0.0787
N16710 G01 X0.5183 Y0.5947
N16720 G03 X0.5 Y0.5469 I0.0604 J-0.0505
N16730 G01 Y0.5218
N16740 X0.5002 Y0.5171
N16750 X0.5026 Y0.5104
N16760 X0.5072 Y0.5049
N16770 X0.5133 Y0.5013
N16780 X0.5204 Y0.5
N16790 X0.55
N16800 G03 X0.6173 Y0.5428 I-0.0027 J0.0787
N16810 X0.6214 Y0.5599 I-0.0334 J0.0171
N16820 X0.5887 Y0.5971 I-0.0375 J0.
N16830 X0.5787 Y0.5978 I-0.01 J-0.0781
N16840 X0.5 Y0.5218 I0. J-0.0787
N16850 G01 Y0.5086
N16860 X0.5001 Y0.5062
N16870 X0.5015 Y0.5031
N16880 X0.504 Y0.5009
N16890 X0.5073 Y0.5
N16900 X0.5204
N16910 G03 X0.5293 Y0.5093 I-0.0003 J0.0093
N16920 X0.5201 Y0.5186 I-0.0093 J0.
N16930 X0.5192 Y0.5185 I0. J-0.0093
N16940 G01 X0.5084 Y0.5175
N16950 G03 X0.5 Y0.5086 I0.0009 J-0.0092
N16960 X0.5 Y0.5077 I0.0638 J-0.0008
N16970 X0.5004 Y0.5007 I0.0638 J0.
N16980 G01 X0.5073 Y0.5
N16990 G03 X0.5467 Y0.5106 I0. J0.0787
N17000 G01 X0.5677 Y0.5228 Z-0.1461
N17010 X0.5867 Y0.5338 Z-0.135
N17020 X0.6018 Y0.5425 Z-0.1175
N17030 X0.6115 Y0.5481 Z-0.0956
N17040 X0.6148 Y0.55 Z-0.0713
N17050 G00 Z0.2
N17060 X0.5522 Y0.6096
N17070 Z0.05
N17080 G01 Z-0.0713 F10.0
N17090 X0.5502 Y0.6064 Z-0.0956 F20.0
N17100 X0.5444 Y0.5968 Z-0.1175
N17110 X0.5353 Y0.5819 Z-0.135
N17120 X0.5238 Y0.5632 Z-0.1461
N17130 X0.5112 Y0.5424 Z-0.15
N17140 G03 X0.5002 Y0.5035 I0.0638 J-0.039
N17150 X0.5002 Y0.5027 I0.0748 J0.
N17160 G01 Y0.5009
N17170 X0.5004 Y0.5007
N17180 G00 Z0.2
N17190 X1.2132 Y3.4718
N17200 Z0.05
N17210 G01 Z-0.0713 F10.0
N17220 X1.2095 Y3.4729 Z-0.0956 F20.0
N17230 X1.1988 Y3.476 Z-0.1175
N17240 X1.182 Y3.4808 Z-0.135
N17250 X1.1609 Y3.4868 Z-0.1461
N17260 X1.1375 Y3.4936 Z-0.15
N17270 G03 X1.0968 Y3.5 I-0.0466 J-0.1626
N17280 G01 X0.9444
N17290 G03 X0.8984 Y3.4945 I0.0017 J-0.209
N17300 X0.713 Y3.3941 I0.1105 J-0.4254
N17310 X0.5169 Y3.146 I0.665 J-0.7271
N17320 G01 X0.5163 Y3.1449
N17330 G03 X0.5 Y3.0819 I0.1136 J-0.063
N17340 G01 Y2.7519
N17350 G03 X0.5787 Y2.6759 I0.0787 J0.0027
N17360 X0.6478 Y2.717 I0. J0.0787
N17370 G01 X1.0108 Y3.3837
N17380 G03 X1.0204 Y3.4213 I-0.0692 J0.0376
N17390 X0.9444 Y3.5 I-0.0787 J0.
N17400 G01 X0.8074
N17410 G03 X0.6371 Y3.4474 I0.0084 J-0.3292
N17420 X0.5294 Y3.3598 I0.2312 J-0.3941
N17430 X0.5 Y3.2774 I0.1005 J-0.0823
N17440 G01 Y3.0819
N17450 G03 X0.5787 Y3.0059 I0.0787 J0.0027
N17460 X0.6441 Y3.0407 I0. J0.0787
N17470 G01 X0.87 Y3.3774
N17480 G03 X0.8834 Y3.4213 I-0.0654 J0.0439
N17490 X0.8074 Y3.5 I-0.0787 J0.
N17500 G01 X0.6515
N17510 G03 X0.5772 Y3.4874 I0.0019 J-0.2358
N17520 X0.5 Y3.373 I0.0461 J-0.1144
N17530 G01 Y3.2988
N17540 G03 X0.5787 Y3.2228 I0.0787 J0.0027
N17550 X0.6467 Y3.2618 I0. J0.0787
N17560 G01 X0.7167 Y3.3815
N17570 G03 X0.7275 Y3.4213 I-0.068 J0.0398
N17580 X0.6515 Y3.5 I-0.0787 J0.
N17590 G01 X0.5572
N17600 X0.5501 Y3.4996
N17610 G03 X0.5 Y3.4407 I0.0096 J-0.0589
N17620 G01 Y3.373
N17630 G03 X0.5787 Y3.297 I0.0787 J0.0027
N17640 X0.6574 Y3.3757 I0. J0.0787
N17650 X0.6482 Y3.4127 I-0.0787 J0.
N17660 G01 X0.624 Y3.4582
N17670 G03 X0.5572 Y3.5 I-0.0695 J-0.0369
N17680 G01 X0.5241
N17690 X0.5209 Y3.4998
N17700 G03 X0.5 Y3.4752 I0.004 J-0.0246
N17710 G01 Y3.4407
N17720 G03 X0.5385 Y3.3758 I0.0787 J0.0027
N17730 X0.5588 Y3.3702 I0.0202 J0.0341
N17740 X0.5967 Y3.3983 I0. J0.0396
N17750 X0.6001 Y3.4213 I-0.0753 J0.023
N17760 X0.5241 Y3.5 I-0.0787 J0.
N17770 G01 X0.5099
N17780 X0.5075 Y3.4999
N17790 X0.5037 Y3.4982
N17800 X0.5011 Y3.4949
N17810 X0.5001 Y3.4909
N17820 G03 X0.5188 Y3.4696 I0.022 J0.0005
N17830 X0.5204 Y3.4695 I0.0016 J0.0105
N17840 X0.531 Y3.48 I0. J0.0106
N17850 X0.5308 Y3.482 I-0.0106 J0.
N17860 X0.5099 Y3.5 I-0.0217 J-0.004
N17870 X0.5089 Y3.5 I-0.001 J-0.0667
N17880 X0.501 Y3.4995 I0. J-0.0667
N17890 G01 X0.5002 Y3.4982
N17900 X0.5034 Y3.4998
N17910 X0.5006 Y3.4996
N17920 X0.5002 Y3.499
N17930 G03 X0.5115 Y3.4599 I0.0787 J0.0015
N17940 G01 X0.524 Y3.439 Z-0.1461
N17950 X0.5354 Y3.4202 Z-0.135
N17960 X0.5443 Y3.4053 Z-0.1175
N17970 X0.5501 Y3.3957 Z-0.0956
N17980 X0.5521 Y3.3924 Z-0.0713
N17990 G00 Z0.2
N18000 X0.6078 Y3.4481
N18010 Z0.05
N18020 G01 Z-0.0713 F10.0
N18030 X0.6045 Y3.4501 Z-0.0956 F20.0
N18040 X0.5949 Y3.4559 Z-0.1175
N18050 X0.58 Y3.4649 Z-0.135
N18060 X0.5612 Y3.4763 Z-0.1461
N18070 X0.5404 Y3.4889 Z-0.15
N18080 G03 X0.5017 Y3.4997 I-0.0387 J-0.064
N18090 X0.5006 Y3.4996 I0. J-0.0748
N18100 G01 X0.5002 Y3.499
N18110 G03 X0.5115 Y3.4599 I0.0787 J0.0015
N18120 G01 X0.524 Y3.439 Z-0.1461
N18130 X0.5354 Y3.4202 Z-0.135
N18140 X0.5443 Y3.4053 Z-0.1175
N18150 X0.5501 Y3.3957 Z-0.0956
N18160 X0.5521 Y3.3924 Z-0.0713
N18170 G00 Z0.2
N18180 X0.697 Y1.1326
N18190 Z0.05
N18200 G01 Z-0.15 F10.0
N18210 X0.5 Y1.0979 F20.0
N18220 Y0.5
N18230 G02 X0.5007 Y0.5 I0.0007 J-0.3125
N18240 G01 X10.4954
N18250 G02 X10.4999 Y0.5 I0. J-0.3125
N18260 G03 X10.5 Y0.5 I0. J0.0001
N18270 G02 X10.5 Y0.5029 I0.3125 J0.0029
N18280 G01 Y3.5
N18290 G02 X10.4993 Y3.5 I-0.0007 J0.3125
N18300 G01 X0.5001
N18310 G03 X0.4998 Y3.4997 I0. J-0.0003
N18320 G02 X0.5 Y3.4894 I-0.3123 J-0.0103
N18330 G01 Y1.0979
N18340 X0.697 Y1.0632
N18350 G00 Z0.2
N18360 M05 M09
N18370 (END TOOL)
N18380 M05 M09
N18390 M30
%
