%
O0000
N10 (MACH3 MILL - )
N20 (AUTHOR - {SCOTT SHAFER})
N30 (GROUP - TOOLPATH GROUP #1)
N40 (SYSTEM- ONECNC-XR3 MILL 3D ADVANTAGE - VERSION 11.30)
N50 (NOTES - NONE)
N60 G0 G40 G49 G50 G80 G94
N70 (0.25INCH DRILL, 118 INC ) ( )
N80 T0 M06 G43 H0
N90 S1600.0 F9.6 M3 M07
N100 G4 P3
N110 G00 X0.375 Y0.375 Z0.2
N120 Z0.05
N130 G01 Z-0.3251 F4.8
N140 G00 Z0.05
N150 Z0.2
N160 Y3.625
N170 Z0.05
N180 G01 Z-0.3251
N190 G00 Z0.05
N200 Z0.2
N210 X10.625
N220 Z0.05
N230 G01 Z-0.3251
N240 G00 Z0.05
N250 Z0.2
N260 Y0.375
N270 Z0.05
N280 G01 Z-0.3251
N290 G00 Z0.05
N300 G00 Z0.2
N310 M05 M09
N320 (END TOOL)
N330 M05 M09
N340 M30
%
