%
O0000
N10 (MACH3 MILL - )
N20 (AUTHOR - {SCOTT SHAFER})
N30 (GROUP - TOOLPATH GROUP #1)
N40 (SYSTEM- ONECNC-XR3 MILL 3D ADVANTAGE - VERSION 11.30)
N50 (NOTES - NONE)
N60 G0 G40 G49 G50 G80 G94
N70 (0.24INCH END MILL ) ( )
N80 T0 M06 G43 H0
N90 S1600.0 F5.0 M3 M07
N100 G4 P3
N110 G00 X3.9533 Y1.4177 Z0.2
N120 Z0.05
N130 G01 Y1.6733 Z0.0231 F5.0
N140 Y1.3268 Z-0.0133
N150 Y1.6733 Z-0.0497
N160 Y1.3268 Z-0.0861
N170 Y1.6733 Z-0.1225
N180 Y1.3268 Z-0.159
N190 Y1.6733 Z-0.1954
N200 Y1.3268 Z-0.2318
N210 Y1.5 Z-0.25
N220 Y1.4925
N230 G03 X3.8608 Y1.4 I0. J-0.0925
N240 X3.9533 Y1.3075 I0.0925 J0.
N250 X4.1458 Y1.5 I0. J0.1925
N260 X3.9533 Y1.6925 I-0.1925 J0.
N270 X3.7608 Y1.5 I0. J-0.1925
N280 X3.9533 Y1.3075 I0.1925 J0.
N290 X4.0495 Y1.4038 I0. J0.0963
N300 X3.9533 Y1.5 I-0.0963 J0.
N310 G00 Z0.2
N320 Y2.4177
N330 Z0.05
N340 G01 Y2.6733 Z0.0231
N350 Y2.3268 Z-0.0133
N360 Y2.6733 Z-0.0497
N370 Y2.3268 Z-0.0861
N380 Y2.6733 Z-0.1225
N390 Y2.3268 Z-0.159
N400 Y2.6733 Z-0.1954
N410 Y2.3268 Z-0.2318
N420 Y2.5 Z-0.25
N430 Y2.4925
N440 G03 X3.8608 Y2.4 I0. J-0.0925
N450 X3.9533 Y2.3075 I0.0925 J0.
N460 X4.1458 Y2.5 I0. J0.1925
N470 X3.9533 Y2.6925 I-0.1925 J0.
N480 X3.7608 Y2.5 I0. J-0.1925
N490 X3.9533 Y2.3075 I0.1925 J0.
N500 X4.0495 Y2.4038 I0. J0.0962
N510 X3.9533 Y2.5 I-0.0962 J0.
N520 G00 Z0.2
N530 X5.75 Y1.9177
N540 Z0.05
N550 G01 Y2.1733 Z0.0231
N560 Y1.8268 Z-0.0133
N570 Y2.1733 Z-0.0497
N580 Y1.8268 Z-0.0861
N590 Y2.1733 Z-0.1225
N600 Y1.8268 Z-0.159
N610 Y2.1733 Z-0.1954
N620 Y1.8268 Z-0.2318
N630 Y2. Z-0.25
N640 Y1.9925
N650 G03 X5.6575 Y1.9 I0. J-0.0925
N660 X5.75 Y1.8075 I0.0925 J0.
N670 X5.9425 Y2. I0. J0.1925
N680 X5.75 Y2.1925 I-0.1925 J0.
N690 X5.5575 Y2. I0. J-0.1925
N700 X5.75 Y1.8075 I0.1925 J0.
N710 X5.8462 Y1.9038 I0. J0.0962
N720 X5.75 Y2. I-0.0963 J0.
N730 G00 Z0.2
N740 X8. Y1.4177
N750 Z0.05
N760 G01 Y1.6733 Z0.0231
N770 Y1.3268 Z-0.0133
N780 Y1.6733 Z-0.0497
N790 Y1.3268 Z-0.0861
N800 Y1.6733 Z-0.1225
N810 Y1.3268 Z-0.159
N820 Y1.6733 Z-0.1954
N830 Y1.3268 Z-0.2318
N840 Y1.5 Z-0.25
N850 Y1.4925
N860 G03 X7.9075 Y1.4 I0. J-0.0925
N870 X8. Y1.3075 I0.0925 J0.
N880 X8.1925 Y1.5 I0. J0.1925
N890 X8. Y1.6925 I-0.1925 J0.
N900 X7.8075 Y1.5 I0. J-0.1925
N910 X8. Y1.3075 I0.1925 J0.
N920 X8.0962 Y1.4038 I0. J0.0963
N930 X8. Y1.5 I-0.0963 J0.
N940 G00 Z0.2
N950 Y2.4177
N960 Z0.05
N970 G01 Y2.6733 Z0.0231
N980 Y2.3268 Z-0.0133
N990 Y2.6733 Z-0.0497
N1000 Y2.3268 Z-0.0861
N1010 Y2.6733 Z-0.1225
N1020 Y2.3268 Z-0.159
N1030 Y2.6733 Z-0.1954
N1040 Y2.3268 Z-0.2318
N1050 Y2.5 Z-0.25
N1060 Y2.4925
N1070 G03 X7.9075 Y2.4 I0. J-0.0925
N1080 X8. Y2.3075 I0.0925 J0.
N1090 X8.1925 Y2.5 I0. J0.1925
N1100 X8. Y2.6925 I-0.1925 J0.
N1110 X7.8075 Y2.5 I0. J-0.1925
N1120 X8. Y2.3075 I0.1925 J0.
N1130 X8.0962 Y2.4038 I0. J0.0962
N1140 X8. Y2.5 I-0.0962 J0.
N1150 G00 Z0.2
N1160 X9. Y2.4177
N1170 Z0.05
N1180 G01 Y2.6733 Z0.0231
N1190 Y2.3268 Z-0.0133
N1200 Y2.6733 Z-0.0497
N1210 Y2.3268 Z-0.0861
N1220 Y2.6733 Z-0.1225
N1230 Y2.3268 Z-0.159
N1240 Y2.6733 Z-0.1954
N1250 Y2.3268 Z-0.2318
N1260 Y2.5 Z-0.25
N1270 Y2.4925
N1280 G03 X8.9075 Y2.4 I0. J-0.0925
N1290 X9. Y2.3075 I0.0925 J0.
N1300 X9.1925 Y2.5 I0. J0.1925
N1310 X9. Y2.6925 I-0.1925 J0.
N1320 X8.8075 Y2.5 I0. J-0.1925
N1330 X9. Y2.3075 I0.1925 J0.
N1340 X9.0962 Y2.4038 I0. J0.0962
N1350 X9. Y2.5 I-0.0962 J0.
N1360 G00 Z0.2
N1370 Y1.4177
N1380 Z0.05
N1390 G01 Y1.6733 Z0.0231
N1400 Y1.3268 Z-0.0133
N1410 Y1.6733 Z-0.0497
N1420 Y1.3268 Z-0.0861
N1430 Y1.6733 Z-0.1225
N1440 Y1.3268 Z-0.159
N1450 Y1.6733 Z-0.1954
N1460 Y1.3268 Z-0.2318
N1470 Y1.5 Z-0.25
N1480 Y1.4925
N1490 G03 X8.9075 Y1.4 I0. J-0.0925
N1500 X9. Y1.3075 I0.0925 J0.
N1510 X9.1925 Y1.5 I0. J0.1925
N1520 X9. Y1.6925 I-0.1925 J0.
N1530 X8.8075 Y1.5 I0. J-0.1925
N1540 X9. Y1.3075 I0.1925 J0.
N1550 X9.0962 Y1.4038 I0. J0.0963
N1560 X9. Y1.5 I-0.0962 J0.
N1570 G00 Z0.2
N1580 M05 M09
N1590 (END TOOL)
N1600 M05 M09
N1610 M30
%
