%
O0000
N10 (MACH3 MILL - )
N20 (AUTHOR - {SCOTT SHAFER})
N30 (GROUP - TOOLPATH GROUP #1)
N40 (SYSTEM- ONECNC-XR3 MILL 3D ADVANTAGE - VERSION 11.30)
N50 (NOTES - NONE)
N60 G0 G40 G49 G50 G80 G94
N70 (0.125INCH END MILL ) ( )
N80 T0 M06 G43 H0
N90 S1600.0 F2.0 M3 M07
N100 G4 P3
N110 G00 X1.5922 Y1.9113 Z0.2
N120 Z0.05
N130 G01 X1.5788 Y1.898 Z0.048 F2.0
N140 X1.5702 Y1.881 Z0.046
N150 X1.5675 Y1.8623 Z0.044
N160 X1.5708 Y1.8436 Z0.042
N170 X1.5798 Y1.827 Z0.04
N180 X1.5936 Y1.814 Z0.038
N190 X1.6108 Y1.806 Z0.036 F1.0
N200 X1.6296 Y1.8038 Z0.034
N210 X1.6481 Y1.8077 Z0.032
N220 X1.6645 Y1.8172 Z0.03
N230 X1.677 Y1.8314 Z0.028
N240 X1.6845 Y1.8488 Z0.026
N250 X1.6861 Y1.8677 Z0.024
N260 X1.6816 Y1.8861 Z0.022
N270 X1.6716 Y1.9022 Z0.02
N280 X1.657 Y1.9143 Z0.018
N290 X1.6393 Y1.9212 Z0.016
N300 X1.6204 Y1.9222 Z0.014
N310 X1.6021 Y1.9171 Z0.012
N320 X1.5864 Y1.9066 Z0.01
N330 X1.5748 Y1.8916 Z0.008
N340 X1.5684 Y1.8738 Z0.006
N350 X1.5681 Y1.8548 Z0.004
N360 X1.5737 Y1.8367 Z0.002
N370 X1.5847 Y1.8213 Z0.
N380 X1.6 Y1.8102 Z-0.002
N390 X1.6181 Y1.8044 Z-0.004
N400 X1.637 Y1.8046 Z-0.006
N410 X1.6549 Y1.8108 Z-0.008
N420 X1.67 Y1.8223 Z-0.01
N430 X1.6806 Y1.838 Z-0.012
N440 X1.6858 Y1.8562 Z-0.014
N450 X1.685 Y1.8751 Z-0.016
N460 X1.6783 Y1.8929 Z-0.018
N470 X1.6663 Y1.9075 Z-0.02
N480 X1.6503 Y1.9177 Z-0.022
N490 X1.6319 Y1.9223 Z-0.024
N500 X1.613 Y1.9209 Z-0.026
N510 X1.5955 Y1.9136 Z-0.028
N520 X1.5812 Y1.9011 Z-0.03
N530 X1.5716 Y1.8848 Z-0.032
N540 X1.5676 Y1.8663 Z-0.034
N550 X1.5696 Y1.8475 Z-0.036
N560 X1.5774 Y1.8302 Z-0.038
N570 X1.5903 Y1.8163 Z-0.04
N580 X1.6069 Y1.8072 Z-0.042
N590 X1.6255 Y1.8038 Z-0.044
N600 X1.6443 Y1.8064 Z-0.046
N610 X1.6613 Y1.8148 Z-0.048
N620 X1.6748 Y1.8281 Z-0.05
N630 X1.6834 Y1.845 Z-0.052
N640 X1.6862 Y1.8637 Z-0.054
N650 X1.683 Y1.8824 Z-0.056
N660 X1.6741 Y1.8991 Z-0.058
N670 X1.6604 Y1.9121 Z-0.06
N680 X1.6432 Y1.9202 Z-0.062
N690 X1.6244 Y1.9225 Z-0.064
N700 X1.6059 Y1.9187 Z-0.066
N710 X1.5894 Y1.9092 Z-0.068
N720 X1.5768 Y1.8951 Z-0.07
N730 X1.5693 Y1.8777 Z-0.072
N740 X1.5676 Y1.8588 Z-0.074
N750 X1.572 Y1.8404 Z-0.076
N760 X1.582 Y1.8243 Z-0.078
N770 X1.5965 Y1.8121 Z-0.08
N780 X1.6141 Y1.8051 Z-0.082
N790 X1.633 Y1.8041 Z-0.084
N800 X1.6513 Y1.809 Z-0.086
N810 X1.6671 Y1.8195 Z-0.088
N820 X1.6788 Y1.8344 Z-0.09
N830 X1.6852 Y1.8522 Z-0.092
N840 X1.6857 Y1.8712 Z-0.094
N850 X1.6802 Y1.8893 Z-0.096
N860 X1.6692 Y1.9048 Z-0.098
N870 X1.6539 Y1.916 Z-0.1
N880 X1.6359 Y1.9218 Z-0.102
N890 X1.617 Y1.9217 Z-0.104
N900 X1.599 Y1.9156 Z-0.106
N910 X1.5839 Y1.9041 Z-0.108
N920 X1.5732 Y1.8885 Z-0.11
N930 X1.5679 Y1.8703 Z-0.112
N940 X1.5687 Y1.8514 Z-0.114
N950 X1.5753 Y1.8337 Z-0.116
N960 X1.5872 Y1.8189 Z-0.118
N970 X1.6032 Y1.8087 Z-0.12
N980 X1.6215 Y1.804 Z-0.122
N990 X1.6404 Y1.8053 Z-0.124
N1000 X1.6579 Y1.8125 Z-0.126
N1010 X1.6723 Y1.8249 Z-0.128
N1020 X1.682 Y1.8412 Z-0.13
N1030 X1.6861 Y1.8597 Z-0.132
N1040 X1.6842 Y1.8785 Z-0.134
N1050 X1.6764 Y1.8958 Z-0.136
N1060 X1.6636 Y1.9098 Z-0.138
N1070 X1.6471 Y1.919 Z-0.14
N1080 X1.6284 Y1.9225 Z-0.142
N1090 X1.6097 Y1.92 Z-0.144
N1100 X1.5926 Y1.9117 Z-0.146
N1110 X1.5791 Y1.8984 Z-0.148
N1120 X1.5704 Y1.8816 Z-0.15
N1130 X1.5675 Y1.8629 Z-0.152
N1140 X1.5706 Y1.8442 Z-0.154
N1150 X1.5794 Y1.8274 Z-0.156
N1160 X1.5931 Y1.8143 Z-0.158
N1170 X1.6102 Y1.8061 Z-0.16
N1180 X1.629 Y1.8038 Z-0.162
N1190 X1.6476 Y1.8075 Z-0.164
N1200 X1.6641 Y1.8169 Z-0.166
N1210 X1.6767 Y1.8309 Z-0.168
N1220 X1.6843 Y1.8483 Z-0.17
N1230 X1.6861 Y1.8672 Z-0.172
N1240 X1.6818 Y1.8856 Z-0.174
N1250 X1.6719 Y1.9018 Z-0.176
N1260 X1.6575 Y1.914 Z-0.178
N1270 X1.6399 Y1.9211 Z-0.18
N1280 X1.621 Y1.9222 Z-0.182
N1290 X1.6026 Y1.9174 Z-0.184
N1300 X1.5868 Y1.907 Z-0.186
N1310 X1.575 Y1.8921 Z-0.188
N1320 X1.5685 Y1.8743 Z-0.19
N1330 X1.568 Y1.8554 Z-0.192
N1340 X1.5734 Y1.8372 Z-0.194
N1350 X1.5843 Y1.8217 Z-0.196
N1360 X1.5995 Y1.8104 Z-0.198
N1370 X1.6175 Y1.8045 Z-0.2
N1380 X1.6365 Z-0.202
N1390 X1.6544 Y1.8106 Z-0.204
N1400 X1.6696 Y1.8219 Z-0.206
N1410 X1.6804 Y1.8375 Z-0.208
N1420 X1.6858 Y1.8557 Z-0.21
N1430 X1.6851 Y1.8746 Z-0.212
N1440 X1.6785 Y1.8924 Z-0.214
N1450 X1.6667 Y1.9072 Z-0.216
N1460 X1.6508 Y1.9175 Z-0.218
N1470 X1.6325 Y1.9222 Z-0.22
N1480 X1.6136 Y1.921 Z-0.222
N1490 X1.596 Y1.9139 Z-0.224
N1500 X1.5816 Y1.9016 Z-0.226
N1510 X1.5718 Y1.8854 Z-0.228
N1520 X1.5676 Y1.8669 Z-0.23
N1530 X1.5694 Y1.848 Z-0.232
N1540 X1.5771 Y1.8307 Z-0.234
N1550 X1.5899 Y1.8167 Z-0.236
N1560 X1.6064 Y1.8074 Z-0.238
N1570 X1.625 Y1.8038 Z-0.24
N1580 X1.6438 Y1.8062 Z-0.242
N1590 X1.6608 Y1.8144 Z-0.244
N1600 X1.6744 Y1.8276 Z-0.246
N1610 X1.6832 Y1.8444 Z-0.248
N1620 X1.6862 Y1.8631 Z-0.25
N1630 G03 X1.6847 Y1.8767 I-0.0594 J0. F2.0
N1640 X1.68 Y1.8895 I-0.0578 J-0.0136
N1650 X1.6726 Y1.901 I-0.0532 J-0.0264
N1660 X1.6627 Y1.9104 I-0.0457 J-0.0379
N1670 X1.651 Y1.9174 I-0.0359 J-0.0473
N1680 X1.6392 Y1.9212 I-0.0241 J-0.0542
N1690 X1.6269 Y1.9225 I-0.0123 J-0.0581
N1700 X1.6133 Y1.9209 I0. J-0.0594
N1710 X1.6004 Y1.9163 I0.0136 J-0.0578
N1720 X1.589 Y1.9089 I0.0264 J-0.0532
N1730 X1.5796 Y1.899 I0.0379 J-0.0457
N1740 X1.5726 Y1.8873 I0.0473 J-0.0359
N1750 X1.5688 Y1.8755 I0.0542 J-0.0241
N1760 X1.5675 Y1.8631 I0.0581 J-0.0123
N1770 X1.569 Y1.8496 I0.0594 J0.
N1780 X1.5737 Y1.8367 I0.0578 J0.0136
N1790 X1.5745 Y1.8352 I0.0532 J0.0264
N1800 X1.5752 Y1.8339 I0.0524 J0.0279
N1810 X1.5811 Y1.8253 I0.0517 J0.0292
N1820 X1.591 Y1.8158 I0.0457 J0.0379
N1830 X1.6027 Y1.8089 I0.0359 J0.0473
N1840 X1.6145 Y1.8051 I0.0241 J0.0542
N1850 X1.6269 Y1.8038 I0.0123 J0.0581
N1860 X1.6404 Y1.8053 I0. J0.0594
N1870 X1.6533 Y1.81 I-0.0136 J0.0578
N1880 X1.6647 Y1.8174 I-0.0264 J0.0532
N1890 X1.6742 Y1.8273 I-0.0379 J0.0457
N1900 X1.6811 Y1.839 I-0.0473 J0.0359
N1910 X1.6849 Y1.8508 I-0.0542 J0.0241
N1920 X1.6859 Y1.8569 I-0.0581 J0.0123
N1930 X1.6861 Y1.86 I-0.0591 J0.0062
N1940 X1.6862 Y1.8616 I-0.0593 J0.0031
N1950 X1.6862 Y1.8631 I-0.0594 J0.0016
N1960 G02 X1.6861 Y1.8674 I0.0624 J0.0042
N1970 X1.6881 Y1.8832 I0.0625 J0.
N1980 X1.7028 Y1.9166 I0.1024 J-0.0252
N1990 G01 X1.7051 Y1.9367
N2000 G03 X1.6884 Y1.973 I-0.0643 J-0.0076
N2010 X1.615 Y2.0034 I-0.0733 J-0.0732
N2020 X1.5954 Y2.0016 I0. J-0.1036
N2030 X1.4815 Y1.8623 I0.0282 J-0.1393
N2040 X1.5081 Y1.7795 I0.1421 J0.
N2050 X1.6269 Y1.7179 I0.1187 J0.0836
N2060 X1.7658 Y1.8207 I0. J0.1452
N2070 G02 X1.7802 Y1.8586 I1.0069 J-0.362
N2080 G03 X1.7906 Y1.8977 I-0.2658 J0.0913
N2090 X1.7924 Y1.9227 I-0.1651 J0.025
N2100 X1.6494 Y2.0879 I-0.1669 J0.
N2110 X1.6153 Y2.0906 I-0.0341 J-0.2181
N2120 X1.408 Y1.9457 I0. J-0.2208
N2130 X1.3929 Y1.8631 I0.2194 J-0.0826
N2140 X1.6274 Y1.6286 I0.2345 J0.
N2150 X1.8441 Y1.7736 I0. J0.2345
N2160 X1.8826 Y1.9268 I-0.2859 J0.1532
N2170 X1.8826 Y1.9294 I-0.3243 J0.
N2180 X1.6372 Y2.1802 I-0.2611 J-0.01
N2190 X1.6165 Y2.1808 I-0.0207 J-0.3131
N2200 X1.3064 Y1.9149 I0. J-0.3137
N2210 X1.3023 Y1.8635 I0.3213 J-0.0514
N2220 X1.6277 Y1.5381 I0.3253 J0.
N2230 X1.9225 Y1.7259 I0. J0.3253
N2240 X1.9699 Y1.8702 I-0.3823 J0.2054
N2250 X1.9705 Y1.8789 I-0.0619 J0.0087
N2260 X1.9715 Y1.9122 I-0.5557 J0.0333
N2270 X1.9674 Y1.9796 I-0.5567 J0.
N2280 X1.7272 Y2.2545 I-0.3415 J-0.0561
N2290 X1.6119 Y2.2717 I-0.1153 J-0.3778
N2300 X1.3068 Y2.1276 I0. J-0.395
N2310 X1.2909 Y2.1062 I0.1198 J-0.1053
N2320 X1.2832 Y2.0761 I0.0548 J-0.0301
N2330 G01 Y1.711
N2340 X1.2836 Y1.7071
N2350 X1.2843 Y1.7054
N2360 X1.2852 Y1.7044
N2370 X1.2935 Y1.6958
N2380 X1.4914 Y1.4979
N2390 X1.494 Y1.4958
N2400 X1.4957 Y1.4952
N2410 X1.4978 Y1.495
N2420 G03 X1.6422 Y1.4943 I0.1443 J14.4198
N2430 X1.7713 Y1.4949 I0. J14.4205
N2440 X1.7754 Y1.4948 I0.0042 J0.1193
N2450 X1.8113 Y1.5003 I0. J0.1194
N2460 X1.9285 Y1.5773 I-0.0968 J0.2752
N2470 X1.958 Y1.6116 I-0.2155 J0.2151
N2480 X1.9705 Y1.6491 I-0.05 J0.0375
N2490 G01 Y1.8789
N2500 G03 X1.9666 Y1.9008 I-0.0787 J-0.0027
N2510 G02 X1.9661 Y1.9046 I0.0136 J0.0038
N2520 X1.9666 Y1.9084 I0.0142 J0.
N2530 G03 X1.9705 Y1.9392 I-0.1651 J0.0367
N2540 G01 Y2.137
N2550 G03 X1.9706 Y2.1424 I-0.096 J0.0053
N2560 X1.9643 Y2.1768 I-0.0962 J0.
N2570 X1.905 Y2.2577 I-0.2023 J-0.0862
N2580 X1.6148 Y2.364 I-0.2901 J-0.3427
N2590 X1.5862 Y2.3631 I0. J-0.449
N2600 X1.3074 Y2.2558 I0.0276 J-0.4879
N2610 G01 X1.3056 Y2.2544
N2620 G03 X1.2832 Y2.2064 I0.0401 J-0.048
N2630 G01 Y2.0761
N2640 G03 X1.3619 Y2.0001 I0.0787 J0.0027
N2650 X1.3709 Y2.0006 I0. J0.0787
N2660 G01 X1.9008 Y2.0616
N2670 G03 X1.9705 Y2.137 I-0.009 J0.0782
N2680 G01 Y2.2588
N2690 G03 X1.9706 Y2.263 I-0.0981 J0.0042
N2700 X1.9547 Y2.3165 I-0.0982 J0.
N2710 X1.8808 Y2.3844 I-0.1915 J-0.1341
N2720 X1.6114 Y2.4561 I-0.2695 J-0.4707
N2730 X1.5095 Y2.4464 I0. J-0.5424
N2740 X1.4207 Y2.4228 I0.098 J-0.5454
N2750 X1.3973 Y2.408 I0.0208 J-0.0589
N2760 X1.2852 Y2.2958 I9.3666 J-9.4702
N2770 G01 X1.2838 Y2.294
N2780 X1.2834 Y2.2927
N2790 X1.2832 Y2.2892
N2800 Y2.2131
N2810 G03 X1.3619 Y2.1371 I0.0787 J0.0027
N2820 X1.3687 Y2.1374 I0. J0.0787
N2830 G01 X1.8986 Y2.1831
N2840 G03 X1.9705 Y2.2588 I-0.0068 J0.0784
N2850 G01 Y2.3805
N2860 X1.9695 Y2.3997
N2870 G03 X1.9349 Y2.4489 I-0.124 J-0.0505
N2880 X1.8454 Y2.5026 I-0.1939 J-0.2218
N2890 X1.8278 Y2.5051 I-0.0177 J-0.06
N2900 G01 X1.513
N2910 X1.4978 Y2.505
N2920 X1.4954 Y2.5047
N2930 X1.4938 Y2.504
N2940 X1.4918 Y2.5022
N2950 G03 X1.3973 Y2.408 I3.94 J-4.0433
N2960 X1.3761 Y2.3543 I0.0576 J-0.0537
N2970 X1.4549 Y2.2756 I0.0787 J0.
N2980 X1.4601 Y2.2757 I0. J0.0787
N2990 G01 X1.897 Y2.3047
N3000 G03 X1.9705 Y2.3805 I-0.0052 J0.0786
N3010 G01 Y2.4946
N3020 G03 X1.9705 Y2.495 I-0.0513 J0.0004
N3030 X1.9701 Y2.5018 I-0.0513 J0.
N3040 G01 X1.9695 Y2.5032
N3050 X1.9683 Y2.5043
N3060 X1.9664 Y2.505
N3070 X1.9612 Y2.5051
N3080 X1.8278
N3090 G03 X1.7519 Y2.4317 I0.0027 J-0.0787
N3100 G01 X1.6955 Y1.5787
N3110 G03 X1.6953 Y1.5735 I0.0786 J-0.0052
N3120 X1.7713 Y1.4949 I0.0787 J0.
N3130 G01 X1.9232
N3140 X1.9434 Y1.4959
N3150 G03 X1.9705 Y1.535 I-0.0148 J0.0392
N3160 G01 Y1.6491
N3170 G03 X1.8918 Y1.7251 I-0.0787 J-0.0027
N3180 X1.8131 Y1.6463 I0. J-0.0787
N3190 X1.8205 Y1.6129 I0.0787 J0.
N3200 G01 X1.8546 Y1.5401
N3210 G03 X1.9232 Y1.4949 I0.0713 J0.0334
N3220 G01 X1.9612
N3230 G03 X1.9669 Y1.4952 I-0.0008 J0.053
N3240 G01 X1.9688 Y1.4961
N3250 X1.9701 Y1.4979
N3260 G03 X1.9707 Y1.517 I-0.3007 J0.019
N3270 X1.9705 Y1.5284 I-0.3013 J0.
N3280 X1.9562 Y1.5662 I-0.063 J-0.0022
N3290 G01 X1.9407 Y1.585 Z-0.2461
N3300 X1.9267 Y1.6019 Z-0.235
N3310 X1.9156 Y1.6154 Z-0.2175
N3320 X1.9085 Y1.624 Z-0.1956
N3330 X1.9061 Y1.627 Z-0.1713
N3340 G00 Z0.2
N3350 X1.6079 Y1.6599
N3360 Z0.05
N3370 G01 Z-0.25 F1.0
N3380 X1.4934 Y1.4959 F2.0
N3390 G03 X1.4962 Y1.4949 I0.0027 J0.0031
N3400 G02 X1.4968 Y1.4949 I0.0006 J-0.0625
N3410 G01 X1.9663
N3420 G03 X1.9707 Y1.4994 I-0.0001 J0.0045
N3430 X1.9707 Y1.4998 I-0.0045 J0.
N3440 G02 X1.9705 Y1.5049 I0.0623 J0.0051
N3450 G01 Y2.4999
N3460 G02 X1.9705 Y2.5008 I0.0625 J0.
N3470 G03 X1.9661 Y2.5053 I-0.0045 J0.0001
N3480 X1.9657 Y2.5053 I0. J-0.0045
N3490 G02 X1.9612 Y2.5051 I-0.0046 J0.0623
N3500 G01 X1.4976
N3510 G02 X1.4963 Y2.5052 I0. J0.0625
N3520 G03 X1.4931 Y2.5038 I-0.0001 J-0.0043
N3530 G02 X1.492 Y2.5027 I-0.0452 J0.0431
N3540 G01 X1.2889 Y2.2996
N3550 G02 X1.286 Y2.2969 I-0.0442 J0.0442
N3560 G03 X1.2837 Y2.2942 I0.0082 J-0.0093
N3570 X1.2832 Y2.2922 I0.0036 J-0.002
N3580 G01 Y1.7078
N3590 G03 X1.2843 Y1.705 I0.0041 J0.
N3600 G01 X1.4501 Y1.5392
N3610 G03 X1.4934 Y1.4959 I16.233 J16.194
N3620 G01 X1.6571 Y1.6108
N3630 G00 Z0.2
N3640 M05 M09
N3650 (END TOOL)
N3660 M05 M09
N3670 M30
%
