%
O0000
N10 (PART - )
N20 (FILE - F:\BORGCUBEBACKUP\CNC TOOLS\RHINODRAWINGS\TOOLS\CNCMACHINES\IHENC)
N30 (AUTHOR - BOB WARFIELD)
N40 (GROUP - TOOLPATH GROUP #1)
N50 (POSTED - THURSDAY, APRIL 01, 2010 15:43)
N60 (CREATED - WEDNESDAY, MARCH 31, 2010 15:32)
N70 (SYSTEM- ONECNC-XR3 MILL 3D ADVANTAGE - VERSION 11.30)
N80 (NOTES - NONE)
N90 G49
N100 G17 G40
N110 G49
N120 G17 G40
N130 G20
N140 G80
N150 G90
N160 G98
N170 (0.5INCH DRILL, 90 INC)
N180 T0 M06
N190 S1600
N200 M08
N210 G43 H0 D0
N220 G00 X0.375 Y0.375 Z0.2
N230 Z0.05
N240 G01 Z-0.1 F8.0 S1600
N250 G00 Z0.05
N260 Z0.2
N270 Y3.625
N280 Z0.05
N290 G01 Z-0.1
N300 G00 Z0.05
N310 Z0.2
N320 X10.625
N330 Z0.05
N340 G01 Z-0.1
N350 G00 Z0.05
N360 Z0.2
N370 Y0.375
N380 Z0.05
N390 G01 Z-0.1
N400 G00 Z0.05
N410 Z0.2
N420 X3.9533 Y1.5
N430 Z0.05
N440 G01 Z-0.1
N450 G00 Z0.05
N460 Z0.2
N470 Y2.5
N480 Z0.05
N490 G01 Z-0.1
N500 G00 Z0.05
N510 Z0.2
N520 X5.75 Y2.
N530 Z0.05
N540 G01 Z-0.1
N550 G00 Z0.05
N560 Z0.2
N570 X8. Y1.5
N580 Z0.05
N590 G01 Z-0.1
N600 G00 Z0.05
N610 Z0.2
N620 Y2.5
N630 Z0.05
N640 G01 Z-0.1
N650 G00 Z0.05
N660 Z0.2
N670 X9.
N680 Z0.05
N690 G01 Z-0.1
N700 G00 Z0.05
N710 Z0.2
N720 Y1.5
N730 Z0.05
N740 G01 Z-0.1
N750 G00 Z0.05
N760 G00 Z0.2
N770 (END TOOL)
N780 M5
N790 M09
N800 M25
N810 M30
%
