%
O0000
N10 (MACH3 MILL - )
N20 (AUTHOR - {SCOTT SHAFER})
N30 (GROUP - TOOLPATH GROUP #1)
N40 (SYSTEM- ONECNC-XR3 MILL 3D ADVANTAGE - VERSION 11.30)
N50 (NOTES - NONE)
N60 G0 G40 G49 G50 G80 G94
N70 (0.5INCH END MILL ) ( )
N80 T0 M06 G43 H0
N90 S1600.0 F50.0 M3 M07
N100 G4 P3
N110 G00 X-0.0401 Y2.025 Z0.2
N120 Z0.05
N130 G01 Z-0.4 F10.0
N140 Y1.825 F50.0
N150 G03 X0.1599 Y1.625 I0.2 J0.
N160 G01 X4.
N170 G02 X5.625 Y0. I0. J-1.625
N180 G01 Y-1.9962
N190 G02 X5.625 Y-1.9999 I-2.0036 J-0.0037
N200 X3.6214 Y-4.0035 I-2.0036 J0.
N210 X2.0003 Y-3.1774 I0. J2.0036
N220 X0.379 Y-4.0035 I-1.6213 J1.1779
N230 X-1.625 Y-2.0023 I0. J2.004
N240 X-1.625 Y-2. I1.625 J0.0023
N250 G01 Y0.
N260 G02 X0. Y1.625 I1.625 J0.
N270 G01 X0.1599
N280 X0.1947 Y1.822
N290 G00 Z0.2
N300 X-0.0401 Y2.025
N310 Z-0.35
N320 G01 Z-0.8 F10.0
N330 Y1.825 F50.0
N340 G03 X0.1599 Y1.625 I0.2 J0.
N350 G01 X4.
N360 G02 X5.625 Y0. I0. J-1.625
N370 G01 Y-1.9962
N380 G02 X5.625 Y-1.9999 I-2.0036 J-0.0037
N390 X3.6214 Y-4.0035 I-2.0036 J0.
N400 X2.0003 Y-3.1774 I0. J2.0036
N410 X0.379 Y-4.0035 I-1.6213 J1.1779
N420 X-1.625 Y-2.0023 I0. J2.004
N430 X-1.625 Y-2. I1.625 J0.0023
N440 G01 Y0.
N450 G02 X0. Y1.625 I1.625 J0.
N460 G01 X0.1599
N470 X0.1947 Y1.822
N480 G00 Z0.2
N490 X-0.0401 Y1.9
N500 Z0.05
N510 G01 Z-0.4 F10.0
N520 Y1.7 F50.0
N530 G03 X0.1599 Y1.5 I0.2 J0.
N540 G01 X4.
N550 G02 X5.5 Y0. I0. J-1.5
N560 G01 Y-1.9963
N570 G02 X5.5 Y-1.9999 I-1.8786 J-0.0036
N580 X3.6214 Y-3.8785 I-1.8786 J0.
N590 X2.0311 Y-3. I0. J1.8786
N600 G01 X1.9695
N610 G02 X0.379 Y-3.8785 I-1.5905 J1.0005
N620 X-1.5 Y-2.0021 I0. J1.879
N630 X-1.5 Y-2. I1.5 J0.0021
N640 G01 Y0.
N650 G02 X0. Y1.5 I1.5 J0.
N660 G01 X0.1599
N670 X0.1947 Y1.697
N680 G00 Z0.2
N690 X-0.0401 Y1.9
N700 Z-0.35
N710 G01 Z-0.8 F10.0
N720 Y1.7 F50.0
N730 G03 X0.1599 Y1.5 I0.2 J0.
N740 G01 X4.
N750 G02 X5.5 Y0. I0. J-1.5
N760 G01 Y-1.9963
N770 G02 X5.5 Y-1.9999 I-1.8786 J-0.0036
N780 X3.6214 Y-3.8785 I-1.8786 J0.
N790 X2.0311 Y-3. I0. J1.8786
N800 G01 X1.9695
N810 G02 X0.379 Y-3.8785 I-1.5905 J1.0005
N820 X-1.5 Y-2.0021 I0. J1.879
N830 X-1.5 Y-2. I1.5 J0.0021
N840 G01 Y0.
N850 G02 X0. Y1.5 I1.5 J0.
N860 G01 X0.1599
N870 X0.1947 Y1.697
N880 G00 Z0.2
N890 X-0.0401 Y1.775
N900 Z0.05
N910 G01 Z-0.4 F10.0
N920 Y1.575 F50.0
N930 G03 X0.1599 Y1.375 I0.2 J0.
N940 G01 X4.
N950 G02 X5.375 Y0. I0. J-1.375
N960 G01 Y-1.9965
N970 G02 X5.375 Y-1.9999 I-1.7536 J-0.0034
N980 X3.6214 Y-3.7535 I-1.7536 J0.
N990 X2.1018 Y-2.875 I0. J1.7536
N1000 G01 X1.8989
N1010 G02 X0.379 Y-3.7535 I-1.5199 J0.8755
N1020 X-1.375 Y-2.0019 I0. J1.754
N1030 X-1.375 Y-2. I1.375 J0.0019
N1040 G01 Y0.
N1050 G02 X0. Y1.375 I1.375 J0.
N1060 G01 X0.1599
N1070 X0.1947 Y1.572
N1080 G00 Z0.2
N1090 X-0.0401 Y1.775
N1100 Z-0.35
N1110 G01 Z-0.8 F10.0
N1120 Y1.575 F50.0
N1130 G03 X0.1599 Y1.375 I0.2 J0.
N1140 G01 X4.
N1150 G02 X5.375 Y0. I0. J-1.375
N1160 G01 Y-1.9965
N1170 G02 X5.375 Y-1.9999 I-1.7536 J-0.0034
N1180 X3.6214 Y-3.7535 I-1.7536 J0.
N1190 X2.1018 Y-2.875 I0. J1.7536
N1200 G01 X1.8989
N1210 G02 X0.379 Y-3.7535 I-1.5199 J0.8755
N1220 X-1.375 Y-2.0019 I0. J1.754
N1230 X-1.375 Y-2. I1.375 J0.0019
N1240 G01 Y0.
N1250 G02 X0. Y1.375 I1.375 J0.
N1260 G01 X0.1599
N1270 X0.1947 Y1.572
N1280 G00 Z0.2
N1290 X-0.0401 Y1.65
N1300 Z0.05
N1310 G01 Z-0.4 F10.0
N1320 Y1.45 F50.0
N1330 G03 X0.1599 Y1.25 I0.2 J0.
N1340 G01 X4.
N1350 G02 X5.25 Y0. I0. J-1.25
N1360 G01 Y-1.9966
N1370 G02 X5.25 Y-1.9999 I-1.6286 J-0.0033
N1380 X3.6214 Y-3.6285 I-1.6286 J0.
N1390 X2.1758 Y-2.75 I0. J1.6286
N1400 G01 X1.8248
N1410 G02 X0.379 Y-3.6285 I-1.4458 J0.7505
N1420 X-1.25 Y-2.0018 I0. J1.629
N1430 X-1.25 Y-2. I1.25 J0.0018
N1440 G01 Y0.
N1450 G02 X0. Y1.25 I1.25 J0.
N1460 G01 X0.1599
N1470 X0.1947 Y1.447
N1480 G00 Z0.2
N1490 X-0.0401 Y1.65
N1500 Z-0.35
N1510 G01 Z-0.8 F10.0
N1520 Y1.45 F50.0
N1530 G03 X0.1599 Y1.25 I0.2 J0.
N1540 G01 X4.
N1550 G02 X5.25 Y0. I0. J-1.25
N1560 G01 Y-1.9966
N1570 G02 X5.25 Y-1.9999 I-1.6286 J-0.0033
N1580 X3.6214 Y-3.6285 I-1.6286 J0.
N1590 X2.1758 Y-2.75 I0. J1.6286
N1600 G01 X1.8248
N1610 G02 X0.379 Y-3.6285 I-1.4458 J0.7505
N1620 X-1.25 Y-2.0018 I0. J1.629
N1630 X-1.25 Y-2. I1.25 J0.0018
N1640 G01 Y0.
N1650 G02 X0. Y1.25 I1.25 J0.
N1660 G01 X0.1599
N1670 X0.1947 Y1.447
N1680 G00 Z0.2
N1690 X-0.0401 Y1.525
N1700 Z0.05
N1710 G01 Z-0.4 F10.0
N1720 Y1.325 F50.0
N1730 G03 X0.1599 Y1.125 I0.2 J0.
N1740 G01 X4.
N1750 G02 X5.125 Y0. I0. J-1.125
N1760 G01 Y-1.9967
N1770 G02 X5.125 Y-1.9999 I-1.5036 J-0.0032
N1780 X3.6214 Y-3.5035 I-1.5036 J0.
N1790 X2.2539 Y-2.625 I0. J1.5036
N1800 G01 X1.7468
N1810 G02 X0.379 Y-3.5035 I-1.3678 J0.6255
N1820 X-1.125 Y-2.0016 I0. J1.504
N1830 X-1.125 Y-2. I1.125 J0.0016
N1840 G01 Y0.
N1850 G02 X0. Y1.125 I1.125 J0.
N1860 G01 X0.1599
N1870 X0.1947 Y1.322
N1880 G00 Z0.2
N1890 X-0.0401 Y1.525
N1900 Z-0.35
N1910 G01 Z-0.8 F10.0
N1920 Y1.325 F50.0
N1930 G03 X0.1599 Y1.125 I0.2 J0.
N1940 G01 X4.
N1950 G02 X5.125 Y0. I0. J-1.125
N1960 G01 Y-1.9967
N1970 G02 X5.125 Y-1.9999 I-1.5036 J-0.0032
N1980 X3.6214 Y-3.5035 I-1.5036 J0.
N1990 X2.2539 Y-2.625 I0. J1.5036
N2000 G01 X1.7468
N2010 G02 X0.379 Y-3.5035 I-1.3678 J0.6255
N2020 X-1.125 Y-2.0016 I0. J1.504
N2030 X-1.125 Y-2. I1.125 J0.0016
N2040 G01 Y0.
N2050 G02 X0. Y1.125 I1.125 J0.
N2060 G01 X0.1599
N2070 X0.1947 Y1.322
N2080 G00 Z0.2
N2090 X-0.0401 Y1.4
N2100 Z0.05
N2110 G01 Z-0.4 F10.0
N2120 Y1.2 F50.0
N2130 G03 X0.1599 Y1. I0.2 J0.
N2140 G01 X4.
N2150 G02 X5. Y0. I0. J-1.
N2160 G01 Y-1.9968
N2170 G02 X5. Y-1.9999 I-1.3786 J-0.0031
N2180 X3.6214 Y-3.3785 I-1.3786 J0.
N2190 X2.3367 Y-2.5 I0. J1.3786
N2200 G01 X1.664
N2210 G02 X0.379 Y-3.3785 I-1.285 J0.5005
N2220 X-1. Y-2.0014 I0. J1.379
N2230 X-1. Y-2. I1. J0.0014
N2240 G01 Y0.
N2250 G02 X0. Y1. I1. J0.
N2260 G01 X0.1599
N2270 X0.1947 Y1.197
N2280 G00 Z0.2
N2290 X-0.0401 Y1.4
N2300 Z-0.35
N2310 G01 Z-0.8 F10.0
N2320 Y1.2 F50.0
N2330 G03 X0.1599 Y1. I0.2 J0.
N2340 G01 X4.
N2350 G02 X5. Y0. I0. J-1.
N2360 G01 Y-1.9968
N2370 G02 X5. Y-1.9999 I-1.3786 J-0.0031
N2380 X3.6214 Y-3.3785 I-1.3786 J0.
N2390 X2.3367 Y-2.5 I0. J1.3786
N2400 G01 X1.664
N2410 G02 X0.379 Y-3.3785 I-1.285 J0.5005
N2420 X-1. Y-2.0014 I0. J1.379
N2430 X-1. Y-2. I1. J0.0014
N2440 G01 Y0.
N2450 G02 X0. Y1. I1. J0.
N2460 G01 X0.1599
N2470 X0.1947 Y1.197
N2480 G00 Z0.2
N2490 X-0.0401 Y1.275
N2500 Z0.05
N2510 G01 Z-0.4 F10.0
N2520 Y1.075 F50.0
N2530 G03 X0.1599 Y0.875 I0.2 J0.
N2540 G01 X4.
N2550 G02 X4.875 Y0. I0. J-0.875
N2560 G01 Y-1.997
N2570 G02 X4.875 Y-1.9999 I-1.2536 J-0.0029
N2580 X3.6214 Y-3.2535 I-1.2536 J0.
N2590 X2.4252 Y-2.375 I0. J1.2536
N2600 G01 X1.5755
N2610 G02 X0.379 Y-3.2535 I-1.1965 J0.3755
N2620 X-0.875 Y-2.0012 I0. J1.254
N2630 X-0.875 Y-2. I0.875 J0.0012
N2640 G01 Y0.
N2650 G02 X0. Y0.875 I0.875 J0.
N2660 G01 X0.1599
N2670 X0.1947 Y1.072
N2680 G00 Z0.2
N2690 X-0.0401 Y1.275
N2700 Z-0.35
N2710 G01 Z-0.8 F10.0
N2720 Y1.075 F50.0
N2730 G03 X0.1599 Y0.875 I0.2 J0.
N2740 G01 X4.
N2750 G02 X4.875 Y0. I0. J-0.875
N2760 G01 Y-1.997
N2770 G02 X4.875 Y-1.9999 I-1.2536 J-0.0029
N2780 X3.6214 Y-3.2535 I-1.2536 J0.
N2790 X2.4252 Y-2.375 I0. J1.2536
N2800 G01 X1.5755
N2810 G02 X0.379 Y-3.2535 I-1.1965 J0.3755
N2820 X-0.875 Y-2.0012 I0. J1.254
N2830 X-0.875 Y-2. I0.875 J0.0012
N2840 G01 Y0.
N2850 G02 X0. Y0.875 I0.875 J0.
N2860 G01 X0.1599
N2870 X0.1947 Y1.072
N2880 G00 Z0.2
N2890 X-0.0401 Y1.15
N2900 Z0.05
N2910 G01 Z-0.4 F10.0
N2920 Y0.95 F50.0
N2930 G03 X0.1599 Y0.75 I0.2 J0.
N2940 G01 X4.
N2950 G02 X4.75 Y0. I0. J-0.75
N2960 G01 Y-1.9971
N2970 G02 X4.75 Y-1.9999 I-1.1286 J-0.0028
N2980 X3.6214 Y-3.1285 I-1.1286 J0.
N2990 X2.5209 Y-2.25 I0. J1.1286
N3000 G01 X1.4799
N3010 G02 X0.379 Y-3.1285 I-1.1009 J0.2505
N3020 X-0.75 Y-2.0011 I0. J1.129
N3030 X-0.75 Y-2. I0.75 J0.0011
N3040 G01 Y0.
N3050 G02 X0. Y0.75 I0.75 J0.
N3060 G01 X0.1599
N3070 X0.1947 Y0.947
N3080 G00 Z0.2
N3090 X-0.0401 Y1.15
N3100 Z-0.35
N3110 G01 Z-0.8 F10.0
N3120 Y0.95 F50.0
N3130 G03 X0.1599 Y0.75 I0.2 J0.
N3140 G01 X4.
N3150 G02 X4.75 Y0. I0. J-0.75
N3160 G01 Y-1.9971
N3170 G02 X4.75 Y-1.9999 I-1.1286 J-0.0028
N3180 X3.6214 Y-3.1285 I-1.1286 J0.
N3190 X2.5209 Y-2.25 I0. J1.1286
N3200 G01 X1.4799
N3210 G02 X0.379 Y-3.1285 I-1.1009 J0.2505
N3220 X-0.75 Y-2.0011 I0. J1.129
N3230 X-0.75 Y-2. I0.75 J0.0011
N3240 G01 Y0.
N3250 G02 X0. Y0.75 I0.75 J0.
N3260 G01 X0.1599
N3270 X0.1947 Y0.947
N3280 G00 Z0.2
N3290 X-0.0401 Y1.025
N3300 Z0.05
N3310 G01 Z-0.4 F10.0
N3320 Y0.825 F50.0
N3330 G03 X0.1599 Y0.625 I0.2 J0.
N3340 G01 X4.
N3350 G02 X4.625 Y0. I0. J-0.625
N3360 G01 Y-1.9973
N3370 G02 X4.625 Y-1.9999 I-1.0036 J-0.0026
N3380 X3.6214 Y-3.0035 I-1.0036 J0.
N3390 X2.6256 Y-2.125 I0. J1.0036
N3400 G01 X1.3752
N3410 G02 X0.379 Y-3.0035 I-0.9961 J0.1255
N3420 X-0.625 Y-2.0009 I0. J1.004
N3430 X-0.625 Y-2. I0.625 J0.0009
N3440 G01 Y0.
N3450 G02 X0. Y0.625 I0.625 J0.
N3460 G01 X0.1599
N3470 X0.1947 Y0.822
N3480 G00 Z0.2
N3490 X-0.0401 Y1.025
N3500 Z-0.35
N3510 G01 Z-0.8 F10.0
N3520 Y0.825 F50.0
N3530 G03 X0.1599 Y0.625 I0.2 J0.
N3540 G01 X4.
N3550 G02 X4.625 Y0. I0. J-0.625
N3560 G01 Y-1.9973
N3570 G02 X4.625 Y-1.9999 I-1.0036 J-0.0026
N3580 X3.6214 Y-3.0035 I-1.0036 J0.
N3590 X2.6256 Y-2.125 I0. J1.0036
N3600 G01 X1.3752
N3610 G02 X0.379 Y-3.0035 I-0.9961 J0.1255
N3620 X-0.625 Y-2.0009 I0. J1.004
N3630 X-0.625 Y-2. I0.625 J0.0009
N3640 G01 Y0.
N3650 G02 X0. Y0.625 I0.625 J0.
N3660 G01 X0.1599
N3670 X0.1947 Y0.822
N3680 G00 Z0.2
N3690 X-0.0401 Y0.9
N3700 Z0.05
N3710 G01 Z-0.4 F10.0
N3720 Y0.7 F50.0
N3730 G03 X0.1599 Y0.5 I0.2 J0.
N3740 G01 X4.
N3750 G02 X4.5 Y0. I0. J-0.5
N3760 G01 Y-1.9975
N3770 G02 X4.5 Y-1.9999 I-0.8786 J-0.0024
N3780 X3.6214 Y-2.8785 I-0.8786 J0.
N3790 X2.7428 Y-2. I0. J0.8786
N3800 G01 X1.258
N3810 G02 X0.379 Y-2.8785 I-0.879 J0.0005
N3820 X-0.5 Y-2.0007 I0. J0.879
N3830 X-0.5 Y-2. I0.5 J0.0007
N3840 G01 Y0.
N3850 G02 X0. Y0.5 I0.5 J0.
N3860 G01 X0.1599
N3870 X0.1947 Y0.697
N3880 G00 Z0.2
N3890 X-0.0401 Y0.9
N3900 Z-0.35
N3910 G01 Z-0.8 F10.0
N3920 Y0.7 F50.0
N3930 G03 X0.1599 Y0.5 I0.2 J0.
N3940 G01 X4.
N3950 G02 X4.5 Y0. I0. J-0.5
N3960 G01 Y-1.9975
N3970 G02 X4.5 Y-1.9999 I-0.8786 J-0.0024
N3980 X3.6214 Y-2.8785 I-0.8786 J0.
N3990 X2.7428 Y-2. I0. J0.8786
N4000 G01 X1.258
N4010 G02 X0.379 Y-2.8785 I-0.879 J0.0005
N4020 X-0.5 Y-2.0007 I0. J0.879
N4030 X-0.5 Y-2. I0.5 J0.0007
N4040 G01 Y0.
N4050 G02 X0. Y0.5 I0.5 J0.
N4060 G01 X0.1599
N4070 X0.1947 Y0.697
N4080 G00 Z0.2
N4090 X-0.0401 Y0.775
N4100 Z0.05
N4110 G01 Z-0.4 F10.0
N4120 Y0.575 F50.0
N4130 G03 X0.1599 Y0.375 I0.2 J0.
N4140 G01 X4.
N4150 G02 X4.375 Y0. I0. J-0.375
N4160 G01 Y-1.9976
N4170 G02 X4.375 Y-1.9999 I-0.7536 J-0.0023
N4180 X3.6214 Y-2.7535 I-0.7536 J0.
N4190 X2.8678 Y-1.9999 I0. J0.7536
N4200 X2.868 Y-1.9832 I0.7536 J0.
N4210 G01 Y-1.875
N4220 X1.132
N4230 Y-1.9599
N4240 G02 X1.133 Y-1.9995 I-0.753 J-0.0396
N4250 X0.379 Y-2.7535 I-0.754 J0.
N4260 X-0.375 Y-2.0005 I0. J0.754
N4270 X-0.375 Y-2. I0.375 J0.0005
N4280 G01 Y0.
N4290 G02 X0. Y0.375 I0.375 J0.
N4300 G01 X0.1599
N4310 X0.1947 Y0.572
N4320 G00 Z0.2
N4330 X-0.0401 Y0.775
N4340 Z-0.35
N4350 G01 Z-0.8 F10.0
N4360 Y0.575 F50.0
N4370 G03 X0.1599 Y0.375 I0.2 J0.
N4380 G01 X4.
N4390 G02 X4.375 Y0. I0. J-0.375
N4400 G01 Y-1.9976
N4410 G02 X4.375 Y-1.9999 I-0.7536 J-0.0023
N4420 X3.6214 Y-2.7535 I-0.7536 J0.
N4430 X2.8678 Y-1.9999 I0. J0.7536
N4440 X2.868 Y-1.9832 I0.7536 J0.
N4450 G01 Y-1.875
N4460 X1.132
N4470 Y-1.9599
N4480 G02 X1.133 Y-1.9995 I-0.753 J-0.0396
N4490 X0.379 Y-2.7535 I-0.754 J0.
N4500 X-0.375 Y-2.0005 I0. J0.754
N4510 X-0.375 Y-2. I0.375 J0.0005
N4520 G01 Y0.
N4530 G02 X0. Y0.375 I0.375 J0.
N4540 G01 X0.1599
N4550 X0.1947 Y0.572
N4560 G00 Z0.2
N4570 X-0.0401 Y0.65
N4580 Z0.05
N4590 G01 Z-0.4 F10.0
N4600 Y0.45 F50.0
N4610 G03 X0.1599 Y0.25 I0.2 J0. F25.0
N4620 G01 X4.
N4630 G02 X4.25 Y0. I0. J-0.25
N4640 G01 Y-1.9978
N4650 G02 X4.25 Y-1.9999 I-0.6286 J-0.0021
N4660 X3.6214 Y-2.6285 I-0.6286 J0.
N4670 X2.9928 Y-1.9999 I0. J0.6286
N4680 X2.993 Y-1.9847 I0.6286 J0.
N4690 G01 Y-1.7789
N4700 Y-1.75
N4710 G02 X2.9925 Y-1.75 I-0.0005 J0.25
N4720 G01 X1.0204
N4730 G02 X1.0076 Y-1.7497 I0. J0.25
N4740 G03 X1.007 Y-1.7503 I0. J-0.0006
N4750 G02 X1.007 Y-1.7548 I-0.25 J-0.0045
N4760 G01 Y-1.9633
N4770 G02 X1.008 Y-1.9995 I-0.628 J-0.0361
N4780 X0.379 Y-2.6285 I-0.629 J0.
N4790 X-0.25 Y-2.0004 I0. J0.629
N4800 X-0.25 Y-2. I0.25 J0.0004
N4810 G01 Y0.
N4820 G02 X0. Y0.25 I0.25 J0.
N4830 G01 X0.1599
N4840 X0.1947 Y0.447
N4850 G00 Z0.2
N4860 X-0.0401 Y0.65
N4870 Z-0.35
N4880 G01 Z-0.8 F10.0
N4890 Y0.45 F50.0
N4900 G03 X0.1599 Y0.25 I0.2 J0. F25.0
N4910 G01 X4.
N4920 G02 X4.25 Y0. I0. J-0.25
N4930 G01 Y-1.9978
N4940 G02 X4.25 Y-1.9999 I-0.6286 J-0.0021
N4950 X3.6214 Y-2.6285 I-0.6286 J0.
N4960 X2.9928 Y-1.9999 I0. J0.6286
N4970 X2.993 Y-1.9847 I0.6286 J0.
N4980 G01 Y-1.7789
N4990 Y-1.75
N5000 G02 X2.9925 Y-1.75 I-0.0005 J0.25
N5010 G01 X1.0204
N5020 G02 X1.0076 Y-1.7497 I0. J0.25
N5030 G03 X1.007 Y-1.7503 I0. J-0.0006
N5040 G02 X1.007 Y-1.7548 I-0.25 J-0.0045
N5050 G01 Y-1.9633
N5060 G02 X1.008 Y-1.9995 I-0.628 J-0.0361
N5070 X0.379 Y-2.6285 I-0.629 J0.
N5080 X-0.25 Y-2.0004 I0. J0.629
N5090 X-0.25 Y-2. I0.25 J0.0004
N5100 G01 Y0.
N5110 G02 X0. Y0.25 I0.25 J0.
N5120 G01 X0.1599
N5130 X0.1947 Y0.447
N5140 G00 Z0.2
N5150 M05 M09
N5160 (END TOOL)
N5170 M05 M09
N5180 M30
%
