%
O0000
N10 (MACH3 MILL - )
N20 (AUTHOR - {SCOTT SHAFER})
N30 (GROUP - TOOLPATH GROUP #1)
N40 (SYSTEM- ONECNC-XR3 MILL 3D ADVANTAGE - VERSION 11.30)
N50 (NOTES - NONE)
N60 G0 G40 G49 G50 G80 G94
N70 (0.25INCH DRILL, 119 INC ) ( )
N80 T0 M06 G43 H0
N90 S1600.0 F9.5 M3 M07
N100 G4 P3
N110 G00 X0.996 Y-0.6999 Z0.2
N120 Z0.05
N130 G01 Z-0.1347 F4.75
N140 G00 Z-0.0847
N150 G01 Z-0.3195
N160 G00 Z-0.2695
N170 G01 Z-0.5042
N180 G00 Z-0.4542
N190 G01 Z-0.6889
N200 G00 Z-0.6389
N210 G01 Z-0.8736
N220 G00 Z0.05
N230 Z0.2
N240 X0.3785 Y-2.
N250 Z0.05
N260 G01 Z-0.1347
N270 G00 Z-0.0847
N280 G01 Z-0.3195
N290 G00 Z-0.2695
N300 G01 Z-0.5042
N310 G00 Z-0.4542
N320 G01 Z-0.6889
N330 G00 Z-0.6389
N340 G01 Z-0.8736
N350 G00 Z0.05
N360 Z0.2
N370 X3.0004 Y-0.6999
N380 Z0.05
N390 G01 Z-0.1347
N400 G00 Z-0.0847
N410 G01 Z-0.3195
N420 G00 Z-0.2695
N430 G01 Z-0.5042
N440 G00 Z-0.4542
N450 G01 Z-0.6889
N460 G00 Z-0.6389
N470 G01 Z-0.8736
N480 G00 Z0.05
N490 Z0.2
N500 X3.6215 Y-2.
N510 Z0.05
N520 G01 Z-0.1347
N530 G00 Z-0.0847
N540 G01 Z-0.3195
N550 G00 Z-0.2695
N560 G01 Z-0.5042
N570 G00 Z-0.4542
N580 G01 Z-0.6889
N590 G00 Z-0.6389
N600 G01 Z-0.8736
N610 G00 Z0.05
N620 G00 Z0.2
N630 M05 M09
N640 (END TOOL)
N650 M05 M09
N660 M30
%
