%
O0000
N10 (MACH3 MILL - )
N20 (AUTHOR - {SCOTT SHAFER})
N30 (GROUP - TOOLPATH GROUP #1)
N40 (SYSTEM- ONECNC-XR3 MILL 3D ADVANTAGE - VERSION 11.30)
N50 (NOTES - NONE)
N60 G0 G40 G49 G50 G80 G94
N70 (0.5INCH END MILL ) ( )
N80 T0 M06 G43 H0
N90 S800.0 F7.0 M3 M07
N100 G4 P3
N110 G00 X-0.5392 Y-1.2982 Z0.2
N120 Z0.05
N130 G01 Z-0.6 F3.5
N140 X-0.6392 Y-1.125 F7.0
N150 X-1.2165 Y-0.125
N160 X-1.1165 Y-0.2982
N170 G00 Z0.2
N180 X-0.5392 Y-1.2982
N190 Z-0.55
N200 G01 Z-1.2 F3.5
N210 X-0.6392 Y-1.125 F7.0
N220 X-1.2165 Y-0.125
N230 X-1.1165 Y-0.2982
N240 G00 Z0.2
N250 M05 M09
N260 (END TOOL)
N270 M05 M09
N280 M30
%
