%
O0000
N10 (PART - )
N20 (FILE - E:\THEWARFIELDS\CNCCOOKBOOK\IMG\TAPPINGARM\TAPPINGARMMK2WELDGULLE)
N30 (AUTHOR - BOB WARFIELD)
N40 (GROUP - FISHMOUTHTOPCURVES)
N50 (POSTED - THURSDAY, JUNE 03, 2010 15:24)
N60 (CREATED - THURSDAY, JUNE 03, 2010 15:01)
N70 (SYSTEM- ONECNC-XR4 MILL 3D ADVANTAGE - VERSION 20.46)
N80 (NOTES - NONE)
N90 G49
N100 G17 G40
N110 G49
N120 G17 G40
N130 G20
N140 G80
N150 G90
N160 G98
N170 (.50 INCH 1/2 HSS END MILL)
N180 T0 M06
N190 S800
N200 M08
N210 G43 H0 D0
N220 G00 X-0.8696 Y-1.0347 Z0.2
N230 Z0.05
N240 G01 Z-0.6 F2.0 S800
N250 X-0.6726 Y-1. F7.0
N260 Y-0.9618
N270 G02 X-0.5039 Y-0.7254 I0.25 J0.
N280 G03 X-0.3577 Y-0.6226 I-0.1046 J0.3041
N290 G02 X-0.3575 Y-0.6223 I0.195 J-0.1565
N300 G03 X-0.3137 Y-0.4979 I-0.1547 J0.1244
N310 X-0.3137 Y-0.492 I-0.1985 J0.
N320 X-0.3701 Y-0.3624 I-0.2094 J-0.014
N330 G02 X-0.3708 Y-0.3617 I0.1823 J0.1711
N340 G03 X-0.5047 Y-0.2743 I-0.2428 J-0.226
N350 G02 X-0.6726 Y-0.0382 I0.0821 J0.2361
N360 G01 Y0.
N370 X-0.8696 Y0.0347
N380 G00 Z0.2
N390 X-1.447 Y-1.0347
N400 Z0.05
N410 G01 Z-1.2 F2.0
N420 X-1.25 Y-1. F7.0
N430 Y-0.9547
N440 G02 X-1.0898 Y-0.7214 I0.25 J0.
N450 G03 X-0.9668 Y-0.6378 I-0.1179 J0.3062
N460 G02 X-0.9662 Y-0.6372 I0.1836 J-0.1697
N470 G03 X-0.9104 Y-0.5116 I-0.1548 J0.1439
N480 X-0.9102 Y-0.5016 I-0.1966 J0.01
N490 X-0.9511 Y-0.3815 I-0.1968 J0.
N500 G02 X-0.9512 Y-0.3814 I0.198 J0.1526
N510 G03 X-1.0889 Y-0.279 I-0.2497 J-0.1922
N520 G02 X-1.25 Y-0.0453 I0.0889 J0.2337
N530 G01 Y0.
N540 X-1.447 Y0.0347
N550 G00 Z0.2
N560 (END TOOL)
N570 M5
N580 M09
N590 M25
N600 M30
%
