%
O0000
N10 (MACH3 MILL - )
N20 (AUTHOR - {SCOTT SHAFER})
N30 (GROUP - TOOLPATH GROUP #1)
N40 (SYSTEM- ONECNC-XR3 MILL 3D ADVANTAGE - VERSION 11.30)
N50 (NOTES - NONE)
N60 G0 G40 G49 G50 G80 G94
N70 (0.5INCH END MILL ) ( )
N80 T0 M06 G43 H0
N90 S800.0 F7.0 M3 M07
N100 G4 P3
N110 G00 X-0.375 Y-1.2535 Z0.2
N120 Z0.05
N130 G01 Z-0.6 F3.5
N140 X-0.5 F7.0
N150 G02 X-1.25 Y-0.5035 I0. J0.75
N160 X-0.5012 Y0.2465 I0.75 J0.
N170 X-0.5008 Y0.2465 I0.0004 J-0.25
N180 G01 X-0.4479
N190 X-0.375
N200 G00 Z0.2
N210 Y-1.2535
N220 Z-0.55
N230 G01 Z-1.2 F3.5
N240 X-0.5 F7.0
N250 G02 X-1.25 Y-0.5035 I0. J0.75
N260 X-0.5012 Y0.2465 I0.75 J0.
N270 X-0.5008 Y0.2465 I0.0004 J-0.25
N280 G01 X-0.4479
N290 X-0.375
N300 G00 Z0.2
N310 M05 M09
N320 (END TOOL)
N330 M05 M09
N340 M30
%
