%
O0000
N10 (MACH3 MILL - )
N20 (AUTHOR - {SCOTT SHAFER})
N30 (GROUP - TOOLPATH GROUP #1)
N40 (SYSTEM- ONECNC-XR3 MILL 3D ADVANTAGE - VERSION 11.30)
N50 (NOTES - NONE)
N60 G0 G40 G49 G50 G80 G94
N70 (0.5INCH END MILL ) ( )
N80 T0 M06 G43 H0
N90 S800.0 F7.0 M3 M07
N100 G4 P3
N110 G00 X-1.2001 Y-0.3285 Z0.2
N120 Z0.05
N130 G01 Z-0.6 F3.5
N140 X-1.0001 F7.0
N150 X-0.2644
N160 G03 X-0.2566 Y-0.3284 I0. J0.25
N170 G02 X-0.2561 Y-0.3288 I0. J-0.0004
N180 G03 X-0.2563 Y-0.3365 I0.2499 J-0.0077
N190 G01 Y-0.6635
N200 G03 X-0.2561 Y-0.6712 I0.25 J0.
N210 G02 X-0.2565 Y-0.6716 I-0.0004 J0.
N220 G03 X-0.2644 Y-0.6715 I-0.0078 J-0.2499
N230 G01 X-1.0001
N240 X-0.8001
N250 G00 Z0.2
N260 X-1.2001 Y-0.3285
N270 Z-0.55
N280 G01 Z-1.2 F3.5
N290 X-1.0001 F7.0
N300 X-0.2644
N310 G03 X-0.2566 Y-0.3284 I0. J0.25
N320 G02 X-0.2561 Y-0.3288 I0. J-0.0004
N330 G03 X-0.2563 Y-0.3365 I0.2499 J-0.0077
N340 G01 Y-0.6635
N350 G03 X-0.2561 Y-0.6712 I0.25 J0.
N360 G02 X-0.2565 Y-0.6716 I-0.0004 J0.
N370 G03 X-0.2644 Y-0.6715 I-0.0078 J-0.2499
N380 G01 X-1.0001
N390 X-0.8001
N400 G00 Z0.2
N410 M05 M09
N420 (END TOOL)
N430 M05 M09
N440 M30
%
