%
O0000
N10 (PART - )
N20 (FILE - E:\THEWARFIELDS\CNCCOOKBOOK\IMG\TURNERSCUBES\9UPCUBESSQUARE.XFA)
N30 (AUTHOR - BOB WARFIELD)
N40 (GROUP - TOOLPATH GROUP #1)
N50 (POSTED - WEDNESDAY, JUNE 09, 2010 19:39)
N60 (CREATED - WEDNESDAY, JUNE 09, 2010 19:24)
N70 (SYSTEM- ONECNC-XR4 MILL 3D ADVANTAGE - VERSION 20.46)
N80 (NOTES - NONE)
N90 G49
N100 G17 G40
N110 G49
N120 G17 G40
N130 G20
N140 G80
N150 G90
N160 G98
N170 (0.25INCH END MILL)
N180 T0 M06
N190 S1600
N200 M08
N210 G43 H0 D0
N220 G00 X-0.035 Y-0.88 Z1.
N230 Z0.77
N240 G01 Z0.47 F5.0 S1600
N250 Y-0.33 F10.0
N260 G02 X0.1 Y-0.195 I0.135 J0.
N270 G01 X0.7
N280 G02 X0.835 Y-0.33 I0. J-0.135
N290 G01 Y-0.93
N300 G02 X0.7 Y-1.065 I-0.135 J0.
N310 G01 X0.1
N320 G02 X-0.035 Y-0.93 I0. J0.135
N330 G01 Y-0.88
N340 Z0.22 F5.0
N350 Y-0.33 F10.0
N360 G02 X0.1 Y-0.195 I0.135 J0.
N370 G01 X0.7
N380 G02 X0.835 Y-0.33 I0. J-0.135
N390 G01 Y-0.93
N400 G02 X0.7 Y-1.065 I-0.135 J0.
N410 G01 X0.1
N420 G02 X-0.035 Y-0.93 I0. J0.135
N430 G01 Y-0.88
N440 Z0.1 F5.0
N450 Y-0.33 F10.0
N460 G02 X0.1 Y-0.195 I0.135 J0.
N470 G01 X0.7
N480 G02 X0.835 Y-0.33 I0. J-0.135
N490 G01 Y-0.93
N500 G02 X0.7 Y-1.065 I-0.135 J0.
N510 G01 X0.1
N520 G02 X-0.035 Y-0.93 I0. J0.135
N530 G01 Y-0.88
N540 G00 Z1.
N550 X-0.025
N560 Z0.71
N570 G01 Z0.41 F5.0
N580 Y-0.33
N590 G02 X0.1 Y-0.205 I0.125 J0.
N600 G01 X0.7
N610 G02 X0.825 Y-0.33 I0. J-0.125
N620 G01 Y-0.93
N630 G02 X0.7 Y-1.055 I-0.125 J0.
N640 G01 X0.1
N650 G02 X-0.025 Y-0.93 I0. J0.125
N660 G01 Y-0.88
N670 G00 Z0.4
N680 G01 Z0.1
N690 Y-0.33
N700 G02 X0.1 Y-0.205 I0.125 J0.
N710 G01 X0.7
N720 G02 X0.825 Y-0.33 I0. J-0.125
N730 G01 Y-0.93
N740 G02 X0.7 Y-1.055 I-0.125 J0.
N750 G01 X0.1
N760 G02 X-0.025 Y-0.93 I0. J0.125
N770 G01 Y-0.88
N780 G00 Z1.
N790 X0.9969 Y-0.195
N800 Z0.77
N810 G01 Z0.47
N820 X1.57 F10.0
N830 G02 X1.705 Y-0.33 I0. J-0.135
N840 G01 Y-0.93
N850 G02 X1.57 Y-1.065 I-0.135 J0.
N860 G01 X0.97
N870 G02 X0.835 Y-0.93 I0. J0.135
N880 G01 Y-0.33
N890 G02 X0.97 Y-0.195 I0.135 J0.
N900 G01 X0.9969
N910 Z0.22 F5.0
N920 X1.57 F10.0
N930 G02 X1.705 Y-0.33 I0. J-0.135
N940 G01 Y-0.93
N950 G02 X1.57 Y-1.065 I-0.135 J0.
N960 G01 X0.97
N970 G02 X0.835 Y-0.93 I0. J0.135
N980 G01 Y-0.33
N990 G02 X0.97 Y-0.195 I0.135 J0.
N1000 G01 X0.9969
N1010 Z0.1 F5.0
N1020 X1.57 F10.0
N1030 G02 X1.705 Y-0.33 I0. J-0.135
N1040 G01 Y-0.93
N1050 G02 X1.57 Y-1.065 I-0.135 J0.
N1060 G01 X0.97
N1070 G02 X0.835 Y-0.93 I0. J0.135
N1080 G01 Y-0.33
N1090 G02 X0.97 Y-0.195 I0.135 J0.
N1100 G01 X0.9969
N1110 G00 Z1.
N1120 Y-0.205
N1130 Z0.71
N1140 G01 Z0.41 F5.0
N1150 X1.57
N1160 G02 X1.695 Y-0.33 I0. J-0.125
N1170 G01 Y-0.93
N1180 G02 X1.57 Y-1.055 I-0.125 J0.
N1190 G01 X0.97
N1200 G02 X0.845 Y-0.93 I0. J0.125
N1210 G01 Y-0.33
N1220 G02 X0.97 Y-0.205 I0.125 J0.
N1230 G01 X0.9969
N1240 G00 Z0.4
N1250 G01 Z0.1
N1260 X1.57
N1270 G02 X1.695 Y-0.33 I0. J-0.125
N1280 G01 Y-0.93
N1290 G02 X1.57 Y-1.055 I-0.125 J0.
N1300 G01 X0.97
N1310 G02 X0.845 Y-0.93 I0. J0.125
N1320 G01 Y-0.33
N1330 G02 X0.97 Y-0.205 I0.125 J0.
N1340 G01 X0.9969
N1350 G00 Z1.
N1360 X1.8715 Y-0.195
N1370 Z0.77
N1380 G01 Z0.47
N1390 X2.44 F10.0
N1400 G02 X2.575 Y-0.33 I0. J-0.135
N1410 G01 Y-0.93
N1420 G02 X2.44 Y-1.065 I-0.135 J0.
N1430 G01 X1.84
N1440 G02 X1.705 Y-0.93 I0. J0.135
N1450 G01 Y-0.33
N1460 G02 X1.84 Y-0.195 I0.135 J0.
N1470 G01 X1.8715
N1480 Z0.22 F5.0
N1490 X2.44 F10.0
N1500 G02 X2.575 Y-0.33 I0. J-0.135
N1510 G01 Y-0.93
N1520 G02 X2.44 Y-1.065 I-0.135 J0.
N1530 G01 X1.84
N1540 G02 X1.705 Y-0.93 I0. J0.135
N1550 G01 Y-0.33
N1560 G02 X1.84 Y-0.195 I0.135 J0.
N1570 G01 X1.8715
N1580 Z0.1 F5.0
N1590 X2.44 F10.0
N1600 G02 X2.575 Y-0.33 I0. J-0.135
N1610 G01 Y-0.93
N1620 G02 X2.44 Y-1.065 I-0.135 J0.
N1630 G01 X1.84
N1640 G02 X1.705 Y-0.93 I0. J0.135
N1650 G01 Y-0.33
N1660 G02 X1.84 Y-0.195 I0.135 J0.
N1670 G01 X1.8715
N1680 G00 Z1.
N1690 Y-0.205
N1700 Z0.71
N1710 G01 Z0.41 F5.0
N1720 X2.44
N1730 G02 X2.565 Y-0.33 I0. J-0.125
N1740 G01 Y-0.93
N1750 G02 X2.44 Y-1.055 I-0.125 J0.
N1760 G01 X1.84
N1770 G02 X1.715 Y-0.93 I0. J0.125
N1780 G01 Y-0.33
N1790 G02 X1.84 Y-0.205 I0.125 J0.
N1800 G01 X1.8715
N1810 G00 Z0.4
N1820 G01 Z0.1
N1830 X2.44
N1840 G02 X2.565 Y-0.33 I0. J-0.125
N1850 G01 Y-0.93
N1860 G02 X2.44 Y-1.055 I-0.125 J0.
N1870 G01 X1.84
N1880 G02 X1.715 Y-0.93 I0. J0.125
N1890 G01 Y-0.33
N1900 G02 X1.84 Y-0.205 I0.125 J0.
N1910 G01 X1.8715
N1920 G00 Z1.
N1930 X2.575 Y-1.2419
N1940 Z0.77
N1950 G01 Z0.47
N1960 Y-1.8 F10.0
N1970 G02 X2.44 Y-1.935 I-0.135 J0.
N1980 G01 X1.84
N1990 G02 X1.705 Y-1.8 I0. J0.135
N2000 G01 Y-1.2
N2010 G02 X1.84 Y-1.065 I0.135 J0.
N2020 G01 X2.44
N2030 G02 X2.575 Y-1.2 I0. J-0.135
N2040 G01 Y-1.2419
N2050 Z0.22 F5.0
N2060 Y-1.8 F10.0
N2070 G02 X2.44 Y-1.935 I-0.135 J0.
N2080 G01 X1.84
N2090 G02 X1.705 Y-1.8 I0. J0.135
N2100 G01 Y-1.2
N2110 G02 X1.84 Y-1.065 I0.135 J0.
N2120 G01 X2.44
N2130 G02 X2.575 Y-1.2 I0. J-0.135
N2140 G01 Y-1.2419
N2150 Z0.1 F5.0
N2160 Y-1.8 F10.0
N2170 G02 X2.44 Y-1.935 I-0.135 J0.
N2180 G01 X1.84
N2190 G02 X1.705 Y-1.8 I0. J0.135
N2200 G01 Y-1.2
N2210 G02 X1.84 Y-1.065 I0.135 J0.
N2220 G01 X2.44
N2230 G02 X2.575 Y-1.2 I0. J-0.135
N2240 G01 Y-1.2419
N2250 G00 Z1.
N2260 X2.565
N2270 Z0.71
N2280 G01 Z0.41 F5.0
N2290 Y-1.8
N2300 G02 X2.44 Y-1.925 I-0.125 J0.
N2310 G01 X1.84
N2320 G02 X1.715 Y-1.8 I0. J0.125
N2330 G01 Y-1.2
N2340 G02 X1.84 Y-1.075 I0.125 J0.
N2350 G01 X2.44
N2360 G02 X2.565 Y-1.2 I0. J-0.125
N2370 G01 Y-1.2419
N2380 G00 Z0.4
N2390 G01 Z0.1
N2400 Y-1.8
N2410 G02 X2.44 Y-1.925 I-0.125 J0.
N2420 G01 X1.84
N2430 G02 X1.715 Y-1.8 I0. J0.125
N2440 G01 Y-1.2
N2450 G02 X1.84 Y-1.075 I0.125 J0.
N2460 G01 X2.44
N2470 G02 X2.565 Y-1.2 I0. J-0.125
N2480 G01 Y-1.2419
N2490 G00 Z1.
N2500 X1.705 Y-1.2384
N2510 Z0.77
N2520 G01 Z0.47
N2530 Y-1.8 F10.0
N2540 G02 X1.57 Y-1.935 I-0.135 J0.
N2550 G01 X0.97
N2560 G02 X0.835 Y-1.8 I0. J0.135
N2570 G01 Y-1.2
N2580 G02 X0.97 Y-1.065 I0.135 J0.
N2590 G01 X1.57
N2600 G02 X1.705 Y-1.2 I0. J-0.135
N2610 G01 Y-1.2384
N2620 Z0.22 F5.0
N2630 Y-1.8 F10.0
N2640 G02 X1.57 Y-1.935 I-0.135 J0.
N2650 G01 X0.97
N2660 G02 X0.835 Y-1.8 I0. J0.135
N2670 G01 Y-1.2
N2680 G02 X0.97 Y-1.065 I0.135 J0.
N2690 G01 X1.57
N2700 G02 X1.705 Y-1.2 I0. J-0.135
N2710 G01 Y-1.2384
N2720 Z0.1 F5.0
N2730 Y-1.8 F10.0
N2740 G02 X1.57 Y-1.935 I-0.135 J0.
N2750 G01 X0.97
N2760 G02 X0.835 Y-1.8 I0. J0.135
N2770 G01 Y-1.2
N2780 G02 X0.97 Y-1.065 I0.135 J0.
N2790 G01 X1.57
N2800 G02 X1.705 Y-1.2 I0. J-0.135
N2810 G01 Y-1.2384
N2820 G00 Z1.
N2830 X1.695
N2840 Z0.71
N2850 G01 Z0.41 F5.0
N2860 Y-1.8
N2870 G02 X1.57 Y-1.925 I-0.125 J0.
N2880 G01 X0.97
N2890 G02 X0.845 Y-1.8 I0. J0.125
N2900 G01 Y-1.2
N2910 G02 X0.97 Y-1.075 I0.125 J0.
N2920 G01 X1.57
N2930 G02 X1.695 Y-1.2 I0. J-0.125
N2940 G01 Y-1.2384
N2950 G00 Z0.4
N2960 G01 Z0.1
N2970 Y-1.8
N2980 G02 X1.57 Y-1.925 I-0.125 J0.
N2990 G01 X0.97
N3000 G02 X0.845 Y-1.8 I0. J0.125
N3010 G01 Y-1.2
N3020 G02 X0.97 Y-1.075 I0.125 J0.
N3030 G01 X1.57
N3040 G02 X1.695 Y-1.2 I0. J-0.125
N3050 G01 Y-1.2384
N3060 G00 Z1.
N3070 X0.835 Y-1.2836
N3080 Z0.77
N3090 G01 Z0.47
N3100 Y-1.8 F10.0
N3110 G02 X0.7 Y-1.935 I-0.135 J0.
N3120 G01 X0.1
N3130 G02 X-0.035 Y-1.8 I0. J0.135
N3140 G01 Y-1.2
N3150 G02 X0.1 Y-1.065 I0.135 J0.
N3160 G01 X0.7
N3170 G02 X0.835 Y-1.2 I0. J-0.135
N3180 G01 Y-1.2836
N3190 Z0.22 F5.0
N3200 Y-1.8 F10.0
N3210 G02 X0.7 Y-1.935 I-0.135 J0.
N3220 G01 X0.1
N3230 G02 X-0.035 Y-1.8 I0. J0.135
N3240 G01 Y-1.2
N3250 G02 X0.1 Y-1.065 I0.135 J0.
N3260 G01 X0.7
N3270 G02 X0.835 Y-1.2 I0. J-0.135
N3280 G01 Y-1.2836
N3290 Z0.1 F5.0
N3300 Y-1.8 F10.0
N3310 G02 X0.7 Y-1.935 I-0.135 J0.
N3320 G01 X0.1
N3330 G02 X-0.035 Y-1.8 I0. J0.135
N3340 G01 Y-1.2
N3350 G02 X0.1 Y-1.065 I0.135 J0.
N3360 G01 X0.7
N3370 G02 X0.835 Y-1.2 I0. J-0.135
N3380 G01 Y-1.2836
N3390 G00 Z1.
N3400 X0.825
N3410 Z0.71
N3420 G01 Z0.41 F5.0
N3430 Y-1.8
N3440 G02 X0.7 Y-1.925 I-0.125 J0.
N3450 G01 X0.1
N3460 G02 X-0.025 Y-1.8 I0. J0.125
N3470 G01 Y-1.2
N3480 G02 X0.1 Y-1.075 I0.125 J0.
N3490 G01 X0.7
N3500 G02 X0.825 Y-1.2 I0. J-0.125
N3510 G01 Y-1.2836
N3520 G00 Z0.4
N3530 G01 Z0.1
N3540 Y-1.8
N3550 G02 X0.7 Y-1.925 I-0.125 J0.
N3560 G01 X0.1
N3570 G02 X-0.025 Y-1.8 I0. J0.125
N3580 G01 Y-1.2
N3590 G02 X0.1 Y-1.075 I0.125 J0.
N3600 G01 X0.7
N3610 G02 X0.825 Y-1.2 I0. J-0.125
N3620 G01 Y-1.2836
N3630 G00 Z1.
N3640 X-0.035 Y-2.1788
N3650 Z0.77
N3660 G01 Z0.47
N3670 Y-2.07 F10.0
N3680 G02 X0.1 Y-1.935 I0.135 J0.
N3690 G01 X0.7
N3700 G02 X0.835 Y-2.07 I0. J-0.135
N3710 G01 Y-2.67
N3720 G02 X0.7 Y-2.805 I-0.135 J0.
N3730 G01 X0.1
N3740 G02 X-0.035 Y-2.67 I0. J0.135
N3750 G01 Y-2.1788
N3760 Z0.22 F5.0
N3770 Y-2.07 F10.0
N3780 G02 X0.1 Y-1.935 I0.135 J0.
N3790 G01 X0.7
N3800 G02 X0.835 Y-2.07 I0. J-0.135
N3810 G01 Y-2.67
N3820 G02 X0.7 Y-2.805 I-0.135 J0.
N3830 G01 X0.1
N3840 G02 X-0.035 Y-2.67 I0. J0.135
N3850 G01 Y-2.1788
N3860 Z0.1 F5.0
N3870 Y-2.07 F10.0
N3880 G02 X0.1 Y-1.935 I0.135 J0.
N3890 G01 X0.7
N3900 G02 X0.835 Y-2.07 I0. J-0.135
N3910 G01 Y-2.67
N3920 G02 X0.7 Y-2.805 I-0.135 J0.
N3930 G01 X0.1
N3940 G02 X-0.035 Y-2.67 I0. J0.135
N3950 G01 Y-2.1788
N3960 G00 Z1.
N3970 X-0.025
N3980 Z0.71
N3990 G01 Z0.41 F5.0
N4000 Y-2.07
N4010 G02 X0.1 Y-1.945 I0.125 J0.
N4020 G01 X0.7
N4030 G02 X0.825 Y-2.07 I0. J-0.125
N4040 G01 Y-2.67
N4050 G02 X0.7 Y-2.795 I-0.125 J0.
N4060 G01 X0.1
N4070 G02 X-0.025 Y-2.67 I0. J0.125
N4080 G01 Y-2.1788
N4090 G00 Z0.4
N4100 G01 Z0.1
N4110 Y-2.07
N4120 G02 X0.1 Y-1.945 I0.125 J0.
N4130 G01 X0.7
N4140 G02 X0.825 Y-2.07 I0. J-0.125
N4150 G01 Y-2.67
N4160 G02 X0.7 Y-2.795 I-0.125 J0.
N4170 G01 X0.1
N4180 G02 X-0.025 Y-2.67 I0. J0.125
N4190 G01 Y-2.1788
N4200 G00 Z1.
N4210 X1.0092 Y-1.935
N4220 Z0.77
N4230 G01 Z0.47
N4240 X1.57 F10.0
N4250 G02 X1.705 Y-2.07 I0. J-0.135
N4260 G01 Y-2.67
N4270 G02 X1.57 Y-2.805 I-0.135 J0.
N4280 G01 X0.97
N4290 G02 X0.835 Y-2.67 I0. J0.135
N4300 G01 Y-2.07
N4310 G02 X0.97 Y-1.935 I0.135 J0.
N4320 G01 X1.0092
N4330 Z0.22 F5.0
N4340 X1.57 F10.0
N4350 G02 X1.705 Y-2.07 I0. J-0.135
N4360 G01 Y-2.67
N4370 G02 X1.57 Y-2.805 I-0.135 J0.
N4380 G01 X0.97
N4390 G02 X0.835 Y-2.67 I0. J0.135
N4400 G01 Y-2.07
N4410 G02 X0.97 Y-1.935 I0.135 J0.
N4420 G01 X1.0092
N4430 Z0.1 F5.0
N4440 X1.57 F10.0
N4450 G02 X1.705 Y-2.07 I0. J-0.135
N4460 G01 Y-2.67
N4470 G02 X1.57 Y-2.805 I-0.135 J0.
N4480 G01 X0.97
N4490 G02 X0.835 Y-2.67 I0. J0.135
N4500 G01 Y-2.07
N4510 G02 X0.97 Y-1.935 I0.135 J0.
N4520 G01 X1.0092
N4530 G00 Z1.
N4540 Y-1.945
N4550 Z0.71
N4560 G01 Z0.41 F5.0
N4570 X1.57
N4580 G02 X1.695 Y-2.07 I0. J-0.125
N4590 G01 Y-2.67
N4600 G02 X1.57 Y-2.795 I-0.125 J0.
N4610 G01 X0.97
N4620 G02 X0.845 Y-2.67 I0. J0.125
N4630 G01 Y-2.07
N4640 G02 X0.97 Y-1.945 I0.125 J0.
N4650 G01 X1.0092
N4660 G00 Z0.4
N4670 G01 Z0.1
N4680 X1.57
N4690 G02 X1.695 Y-2.07 I0. J-0.125
N4700 G01 Y-2.67
N4710 G02 X1.57 Y-2.795 I-0.125 J0.
N4720 G01 X0.97
N4730 G02 X0.845 Y-2.67 I0. J0.125
N4740 G01 Y-2.07
N4750 G02 X0.97 Y-1.945 I0.125 J0.
N4760 G01 X1.0092
N4770 G00 Z1.
N4780 X1.8999 Y-1.935
N4790 Z0.77
N4800 G01 Z0.47
N4810 X2.44 F10.0
N4820 G02 X2.575 Y-2.07 I0. J-0.135
N4830 G01 Y-2.67
N4840 G02 X2.44 Y-2.805 I-0.135 J0.
N4850 G01 X1.84
N4860 G02 X1.705 Y-2.67 I0. J0.135
N4870 G01 Y-2.07
N4880 G02 X1.84 Y-1.935 I0.135 J0.
N4890 G01 X1.8999
N4900 Z0.22 F5.0
N4910 X2.44 F10.0
N4920 G02 X2.575 Y-2.07 I0. J-0.135
N4930 G01 Y-2.67
N4940 G02 X2.44 Y-2.805 I-0.135 J0.
N4950 G01 X1.84
N4960 G02 X1.705 Y-2.67 I0. J0.135
N4970 G01 Y-2.07
N4980 G02 X1.84 Y-1.935 I0.135 J0.
N4990 G01 X1.8999
N5000 Z0.1 F5.0
N5010 X2.44 F10.0
N5020 G02 X2.575 Y-2.07 I0. J-0.135
N5030 G01 Y-2.67
N5040 G02 X2.44 Y-2.805 I-0.135 J0.
N5050 G01 X1.84
N5060 G02 X1.705 Y-2.67 I0. J0.135
N5070 G01 Y-2.07
N5080 G02 X1.84 Y-1.935 I0.135 J0.
N5090 G01 X1.8999
N5100 G00 Z1.
N5110 Y-1.945
N5120 Z0.71
N5130 G01 Z0.41 F5.0
N5140 X2.44
N5150 G02 X2.565 Y-2.07 I0. J-0.125
N5160 G01 Y-2.67
N5170 G02 X2.44 Y-2.795 I-0.125 J0.
N5180 G01 X1.84
N5190 G02 X1.715 Y-2.67 I0. J0.125
N5200 G01 Y-2.07
N5210 G02 X1.84 Y-1.945 I0.125 J0.
N5220 G01 X1.8999
N5230 G00 Z0.4
N5240 G01 Z0.1
N5250 X2.44
N5260 G02 X2.565 Y-2.07 I0. J-0.125
N5270 G01 Y-2.67
N5280 G02 X2.44 Y-2.795 I-0.125 J0.
N5290 G01 X1.84
N5300 G02 X1.715 Y-2.67 I0. J0.125
N5310 G01 Y-2.07
N5320 G02 X1.84 Y-1.945 I0.125 J0.
N5330 G01 X1.8999
N5340 G00 Z1.
N5350 (END TOOL)
N5360 M5
N5370 M09
N5380 M25
N5390 M30
%
