%
O0000
N10 (PART - )
N20 (FILE - E:\THEWARFIELDS\CNCCOOKBOOK\IMG\TURNERSCUBES\9UPCUBESSQUARE.XFA)
N30 (AUTHOR - BOB WARFIELD)
N40 (GROUP - TOOLPATH GROUP #1)
N50 (POSTED - WEDNESDAY, JUNE 09, 2010 19:27)
N60 (CREATED - WEDNESDAY, JUNE 09, 2010 19:24)
N70 (SYSTEM- ONECNC-XR4 MILL 3D ADVANTAGE - VERSION 20.46)
N80 (NOTES - NONE)
N90 G49
N100 G17 G40
N110 G49
N120 G17 G40
N130 G20
N140 G80
N150 G90
N160 G98
N170 (3INCH FACE MILL)
N180 T0 M06
N190 S1600
N200 M08
N210 G43 H0 D0
N220 G00 X-1.9 Y0.25 Z1.
N230 Z0.83
N240 G01 Z0.75 F5.0 S1600
N250 X-1. F30.0
N260 G02 X-0.25 Y1. I0.75 J0.
N270 G01 X3.25
N280 G02 X4. Y0.25 I0. J-0.75
N290 G01 Y-3.25
N300 G02 X3.25 Y-4. I-0.75 J0.
N310 G01 X-0.25
N320 G02 X-1. Y-3.25 I0. J0.75
N330 G01 Y0.25
N340 G00 Z1.
N350 X-1.9 Y0.01
N360 Z0.83
N370 G01 Z0.75 F5.0
N380 X-0.01 F30.0
N390 X3.01
N400 Y-3.01
N410 X-0.01
N420 Y0.01
N430 X0.98 Y-0.98
N440 X2.02
N450 Y-2.02
N460 X0.98
N470 Y-0.98
N480 X1.475 Y-1.475
N490 X1.525
N500 Y-1.525
N510 X1.475
N520 Y-1.475
N530 G00 Z1.
N540 X-1.9 Y0.25
N550 Z0.8
N560 G01 Z0.72 F5.0
N570 X-1. F30.0
N580 G02 X-0.25 Y1. I0.75 J0.
N590 G01 X3.25
N600 G02 X4. Y0.25 I0. J-0.75
N610 G01 Y-3.25
N620 G02 X3.25 Y-4. I-0.75 J0.
N630 G01 X-0.25
N640 G02 X-1. Y-3.25 I0. J0.75
N650 G01 Y0.25
N660 G00 Z1.
N670 X-1.9 Y0.01
N680 Z0.8
N690 G01 Z0.72 F5.0
N700 X-0.01 F30.0
N710 X3.01
N720 Y-3.01
N730 X-0.01
N740 Y0.01
N750 X0.98 Y-0.98
N760 X2.02
N770 Y-2.02
N780 X0.98
N790 Y-0.98
N800 X1.475 Y-1.475
N810 X1.525
N820 Y-1.525
N830 X1.475
N840 Y-1.475
N850 G00 Z1.
N860 (END TOOL)
N870 M5
N880 M09
N890 M25
N900 M30
%
