%
O0000
N10 (PART - )
N20 (FILE - E:\THEWARFIELDS\CNCCOOKBOOK\IMG\TURNERSCUBES\9UPCUBESSQUAREFINISH)
N30 (AUTHOR - BOB WARFIELD)
N40 (GROUP - TOOLPATH GROUP #1)
N50 (POSTED - WEDNESDAY, JUNE 09, 2010 19:42)
N60 (CREATED - WEDNESDAY, JUNE 09, 2010 19:41)
N70 (SYSTEM- ONECNC-XR4 MILL 3D ADVANTAGE - VERSION 20.46)
N80 (NOTES - NONE)
N90 G49
N100 G17 G40
N110 G49
N120 G17 G40
N130 G20
N140 G80
N150 G90
N160 G98
N170 (3INCH FACE MILL)
N180 T0 M06
N190 S1600
N200 M08
N210 G43 H0 D0
N220 G00 X-1.9 Y0.25 Z1.
N230 Z0.83
N240 G01 Z0.75 F5.0 S1600
N250 X-1. F30.0
N260 G02 X-0.25 Y1. I0.75 J0.
N270 G01 X3.25
N280 G02 X4. Y0.25 I0. J-0.75
N290 G01 Y-0.75
N300 G02 X3.25 Y-1.5 I-0.75 J0.
N310 G01 X-0.25
N320 G02 X-1. Y-0.75 I0. J0.75
N330 G01 Y0.25
N340 G00 Z1.
N350 X-1.9 Y0.01
N360 Z0.83
N370 G01 Z0.75 F5.0
N380 X-0.01 F30.0
N390 X3.01
N400 Y-0.51
N410 X-0.01
N420 Y0.01
N430 G00 Z1.
N440 X-1.9 Y0.25
N450 Z0.8
N460 G01 Z0.72 F5.0
N470 X-1. F30.0
N480 G02 X-0.25 Y1. I0.75 J0.
N490 G01 X3.25
N500 G02 X4. Y0.25 I0. J-0.75
N510 G01 Y-0.75
N520 G02 X3.25 Y-1.5 I-0.75 J0.
N530 G01 X-0.25
N540 G02 X-1. Y-0.75 I0. J0.75
N550 G01 Y0.25
N560 G00 Z1.
N570 X-1.9 Y0.01
N580 Z0.8
N590 G01 Z0.72 F5.0
N600 X-0.01 F30.0
N610 X3.01
N620 Y-0.51
N630 X-0.01
N640 Y0.01
N650 G00 Z1.
N660 X-1.9 Y0.25
N670 Z0.77
N680 G01 Z0.69 F5.0
N690 X-1. F30.0
N700 G02 X-0.25 Y1. I0.75 J0.
N710 G01 X3.25
N720 G02 X4. Y0.25 I0. J-0.75
N730 G01 Y-0.75
N740 G02 X3.25 Y-1.5 I-0.75 J0.
N750 G01 X-0.25
N760 G02 X-1. Y-0.75 I0. J0.75
N770 G01 Y0.25
N780 G00 Z1.
N790 X-1.9 Y0.01
N800 Z0.77
N810 G01 Z0.69 F5.0
N820 X-0.01 F30.0
N830 X3.01
N840 Y-0.51
N850 X-0.01
N860 Y0.01
N870 G00 Z1.
N880 X-1.9 Y0.25
N890 Z0.74
N900 G01 Z0.66 F5.0
N910 X-1. F30.0
N920 G02 X-0.25 Y1. I0.75 J0.
N930 G01 X3.25
N940 G02 X4. Y0.25 I0. J-0.75
N950 G01 Y-0.75
N960 G02 X3.25 Y-1.5 I-0.75 J0.
N970 G01 X-0.25
N980 G02 X-1. Y-0.75 I0. J0.75
N990 G01 Y0.25
N1000 G00 Z1.
N1010 X-1.9 Y0.01
N1020 Z0.74
N1030 G01 Z0.66 F5.0
N1040 X-0.01 F30.0
N1050 X3.01
N1060 Y-0.51
N1070 X-0.01
N1080 Y0.01
N1090 G00 Z1.
N1100 X-1.9 Y0.25
N1110 Z0.71
N1120 G01 Z0.63 F5.0
N1130 X-1. F30.0
N1140 G02 X-0.25 Y1. I0.75 J0.
N1150 G01 X3.25
N1160 G02 X4. Y0.25 I0. J-0.75
N1170 G01 Y-0.75
N1180 G02 X3.25 Y-1.5 I-0.75 J0.
N1190 G01 X-0.25
N1200 G02 X-1. Y-0.75 I0. J0.75
N1210 G01 Y0.25
N1220 G00 Z1.
N1230 X-1.9 Y0.01
N1240 Z0.71
N1250 G01 Z0.63 F5.0
N1260 X-0.01 F30.0
N1270 X3.01
N1280 Y-0.51
N1290 X-0.01
N1300 Y0.01
N1310 G00 Z1.
N1320 X-1.9 Y0.25
N1330 Z0.68
N1340 G01 Z0.6 F5.0
N1350 X-1. F30.0
N1360 G02 X-0.25 Y1. I0.75 J0.
N1370 G01 X3.25
N1380 G02 X4. Y0.25 I0. J-0.75
N1390 G01 Y-0.75
N1400 G02 X3.25 Y-1.5 I-0.75 J0.
N1410 G01 X-0.25
N1420 G02 X-1. Y-0.75 I0. J0.75
N1430 G01 Y0.25
N1440 G00 Z1.
N1450 X-1.9 Y0.01
N1460 Z0.68
N1470 G01 Z0.6 F5.0
N1480 X-0.01 F30.0
N1490 X3.01
N1500 Y-0.51
N1510 X-0.01
N1520 Y0.01
N1530 G00 Z1.
N1540 (END TOOL)
N1550 M5
N1560 M09
N1570 M25
N1580 M30
%
