%
O0000
N10 (PART - )
N20 (FILE - E:\THEWARFIELDS\CNCCOOKBOOK\IMG\MILLSTUFF\TRAMADJUSTER\TRAMFINEAD)
N30 (AUTHOR - BOB WARFIELD)
N40 (GROUP - TOOLPATH GROUP #1)
N50 (POSTED - TUESDAY, SEPTEMBER 14, 2010 13:25)
N60 (CREATED - SATURDAY, JULY 03, 2010 13:19)
N70 (SYSTEM- ONECNC-XR4 MILL 3D ADVANTAGE - VERSION 20.46)
N80 (NOTES - NONE)
N90 G49
N100 G17 G40
N110 G49
N120 G17 G40
N130 G20
N140 G80
N150 G90
N160 G98
N170 (0.5INCH SPOT DRILL)
N180 T0 M06
N190 S0
N200 M08
N210 G43 H0 D0
N220 G00 X0.75 Y-1.75 Z0.2
N230 Z0.14
N240 G01 Z-0.01 F1.5 S0
N250 G02 X0.5 Y-1.75 I-0.125 J0. F3.0
N260 X0.75 Y-1.75 I0.125 J0.
N270 X0.5 Y-1.75 I-0.125 J0.
N280 X0.75 Y-1.75 I0.125 J0.
N290 X0.5 Y-1.75 I-0.125 J0.
N300 X0.75 Y-1.75 I0.125 J0.
N310 X0.5 Y-1.75 I-0.125 J0.
N320 X0.75 Y-1.75 I0.125 J0.
N330 G00 Z0.2
N340 X1.1277 Y-1.7879
N350 Z0.14
N360 G01 Z-0.01 F1.5
N370 G02 X1.1249 Y-1.7505 I0.2479 J0.0374 F3.0
N380 X1.3251 Y-1.505 I0.2507 J0.
N390 X1.3797 Y-1.5 I0.0495 J-0.2414
N400 G01 X2.8709
N410 G02 X3.1223 Y-1.7121 I0.0035 J-0.2509
N420 X3.1251 Y-1.7495 I-0.2479 J-0.0374
N430 X2.9249 Y-1.995 I-0.2507 J0.
N440 X2.8703 Y-2. I-0.0495 J0.2414
N450 G01 X1.375
N460 G02 X1.1277 Y-1.7879 I0.0005 J0.2509
N470 X1.1249 Y-1.7505 I0.2479 J0.0374
N480 X1.3251 Y-1.505 I0.2507 J0.
N490 X1.3797 Y-1.5 I0.0495 J-0.2414
N500 G01 X2.8709
N510 G02 X3.1223 Y-1.7121 I0.0035 J-0.2509
N520 X3.1251 Y-1.7495 I-0.2479 J-0.0374
N530 X2.9249 Y-1.995 I-0.2507 J0.
N540 X2.8703 Y-2. I-0.0495 J0.2414
N550 G01 X1.375
N560 G02 X1.1277 Y-1.7879 I0.0005 J0.2509
N570 G00 Z0.2
N580 X1.4165 Y-1.7782
N590 Z0.14
N600 G01 Z-0.01 F1.5
N610 G03 X1.4219 Y-1.7626 I-0.0483 J0.0256 F3.0
N620 G01 X1.462 Y-1.7751
N630 G02 X1.4586 Y-1.7864 I-0.091 J0.0216
N640 X1.4164 Y-1.8245 I-0.055 J0.0186
N650 X1.383 Y-1.8263 I-0.0227 J0.1108
N660 X1.3514 Y-1.8181 I0.004 J0.0808
N670 X1.3213 Y-1.7813 I0.0343 J0.0587
N680 X1.3165 Y-1.7497 I0.1006 J0.0316
N690 X1.3172 Y-1.7375 I0.1055 J0.
N700 X1.328 Y-1.7036 I0.0777 J-0.0061
N710 X1.3647 Y-1.6768 I0.0525 J-0.0333
N720 X1.4111 Y-1.6747 I0.028 J-0.1066
N730 X1.4435 Y-1.6901 I-0.0078 J-0.0582
N740 X1.4609 Y-1.7193 I-0.0499 J-0.0494
N750 G01 X1.4197 Y-1.7282
N760 X1.4184 Y-1.7248
N770 G03 X1.4044 Y-1.7099 I-0.024 J-0.0086
N780 X1.384 Y-1.7088 I-0.0117 J-0.0292
N790 X1.365 Y-1.7282 I0.0081 J-0.027
N800 X1.3624 Y-1.7473 I0.0678 J-0.0191
N810 X1.3624 Y-1.7491 I0.0705 J0.
N820 X1.3624 Y-1.7515 I0.0863 J-0.0024
N830 X1.3654 Y-1.7742 I0.0863 J0.
N840 X1.3786 Y-1.7898 I0.0232 J0.0063
N850 X1.3943 Y-1.7923 I0.0127 J0.0295
N860 X1.409 Y-1.7874 I-0.0008 J0.0273
N870 X1.4165 Y-1.7782 I-0.0169 J0.0214
N880 X1.4219 Y-1.7626 I-0.0483 J0.0256
N890 G01 X1.462 Y-1.7751
N900 G02 X1.4586 Y-1.7864 I-0.091 J0.0216
N910 X1.4164 Y-1.8245 I-0.055 J0.0186
N920 X1.383 Y-1.8263 I-0.0227 J0.1108
N930 X1.3514 Y-1.8181 I0.004 J0.0808
N940 X1.3213 Y-1.7813 I0.0343 J0.0587
N950 X1.3165 Y-1.7497 I0.1006 J0.0316
N960 X1.3172 Y-1.7375 I0.1055 J0.
N970 X1.328 Y-1.7036 I0.0777 J-0.0061
N980 X1.3647 Y-1.6768 I0.0525 J-0.0333
N990 X1.4111 Y-1.6747 I0.028 J-0.1066
N1000 X1.4435 Y-1.6901 I-0.0078 J-0.0582
N1010 X1.4609 Y-1.7193 I-0.0499 J-0.0494
N1020 G01 X1.4197 Y-1.7282
N1030 X1.4184 Y-1.7248
N1040 G03 X1.4044 Y-1.7099 I-0.024 J-0.0086
N1050 X1.384 Y-1.7088 I-0.0117 J-0.0292
N1060 X1.365 Y-1.7282 I0.0081 J-0.027
N1070 X1.3624 Y-1.7473 I0.0678 J-0.0191
N1080 X1.3624 Y-1.7491 I0.0705 J0.
N1090 X1.3624 Y-1.7515 I0.0863 J-0.0024
N1100 X1.3654 Y-1.7742 I0.0863 J0.
N1110 X1.3786 Y-1.7898 I0.0232 J0.0063
N1120 X1.3943 Y-1.7923 I0.0127 J0.0295
N1130 X1.409 Y-1.7874 I-0.0008 J0.0273
N1140 X1.4165 Y-1.7782 I-0.0169 J0.0214
N1150 G00 Z0.2
N1160 X1.4838 Y-1.8244
N1170 Z0.14
N1180 G01 Z-0.01 F1.5
N1190 X1.5273 F3.0
N1200 Y-1.7424
N1210 X1.5834 Y-1.8244
N1220 X1.6269
N1230 Y-1.6756
N1240 X1.5834
N1250 Y-1.7581
N1260 X1.527 Y-1.6756
N1270 X1.4838
N1280 Y-1.8244
N1290 X1.5273
N1300 Y-1.7424
N1310 X1.5834 Y-1.8244
N1320 X1.6269
N1330 Y-1.6756
N1340 X1.5834
N1350 Y-1.7581
N1360 X1.527 Y-1.6756
N1370 X1.4838
N1380 Y-1.8244
N1390 G00 Z0.2
N1400 X1.7563 Y-1.7626
N1410 Z0.14
N1420 G01 Z-0.01 F1.5
N1430 X1.7964 Y-1.7751 F3.0
N1440 G02 X1.7929 Y-1.7864 I-0.091 J0.0216
N1450 X1.7508 Y-1.8245 I-0.055 J0.0186
N1460 X1.7174 Y-1.8263 I-0.0227 J0.1108
N1470 X1.6857 Y-1.8181 I0.004 J0.0808
N1480 X1.6557 Y-1.7813 I0.0343 J0.0587
N1490 X1.6508 Y-1.7497 I0.1006 J0.0316
N1500 X1.6515 Y-1.7375 I0.1055 J0.
N1510 X1.6623 Y-1.7036 I0.0777 J-0.0061
N1520 X1.6991 Y-1.6768 I0.0525 J-0.0333
N1530 X1.7454 Y-1.6747 I0.028 J-0.1066
N1540 X1.7779 Y-1.6901 I-0.0078 J-0.0582
N1550 X1.7952 Y-1.7193 I-0.0499 J-0.0494
N1560 G01 X1.754 Y-1.7282
N1570 X1.7528 Y-1.7248
N1580 G03 X1.7387 Y-1.7099 I-0.024 J-0.0086
N1590 X1.7184 Y-1.7088 I-0.0117 J-0.0292
N1600 X1.6994 Y-1.7282 I0.0081 J-0.027
N1610 X1.6967 Y-1.7473 I0.0678 J-0.0191
N1620 X1.6968 Y-1.7491 I0.0705 J0.
N1630 X1.6967 Y-1.7515 I0.0863 J-0.0024
N1640 X1.6998 Y-1.7742 I0.0863 J0.
N1650 X1.713 Y-1.7898 I0.0232 J0.0063
N1660 X1.7286 Y-1.7923 I0.0127 J0.0295
N1670 X1.7434 Y-1.7874 I-0.0008 J0.0273
N1680 X1.7508 Y-1.7782 I-0.0169 J0.0214
N1690 X1.7563 Y-1.7626 I-0.0483 J0.0256
N1700 G01 X1.7964 Y-1.7751
N1710 G02 X1.7929 Y-1.7864 I-0.091 J0.0216
N1720 X1.7508 Y-1.8245 I-0.055 J0.0186
N1730 X1.7174 Y-1.8263 I-0.0227 J0.1108
N1740 X1.6857 Y-1.8181 I0.004 J0.0808
N1750 X1.6557 Y-1.7813 I0.0343 J0.0587
N1760 X1.6508 Y-1.7497 I0.1006 J0.0316
N1770 X1.6515 Y-1.7375 I0.1055 J0.
N1780 X1.6623 Y-1.7036 I0.0777 J-0.0061
N1790 X1.6991 Y-1.6768 I0.0525 J-0.0333
N1800 X1.7454 Y-1.6747 I0.028 J-0.1066
N1810 X1.7779 Y-1.6901 I-0.0078 J-0.0582
N1820 X1.7952 Y-1.7193 I-0.0499 J-0.0494
N1830 G01 X1.754 Y-1.7282
N1840 X1.7528 Y-1.7248
N1850 G03 X1.7387 Y-1.7099 I-0.024 J-0.0086
N1860 X1.7184 Y-1.7088 I-0.0117 J-0.0292
N1870 X1.6994 Y-1.7282 I0.0081 J-0.027
N1880 X1.6967 Y-1.7473 I0.0678 J-0.0191
N1890 X1.6968 Y-1.7491 I0.0705 J0.
N1900 X1.6967 Y-1.7515 I0.0863 J-0.0024
N1910 X1.6998 Y-1.7742 I0.0863 J0.
N1920 X1.713 Y-1.7898 I0.0232 J0.0063
N1930 X1.7286 Y-1.7923 I0.0127 J0.0295
N1940 X1.7434 Y-1.7874 I-0.0008 J0.0273
N1950 X1.7508 Y-1.7782 I-0.0169 J0.0214
N1960 X1.7563 Y-1.7626 I-0.0483 J0.0256
N1970 G00 Z0.2
N1980 X1.9123 Y-1.7782
N1990 Z0.14
N2000 G01 Z-0.01 F1.5
N2010 G03 X1.9177 Y-1.7626 I-0.0483 J0.0256 F3.0
N2020 G01 X1.9578 Y-1.7751
N2030 G02 X1.9544 Y-1.7864 I-0.091 J0.0216
N2040 X1.9122 Y-1.8245 I-0.055 J0.0186
N2050 X1.8788 Y-1.8263 I-0.0227 J0.1108
N2060 X1.8472 Y-1.8181 I0.004 J0.0808
N2070 X1.8171 Y-1.7813 I0.0343 J0.0587
N2080 X1.8123 Y-1.7497 I0.1006 J0.0316
N2090 X1.813 Y-1.7375 I0.1055 J0.
N2100 X1.8238 Y-1.7036 I0.0777 J-0.0061
N2110 X1.8605 Y-1.6768 I0.0525 J-0.0333
N2120 X1.9069 Y-1.6747 I0.028 J-0.1066
N2130 X1.9393 Y-1.6901 I-0.0078 J-0.0582
N2140 X1.9567 Y-1.7193 I-0.0499 J-0.0494
N2150 G01 X1.9155 Y-1.7282
N2160 X1.9142 Y-1.7248
N2170 G03 X1.9002 Y-1.7099 I-0.024 J-0.0086
N2180 X1.8798 Y-1.7088 I-0.0117 J-0.0292
N2190 X1.8608 Y-1.7282 I0.0081 J-0.027
N2200 X1.8582 Y-1.7473 I0.0678 J-0.0191
N2210 X1.8582 Y-1.7491 I0.0705 J0.
N2220 X1.8582 Y-1.7515 I0.0863 J-0.0024
N2230 X1.8612 Y-1.7742 I0.0863 J0.
N2240 X1.8744 Y-1.7898 I0.0232 J0.0063
N2250 X1.8901 Y-1.7923 I0.0127 J0.0295
N2260 X1.9048 Y-1.7874 I-0.0008 J0.0273
N2270 X1.9123 Y-1.7782 I-0.0169 J0.0214
N2280 X1.9177 Y-1.7626 I-0.0483 J0.0256
N2290 G01 X1.9578 Y-1.7751
N2300 G02 X1.9544 Y-1.7864 I-0.091 J0.0216
N2310 X1.9122 Y-1.8245 I-0.055 J0.0186
N2320 X1.8788 Y-1.8263 I-0.0227 J0.1108
N2330 X1.8472 Y-1.8181 I0.004 J0.0808
N2340 X1.8171 Y-1.7813 I0.0343 J0.0587
N2350 X1.8123 Y-1.7497 I0.1006 J0.0316
N2360 X1.813 Y-1.7375 I0.1055 J0.
N2370 X1.8238 Y-1.7036 I0.0777 J-0.0061
N2380 X1.8605 Y-1.6768 I0.0525 J-0.0333
N2390 X1.9069 Y-1.6747 I0.028 J-0.1066
N2400 X1.9393 Y-1.6901 I-0.0078 J-0.0582
N2410 X1.9567 Y-1.7193 I-0.0499 J-0.0494
N2420 G01 X1.9155 Y-1.7282
N2430 X1.9142 Y-1.7248
N2440 G03 X1.9002 Y-1.7099 I-0.024 J-0.0086
N2450 X1.8798 Y-1.7088 I-0.0117 J-0.0292
N2460 X1.8608 Y-1.7282 I0.0081 J-0.027
N2470 X1.8582 Y-1.7473 I0.0678 J-0.0191
N2480 X1.8582 Y-1.7491 I0.0705 J0.
N2490 X1.8582 Y-1.7515 I0.0863 J-0.0024
N2500 X1.8612 Y-1.7742 I0.0863 J0.
N2510 X1.8744 Y-1.7898 I0.0232 J0.0063
N2520 X1.8901 Y-1.7923 I0.0127 J0.0295
N2530 X1.9048 Y-1.7874 I-0.0008 J0.0273
N2540 X1.9123 Y-1.7782 I-0.0169 J0.0214
N2550 G00 Z0.2
N2560 X1.9841 Y-1.8076
N2570 Z0.14
N2580 G01 Z-0.01 F1.5
N2590 G02 X1.9704 Y-1.7726 I0.038 J0.035 F3.0
N2600 X1.9704 Y-1.7709 I0.0517 J0.
N2610 X1.9704 Y-1.7693 I0.0533 J0.0016
N2620 X2.0068 Y-1.7187 I0.0533 J0.
N2630 X2.051 Y-1.7163 I0.0265 J-0.0795
N2640 X2.0854 Y-1.7376 I-0.009 J-0.0532
N2650 X2.0953 Y-1.7693 I-0.046 J-0.0317
N2660 X2.0952 Y-1.7731 I-0.0559 J0.
N2670 X2.0588 Y-1.8228 I-0.0536 J0.0011
N2680 X2.0224 Y-1.8263 I-0.0264 J0.0838
N2690 X1.9841 Y-1.8076 I0.0035 J0.0558
N2700 G00 Z0.2
N2710 X1.9903 Y-1.8136
N2720 Z0.14
N2730 G01 Z-0.01 F1.5
N2740 G03 X2.0232 Y-1.8263 I0.0374 J0.048 F3.0
N2750 X2.0588 Y-1.8228 I0.0096 J0.0855
N2760 X2.0953 Y-1.7722 I-0.0168 J0.0505
N2770 X2.0952 Y-1.7703 I-0.0532 J0.
N2780 X2.0952 Y-1.7688 I-0.0541 J0.0015
N2790 X2.085 Y-1.7371 I-0.0541 J0.
N2800 X2.0478 Y-1.7157 I-0.044 J-0.0335
N2810 X2.0098 Y-1.7176 I-0.0148 J-0.0872
N2820 X1.9704 Y-1.7694 I0.0144 J-0.0519
N2830 X1.9704 Y-1.7709 I0.0538 J0.
N2840 X1.9704 Y-1.7725 I0.0524 J-0.0016
N2850 X1.9903 Y-1.8136 I0.0524 J0.
N2860 G00 Z0.2
N2870 X2.0116 Y-1.7706
N2880 Z0.14
N2890 G01 Z-0.01 F1.5
N2900 G03 X2.0116 Y-1.7717 I0.0446 J-0.0012 F3.0
N2910 X2.0132 Y-1.7833 I0.0446 J0.
N2920 X2.0227 Y-1.7965 I0.0209 J0.005
N2930 X2.0383 Y-1.7986 I0.0103 J0.0177
N2940 X2.0521 Y-1.7847 I-0.0054 J0.0192
N2950 X2.054 Y-1.7703 I-0.0537 J0.0143
N2960 X2.0529 Y-1.7591 I-0.0556 J0.
N2970 X2.0413 Y-1.7437 I-0.0213 J-0.004
N2980 X2.0287 Y-1.7424 I-0.0083 J-0.019
N2990 X2.0145 Y-1.7542 I0.0043 J-0.0197
N3000 X2.0117 Y-1.7679 I0.0338 J-0.0141
N3010 G01 Y-1.7706
N3020 G02 X2.0116 Y-1.7695 I0.0391 J0.001
N3030 X2.0143 Y-1.7554 I0.0391 J0.
N3040 X2.0221 Y-1.7453 I0.0204 J-0.0077
N3050 X2.0423 Y-1.7439 I0.0114 J-0.0176
N3060 X2.0511 Y-1.7534 I-0.0085 J-0.0166
N3070 X2.054 Y-1.7681 I-0.0352 J-0.0146
N3080 X2.054 Y-1.7683 I-0.0382 J0.
N3090 X2.054 Y-1.7708 I-0.0488 J-0.0025
N3100 X2.0524 Y-1.7833 I-0.0489 J0.
N3110 X2.0473 Y-1.7932 I-0.0235 J0.0059
N3120 X2.0329 Y-1.7992 I-0.0137 J0.0125
N3130 X2.02 Y-1.7946 I-0.0006 J0.0188
N3140 X2.0132 Y-1.7833 I0.0165 J0.0175
N3150 X2.0116 Y-1.7709 I0.047 J0.0124
N3160 X2.0116 Y-1.7706 I0.0486 J0.
N3170 G00 Z0.2
N3180 X2.109 Y-1.7709
N3190 Z0.14
N3200 G01 Z-0.01 F1.5
N3210 G03 X2.1089 Y-1.7725 I0.0524 J-0.0016 F3.0
N3220 X2.1288 Y-1.8136 I0.0524 J0.
N3230 X2.1617 Y-1.8263 I0.0374 J0.048
N3240 X2.1974 Y-1.8228 I0.0096 J0.0855
N3250 X2.2338 Y-1.7722 I-0.0168 J0.0505
N3260 X2.2338 Y-1.7703 I-0.0532 J0.
N3270 X2.2338 Y-1.7688 I-0.0541 J0.0015
N3280 X2.2235 Y-1.7371 I-0.0541 J0.
N3290 X2.1864 Y-1.7157 I-0.044 J-0.0335
N3300 X2.1484 Y-1.7176 I-0.0148 J-0.0872
N3310 X2.1089 Y-1.7694 I0.0144 J-0.0519
N3320 X2.109 Y-1.7709 I0.0538 J0.
N3330 X2.1089 Y-1.7726 I0.0517 J-0.0016
N3340 X2.1226 Y-1.8076 I0.0517 J0.
N3350 X2.1609 Y-1.8263 I0.0418 J0.0371
N3360 X2.1974 Y-1.8228 I0.01 J0.0872
N3370 X2.2337 Y-1.7731 I-0.0172 J0.0508
N3380 X2.2338 Y-1.7693 I-0.0558 J0.0038
N3390 X2.224 Y-1.7376 I-0.0559 J0.
N3400 X2.1895 Y-1.7163 I-0.0435 J-0.0319
N3410 X2.1453 Y-1.7187 I-0.0178 J-0.0819
N3420 X2.1089 Y-1.7693 I0.017 J-0.0506
N3430 X2.109 Y-1.7709 I0.0533 J0.
N3440 G00 Z0.2
N3450 X2.1517 Y-1.7833
N3460 Z0.14
N3470 G01 Z-0.01 F1.5
N3480 G03 X2.1612 Y-1.7965 I0.0209 J0.005 F3.0
N3490 X2.1769 Y-1.7986 I0.0103 J0.0177
N3500 X2.1907 Y-1.7847 I-0.0054 J0.0192
N3510 X2.1926 Y-1.7703 I-0.0537 J0.0143
N3520 X2.1914 Y-1.7591 I-0.0556 J0.
N3530 X2.1799 Y-1.7437 I-0.0213 J-0.004
N3540 X2.1673 Y-1.7424 I-0.0083 J-0.019
N3550 X2.1531 Y-1.7542 I0.0043 J-0.0197
N3560 X2.1502 Y-1.7679 I0.0338 J-0.0141
N3570 G01 Y-1.7706
N3580 G03 X2.1502 Y-1.7717 I0.0446 J-0.0012
N3590 X2.1517 Y-1.7833 I0.0446 J0.
N3600 G00 Z0.2
N3610 X2.1528 Y-1.7554
N3620 Z0.14
N3630 G01 Z-0.01 F1.5
N3640 G03 X2.1502 Y-1.7695 I0.0365 J-0.0141 F3.0
N3650 X2.1502 Y-1.7706 I0.0391 J0.
N3660 X2.1502 Y-1.7709 I0.0486 J-0.0003
N3670 X2.1518 Y-1.7833 I0.0486 J0.
N3680 X2.1585 Y-1.7946 I0.0232 J0.0061
N3690 X2.1714 Y-1.7992 I0.0124 J0.0142
N3700 X2.1858 Y-1.7932 I0.0007 J0.0185
N3710 X2.191 Y-1.7833 I-0.0184 J0.0158
N3720 X2.1926 Y-1.7708 I-0.0473 J0.0125
N3730 X2.1925 Y-1.7683 I-0.0489 J0.
N3740 X2.1925 Y-1.7681 I-0.0382 J0.0002
N3750 X2.1896 Y-1.7534 I-0.0382 J0.
N3760 X2.1809 Y-1.7439 I-0.0172 J-0.0071
N3770 X2.1606 Y-1.7453 I-0.0089 J-0.019
N3780 X2.1528 Y-1.7554 I0.0126 J-0.0178
N3790 G00 Z0.2
N3800 X2.2532 Y-1.8244
N3810 Z0.14
N3820 G01 Z-0.01 F1.5
N3830 X2.2945 F3.0
N3840 Y-1.7965
N3850 X2.3098 Y-1.7816
N3860 X2.3324 Y-1.8244
N3870 X2.3792
N3880 X2.3379 Y-1.7545
N3890 X2.3769 Y-1.7168
N3900 X2.3256
N3910 X2.2945 Y-1.7517
N3920 Y-1.6756
N3930 X2.2532
N3940 Y-1.8244
N3950 X2.2945
N3960 Y-1.7965
N3970 X2.3098 Y-1.7816
N3980 X2.3324 Y-1.8244
N3990 X2.3792
N4000 X2.3379 Y-1.7545
N4010 X2.3769 Y-1.7168
N4020 X2.3256
N4030 X2.2945 Y-1.7517
N4040 Y-1.6756
N4050 X2.2532
N4060 Y-1.8244
N4070 G00 Z0.2
N4080 X2.3918
N4090 Z0.14
N4100 G01 Z-0.01 F1.5
N4110 X2.43 F3.0
N4120 Y-1.8087
N4130 G03 X2.4432 Y-1.8211 I0.0445 J0.034
N4140 G01 X2.445 Y-1.8221
N4150 G03 X2.4898 Y-1.8192 I0.0199 J0.0405
N4160 X2.5049 Y-1.8001 I-0.0257 J0.0359
N4170 X2.5109 Y-1.7695 I-0.075 J0.0305
N4180 X2.5108 Y-1.7658 I-0.081 J0.
N4190 X2.5058 Y-1.7409 I-0.0667 J-0.0005
N4200 X2.4601 Y-1.7147 I-0.0402 J-0.0172
N4210 X2.433 Y-1.7275 I0.0029 J-0.0413
N4220 G01 Y-1.6756
N4230 X2.3918
N4240 Y-1.8244
N4250 X2.43
N4260 Y-1.8087
N4270 G03 X2.4432 Y-1.8211 I0.0445 J0.034
N4280 G01 X2.445 Y-1.8221
N4290 G03 X2.4898 Y-1.8192 I0.0199 J0.0405
N4300 X2.5049 Y-1.8001 I-0.0257 J0.0359
N4310 X2.5109 Y-1.7695 I-0.075 J0.0305
N4320 X2.5108 Y-1.7658 I-0.081 J0.
N4330 X2.5058 Y-1.7409 I-0.0667 J-0.0005
N4340 X2.4601 Y-1.7147 I-0.0402 J-0.0172
N4350 X2.433 Y-1.7275 I0.0029 J-0.0413
N4360 G01 Y-1.6756
N4370 X2.3918
N4380 Y-1.8244
N4390 G00 Z0.2
N4400 X2.4348 Y-1.785
N4410 Z0.14
N4420 G01 Z-0.01 F1.5
N4430 G03 X2.4645 Y-1.7908 I0.0165 J0.0054 F3.0
N4440 X2.4684 Y-1.7826 I-0.0166 J0.0128
N4450 X2.4697 Y-1.7705 I-0.0557 J0.0121
N4460 X2.4689 Y-1.7615 I-0.0569 J0.
N4470 X2.4663 Y-1.7539 I-0.0224 J-0.0034
N4480 X2.4566 Y-1.746 I-0.0147 J-0.0081
N4490 X2.4389 Y-1.7509 I-0.0047 J-0.0176
N4500 X2.4338 Y-1.7607 I0.0149 J-0.014
N4510 X2.4327 Y-1.7703 I0.0436 J-0.0096
N4520 X2.4327 Y-1.7706 I0.0447 J0.
N4530 X2.4327 Y-1.772 I0.0405 J-0.0014
N4540 X2.4348 Y-1.785 I0.0405 J0.
N4550 G00 Z0.2
N4560 X2.437 Y-1.7542
N4570 Z0.14
N4580 G01 Z-0.01 F1.5
N4590 G03 X2.4327 Y-1.7695 I0.0252 J-0.0153 F3.0
N4600 X2.4327 Y-1.7706 I0.0295 J0.
N4610 X2.4327 Y-1.7714 I0.0425 J-0.0008
N4620 X2.4349 Y-1.7849 I0.0425 J0.
N4630 X2.4409 Y-1.7935 I0.0183 J0.0063
N4640 X2.4537 Y-1.7969 I0.0106 J0.0142
N4650 X2.4648 Y-1.7908 I-0.0008 J0.0146
N4660 X2.4681 Y-1.7838 I-0.0167 J0.012
N4670 X2.4697 Y-1.771 I-0.0495 J0.0128
N4680 X2.4696 Y-1.7684 I-0.0512 J0.
N4690 X2.4672 Y-1.7548 I-0.0385 J0.
N4700 X2.4599 Y-1.7469 I-0.0139 J-0.0055
N4710 X2.437 Y-1.7542 I-0.0072 J-0.0168
N4720 G00 Z0.2
N4730 X2.5383 Y-1.8076
N4740 Z0.14
N4750 G01 Z-0.01 F1.5
N4760 G03 X2.5766 Y-1.8263 I0.0418 J0.0371 F3.0
N4770 X2.613 Y-1.8228 I0.01 J0.0872
N4780 X2.6494 Y-1.7731 I-0.0172 J0.0508
N4790 X2.6495 Y-1.7693 I-0.0558 J0.0038
N4800 X2.6396 Y-1.7376 I-0.0559 J0.
N4810 X2.6052 Y-1.7163 I-0.0435 J-0.0319
N4820 X2.561 Y-1.7187 I-0.0178 J-0.0819
N4830 X2.5246 Y-1.7693 I0.017 J-0.0506
N4840 X2.5246 Y-1.7709 I0.0533 J0.
N4850 X2.5246 Y-1.7726 I0.0517 J-0.0016
N4860 X2.5383 Y-1.8076 I0.0517 J0.
N4870 G00 Z0.2
N4880 X2.5445 Y-1.8136
N4890 Z0.14
N4900 G01 Z-0.01 F1.5
N4910 G03 X2.5774 Y-1.8263 I0.0374 J0.048 F3.0
N4920 X2.613 Y-1.8228 I0.0096 J0.0855
N4930 X2.6495 Y-1.7722 I-0.0168 J0.0505
N4940 X2.6494 Y-1.7703 I-0.0532 J0.
N4950 X2.6494 Y-1.7688 I-0.0541 J0.0015
N4960 X2.6392 Y-1.7371 I-0.0541 J0.
N4970 X2.602 Y-1.7157 I-0.044 J-0.0335
N4980 X2.564 Y-1.7176 I-0.0148 J-0.0872
N4990 X2.5246 Y-1.7694 I0.0144 J-0.0519
N5000 X2.5246 Y-1.7709 I0.0538 J0.
N5010 X2.5246 Y-1.7725 I0.0524 J-0.0016
N5020 X2.5445 Y-1.8136 I0.0524 J0.
N5030 G00 Z0.2
N5040 X2.5674 Y-1.7833
N5050 Z0.14
N5060 G01 Z-0.01 F1.5
N5070 G03 X2.5769 Y-1.7965 I0.0209 J0.005 F3.0
N5080 X2.5925 Y-1.7986 I0.0103 J0.0177
N5090 X2.6063 Y-1.7847 I-0.0054 J0.0192
N5100 X2.6082 Y-1.7703 I-0.0537 J0.0143
N5110 X2.6071 Y-1.7591 I-0.0556 J0.
N5120 X2.5955 Y-1.7437 I-0.0213 J-0.004
N5130 X2.5829 Y-1.7424 I-0.0083 J-0.019
N5140 X2.5687 Y-1.7542 I0.0043 J-0.0197
N5150 X2.5659 Y-1.7679 I0.0338 J-0.0141
N5160 G01 Y-1.7706
N5170 G03 X2.5658 Y-1.7717 I0.0446 J-0.0012
N5180 X2.5674 Y-1.7833 I0.0446 J0.
N5190 G00 Z0.2
N5200 X2.5685 Y-1.7554
N5210 Z0.14
N5220 G01 Z-0.01 F1.5
N5230 G02 X2.5763 Y-1.7453 I0.0204 J-0.0077 F3.0
N5240 X2.5965 Y-1.7439 I0.0114 J-0.0176
N5250 X2.6053 Y-1.7534 I-0.0085 J-0.0166
N5260 X2.6082 Y-1.7681 I-0.0352 J-0.0146
N5270 X2.6082 Y-1.7683 I-0.0382 J0.
N5280 X2.6082 Y-1.7708 I-0.0488 J-0.0025
N5290 X2.6066 Y-1.7833 I-0.0489 J0.
N5300 X2.6015 Y-1.7932 I-0.0235 J0.0059
N5310 X2.5871 Y-1.7992 I-0.0137 J0.0125
N5320 X2.5742 Y-1.7946 I-0.0006 J0.0188
N5330 X2.5674 Y-1.7833 I0.0165 J0.0175
N5340 X2.5658 Y-1.7709 I0.047 J0.0124
N5350 X2.5658 Y-1.7706 I0.0486 J0.
N5360 X2.5658 Y-1.7695 I0.0391 J0.001
N5370 X2.5685 Y-1.7554 I0.0391 J0.
N5380 G00 Z0.2
N5390 X2.6768 Y-1.8076
N5400 Z0.14
N5410 G01 Z-0.01 F1.5
N5420 G03 X2.7151 Y-1.8263 I0.0418 J0.0371 F3.0
N5430 X2.7516 Y-1.8228 I0.01 J0.0872
N5440 X2.7879 Y-1.7731 I-0.0172 J0.0508
N5450 X2.788 Y-1.7693 I-0.0558 J0.0038
N5460 X2.7782 Y-1.7376 I-0.0559 J0.
N5470 X2.7437 Y-1.7163 I-0.0435 J-0.0319
N5480 X2.6995 Y-1.7187 I-0.0178 J-0.0819
N5490 X2.6631 Y-1.7693 I0.017 J-0.0506
N5500 X2.6632 Y-1.7709 I0.0533 J0.
N5510 X2.6631 Y-1.7726 I0.0517 J-0.0016
N5520 X2.6768 Y-1.8076 I0.0517 J0.
N5530 G00 Z0.2
N5540 X2.683 Y-1.8136
N5550 Z0.14
N5560 G01 Z-0.01 F1.5
N5570 G03 X2.7159 Y-1.8263 I0.0374 J0.048 F3.0
N5580 X2.7516 Y-1.8228 I0.0096 J0.0855
N5590 X2.788 Y-1.7722 I-0.0168 J0.0505
N5600 X2.788 Y-1.7703 I-0.0532 J0.
N5610 X2.788 Y-1.7688 I-0.0541 J0.0015
N5620 X2.7777 Y-1.7371 I-0.0541 J0.
N5630 X2.7406 Y-1.7157 I-0.044 J-0.0335
N5640 X2.7025 Y-1.7176 I-0.0148 J-0.0872
N5650 X2.6631 Y-1.7694 I0.0144 J-0.0519
N5660 X2.6632 Y-1.7709 I0.0538 J0.
N5670 X2.6631 Y-1.7725 I0.0524 J-0.0016
N5680 X2.683 Y-1.8136 I0.0524 J0.
N5690 G00 Z0.2
N5700 X2.7059 Y-1.7833
N5710 Z0.14
N5720 G01 Z-0.01 F1.5
N5730 G02 X2.7044 Y-1.7717 I0.0431 J0.0116 F3.0
N5740 X2.7044 Y-1.7706 I0.0446 J0.
N5750 G01 Y-1.7679
N5760 G02 X2.7073 Y-1.7542 I0.0366 J-0.0004
N5770 X2.7215 Y-1.7424 I0.0185 J-0.0079
N5780 X2.7341 Y-1.7437 I0.0043 J-0.0203
N5790 X2.7456 Y-1.7591 I-0.0097 J-0.0193
N5800 X2.7468 Y-1.7703 I-0.0545 J-0.0113
N5810 X2.7449 Y-1.7847 I-0.0556 J0.
N5820 X2.7311 Y-1.7986 I-0.0192 J0.0053
N5830 X2.7154 Y-1.7965 I-0.0054 J0.0198
N5840 X2.7059 Y-1.7833 I0.0114 J0.0182
N5850 G00 Z0.2
N5860 X2.707 Y-1.7554
N5870 Z0.14
N5880 G01 Z-0.01 F1.5
N5890 G02 X2.7148 Y-1.7453 I0.0204 J-0.0077 F3.0
N5900 X2.7351 Y-1.7439 I0.0114 J-0.0176
N5910 X2.7438 Y-1.7534 I-0.0085 J-0.0166
N5920 X2.7467 Y-1.7681 I-0.0352 J-0.0146
N5930 X2.7467 Y-1.7683 I-0.0382 J0.
N5940 X2.7468 Y-1.7708 I-0.0488 J-0.0025
N5950 X2.7452 Y-1.7833 I-0.0489 J0.
N5960 X2.74 Y-1.7932 I-0.0235 J0.0059
N5970 X2.7256 Y-1.7992 I-0.0137 J0.0125
N5980 X2.7127 Y-1.7946 I-0.0006 J0.0188
N5990 X2.706 Y-1.7833 I0.0165 J0.0175
N6000 X2.7044 Y-1.7709 I0.047 J0.0124
N6010 X2.7044 Y-1.7706 I0.0486 J0.
N6020 X2.7044 Y-1.7695 I0.0391 J0.001
N6030 X2.707 Y-1.7554 I0.0391 J0.
N6040 G00 Z0.2
N6050 X2.8074 Y-1.8244
N6060 Z0.14
N6070 G01 Z-0.01 F1.5
N6080 X2.8487 F3.0
N6090 Y-1.7965
N6100 X2.864 Y-1.7816
N6110 X2.8866 Y-1.8244
N6120 X2.9334
N6130 X2.8921 Y-1.7545
N6140 X2.9311 Y-1.7168
N6150 X2.8798
N6160 X2.8487 Y-1.7517
N6170 Y-1.6756
N6180 X2.8074
N6190 Y-1.8244
N6200 X2.8487
N6210 Y-1.7965
N6220 X2.864 Y-1.7816
N6230 X2.8866 Y-1.8244
N6240 X2.9334
N6250 X2.8921 Y-1.7545
N6260 X2.9311 Y-1.7168
N6270 X2.8798
N6280 X2.8487 Y-1.7517
N6290 Y-1.6756
N6300 X2.8074
N6310 Y-1.8244
N6320 G00 Z0.2
N6330 X2.8748 Y-2.
N6340 Z0.14
N6350 G01 Z-0.01 F1.5
N6360 X1.375 F3.0
N6370 G02 X1.125 Y-1.75 I0. J0.25
N6380 X1.381 Y-1.5 I0.25 J0.
N6390 G01 X2.8705
N6400 G02 X3.125 Y-1.75 I0.0044 J-0.25
N6410 X2.8748 Y-2. I-0.25 J0.
N6420 G01 X1.375
N6430 G02 X1.2126 Y-1.9399 I0.0006 J0.2512
N6440 X1.125 Y-1.7501 I0.1617 J0.1899
N6450 X1.1261 Y-1.7269 I0.2494 J0.
N6460 X1.381 Y-1.5 I0.2493 J-0.0234
N6470 G01 X2.8705
N6480 G02 X2.9121 Y-1.5028 I0.0044 J-0.2473
N6490 X3.1135 Y-1.6747 I-0.0377 J-0.2481
N6500 X3.125 Y-1.7498 I-0.2389 J-0.0752
N6510 X3.0675 Y-1.9095 I-0.2504 J0.
N6520 X2.8748 Y-2. I-0.1932 J0.1609
N6530 G00 Z0.2
N6540 X3.75 Y-1.75
N6550 Z0.14
N6560 G01 Z-0.01 F1.5
N6570 G02 X3.5 Y-1.75 I-0.125 J0. F3.0
N6580 X3.75 Y-1.75 I0.125 J0.
N6590 G00 Z0.2
N6600 X3.844
N6610 Z0.14
N6620 G01 Z-0.01 F1.5
N6630 G02 X3.406 Y-1.75 I-0.219 J0. F3.0
N6640 X3.844 Y-1.75 I0.219 J0.
N6650 X3.406 Y-1.75 I-0.219 J0.
N6660 X3.844 Y-1.75 I0.219 J0.
N6670 G03 X3.406 Y-1.75 I-0.219 J0.
N6680 X3.844 Y-1.75 I0.219 J0.
N6690 X3.406 Y-1.75 I-0.219 J0.
N6700 X3.844 Y-1.75 I0.219 J0.
N6710 G00 Z0.2
N6720 Y-0.75
N6730 Z0.14
N6740 G01 Z-0.01 F1.5
N6750 G03 X3.406 Y-0.75 I-0.219 J0. F3.0
N6760 X3.844 Y-0.75 I0.219 J0.
N6770 X3.406 Y-0.75 I-0.219 J0.
N6780 X3.844 Y-0.75 I0.219 J0.
N6790 G02 X3.406 Y-0.75 I-0.219 J0.
N6800 X3.844 Y-0.75 I0.219 J0.
N6810 G03 X3.406 Y-0.75 I-0.219 J0.
N6820 X3.844 Y-0.75 I0.219 J0.
N6830 G00 Z0.2
N6840 X3.75
N6850 Z0.14
N6860 G01 Z-0.01 F1.5
N6870 G02 X3.5 Y-0.75 I-0.125 J0. F3.0
N6880 X3.75 Y-0.75 I0.125 J0.
N6890 G00 Z0.2
N6900 X3.8731 Y-0.25
N6910 Z0.14
N6920 G01 Z-0.01 F1.5
N6930 G02 X4.125 Y-0.4992 I0.0019 J-0.25 F3.0
N6940 G01 Y-0.5213
N6950 Y-1.9963
N6960 G02 X4.125 Y-1.9999 I-0.2502 J-0.0036
N6970 X3.8667 Y-2.25 I-0.2503 J0.
N6980 G01 X0.4563
N6990 X0.3747
N7000 G02 X0.125 Y-2. I0.0003 J0.25
N7010 X0.125 Y-1.9996 I0.25 J0.
N7020 G01 Y-1.5099
N7030 G02 X0.1248 Y-1.5003 I0.2501 J0.0096
N7040 X0.3754 Y-1.25 I0.2503 J0.
N7050 G01 X2.3616
N7060 G03 X2.4492 Y-1.2387 I0.0111 J0.2602
N7070 X2.625 Y-0.9999 I-0.0742 J0.2388
N7080 X2.625 Y-0.9964 I-0.2501 J0.
N7090 G01 Y-0.5016
N7100 G02 X2.625 Y-0.5 I0.25 J0.0016
N7110 X2.875 Y-0.25 I0.25 J0.
N7120 G01 X3.8731
N7130 G00 Z0.2
N7140 X2.6703 Y-0.3572
N7150 Z0.14
N7160 G01 Z-0.01 F1.5
N7170 G02 X2.875 Y-0.25 I0.2055 J-0.1433 F3.0
N7180 G01 X3.796
N7190 X3.854
N7200 G02 X3.8889 Y-0.2508 I0.0027 J-0.6684
N7210 X4.1216 Y-0.4594 I-0.014 J-0.2496
N7220 X4.1252 Y-0.5149 I-0.4199 J-0.0555
N7230 X4.125 Y-0.5287 I-0.4236 J0.
N7240 G01 Y-1.9398
N7250 G03 X4.1253 Y-1.9924 I6.0449 J0.0072
N7260 G02 X4.1254 Y-1.9996 I-0.2481 J-0.0072
N7270 X4.0579 Y-2.1697 I-0.2482 J0.
N7280 X3.8882 Y-2.2496 I-0.1833 J0.169
N7290 X3.8371 Y-2.2501 I-0.0348 J1.0447
N7300 G03 X3.7447 Y-2.25 I-0.0696 J-21.9342
N7310 G01 X0.4177
N7320 G02 X0.385 Y-2.2501 I-0.0303 J3.9346
N7330 X0.2207 Y-2.1964 I-0.0089 J0.2513
N7340 X0.1322 Y-2.0597 I0.1603 J0.2006
N7350 X0.1249 Y-1.9952 I0.2774 J0.0644
N7360 X0.125 Y-1.9862 I0.2848 J0.
N7370 G01 Y-1.5648
N7380 G03 X0.125 Y-1.557 I-4.9923 J0.0078
N7390 X0.1248 Y-1.51 I-4.9923 J0.
N7400 G02 X0.1247 Y-1.5019 I0.2543 J0.0081
N7410 X0.165 Y-1.3644 I0.2544 J0.
N7420 X0.3777 Y-1.25 I0.211 J-0.1373
N7430 G01 X2.374
N7440 G03 X2.4361 Y-1.2423 I0.0016 J0.2422
N7450 X2.6108 Y-1.0832 I-0.062 J0.2435
N7460 X2.6252 Y-0.9982 I-0.2435 J0.085
N7470 X2.625 Y-0.989 I-0.2579 J0.
N7480 G01 Y-0.5675
N7490 G03 X2.625 Y-0.5592 I-3.8658 J0.0084
N7500 X2.6247 Y-0.5127 I-3.8658 J0.
N7510 G02 X2.6245 Y-0.5031 I0.2553 J0.0096
N7520 X2.6703 Y-0.3572 I0.2555 J0.
N7530 X2.875 Y-0.25 I0.2055 J-0.1433
N7540 G01 X3.796
N7550 X3.854
N7560 G02 X3.8889 Y-0.2508 I0.0027 J-0.6684
N7570 X4.1216 Y-0.4594 I-0.014 J-0.2496
N7580 X4.1252 Y-0.5149 I-0.4199 J-0.0555
N7590 X4.125 Y-0.5287 I-0.4236 J0.
N7600 G01 Y-1.9398
N7610 G03 X4.1253 Y-1.9924 I6.0449 J0.0072
N7620 G02 X4.1254 Y-1.9996 I-0.2481 J-0.0072
N7630 X4.0579 Y-2.1697 I-0.2482 J0.
N7640 X3.8882 Y-2.2496 I-0.1833 J0.169
N7650 X3.8371 Y-2.2501 I-0.0348 J1.0447
N7660 G03 X3.7447 Y-2.25 I-0.0696 J-21.9342
N7670 G01 X0.4177
N7680 G02 X0.385 Y-2.2501 I-0.0303 J3.9346
N7690 X0.2207 Y-2.1964 I-0.0089 J0.2513
N7700 X0.1322 Y-2.0597 I0.1603 J0.2006
N7710 X0.1249 Y-1.9952 I0.2774 J0.0644
N7720 X0.125 Y-1.9862 I0.2848 J0.
N7730 G01 Y-1.5648
N7740 G03 X0.125 Y-1.557 I-4.9923 J0.0078
N7750 X0.1248 Y-1.51 I-4.9923 J0.
N7760 G02 X0.1247 Y-1.5019 I0.2543 J0.0081
N7770 X0.165 Y-1.3644 I0.2544 J0.
N7780 X0.3777 Y-1.25 I0.211 J-0.1373
N7790 G01 X2.374
N7800 G03 X2.4361 Y-1.2423 I0.0016 J0.2422
N7810 X2.6108 Y-1.0832 I-0.062 J0.2435
N7820 X2.6252 Y-0.9982 I-0.2435 J0.085
N7830 X2.625 Y-0.989 I-0.2579 J0.
N7840 G01 Y-0.5675
N7850 G03 X2.625 Y-0.5592 I-3.8658 J0.0084
N7860 X2.6247 Y-0.5127 I-3.8658 J0.
N7870 G02 X2.6245 Y-0.5031 I0.2553 J0.0096
N7880 X2.6703 Y-0.3572 I0.2555 J0.
N7890 G00 Z0.2
N7900 X2.625 Y-0.501
N7910 Z0.14
N7920 G01 Z-0.01 F1.5
N7930 Y-1. F3.0
N7940 G02 X2.374 Y-1.25 I-0.25 J0.
N7950 G01 X0.3777
N7960 G03 X0.1248 Y-1.5003 I-0.0026 J-0.2503
N7970 X0.125 Y-1.5093 I0.2503 J0.
N7980 G01 Y-1.9973
N7990 G03 X0.125 Y-1.9999 I0.2503 J-0.0026
N8000 X0.3844 Y-2.25 I0.2503 J0.
N8010 G01 X3.8693
N8020 G03 X4.1253 Y-1.9994 I0.0053 J0.2506
N8030 X4.125 Y-1.987 I-0.2506 J0.
N8040 G01 Y-0.5289
N8050 G03 X4.1254 Y-0.5109 I-0.3791 J0.018
N8060 X4.1234 Y-0.4721 I-0.3795 J0.
N8070 X3.8708 Y-0.25 I-0.2485 J-0.0279
N8080 G01 X2.875
N8090 G03 X2.625 Y-0.5 I0. J-0.25
N8100 X2.625 Y-0.501 I0.25 J0.
N8110 G00 Z0.2
N8120 (END TOOL)
N8130 M5
N8140 M09
N8150 M25
N8160 M30
%
