%
O0000
N10 (PART - )
N20 (FILE - E:\THEWARFIELDS\CNCCOOKBOOK\IMG\MILLSTUFF\TRAMADJUSTER\TRAMFINEAD)
N30 (AUTHOR - BOB WARFIELD)
N40 (GROUP - TOOLPATH GROUP #1)
N50 (POSTED - SATURDAY, JULY 03, 2010 13:47)
N60 (CREATED - SATURDAY, JULY 03, 2010 13:19)
N70 (SYSTEM- ONECNC-XR4 MILL 3D ADVANTAGE - VERSION 20.46)
N80 (NOTES - NONE)
N90 G49
N100 G17 G40
N110 G49
N120 G17 G40
N130 G20
N140 G80
N150 G90
N160 G98
N170 (0.5INCH END MILL)
N180 T0 M06
N190 S1600
N200 M08
N210 G43 H0 D0
N220 G00 X3.434 Y-2.697 Z0.2
N230 Z0.05
N240 G01 Z-0.6 F25.0 S1600
N250 X3.3993 Y-2.5 F50.0
N260 X0.3881
N270 G02 X-0.125 Y-1.9999 I-0.0129 J0.5001
N280 X-0.125 Y-1.9962 I0.5003 J0.
N290 G01 Y-1.5131
N300 G02 X-0.1252 Y-1.5003 I0.5001 J0.0128
N310 X0.3788 Y-1. I0.5003 J0.
N320 G01 X2.374
N330 G02 X2.375 Y-1. I0. J-0.25
N340 G00 Z0.2
N350 Y-0.5014
N360 Z0.05
N370 G01 Z-0.6 F25.0
N380 G02 X2.375 Y-0.5 I0.5 J0.0014 F50.0
N390 X2.875 Y0. I0.5 J0.
N400 G01 X3.8691
N410 G02 X4.3719 Y-0.4442 I0.0058 J-0.5
N420 X4.3721 Y-0.4466 I-0.2484 J-0.0279
N430 X4.3754 Y-0.5109 I-0.6262 J-0.0643
N440 X4.375 Y-0.5341 I-0.6295 J0.
N450 G01 Y-1.9818
N460 G02 X4.3753 Y-1.9994 I-0.5003 J-0.0176
N470 X3.8671 Y-2.5 I-0.5006 J0.
N480 G01 X3.3993
N490 X3.3646 Y-2.697
N500 G00 Z0.2
N510 (END TOOL)
N520 M5
N530 M09
N540 M25
N550 M30
%
