%
O0000
N10 (PART - )
N20 (FILE - E:\THEWARFIELDS\CNCCOOKBOOK\IMG\MILLSTUFF\TRAMADJUSTER\TRAMFINEAD)
N30 (AUTHOR - BOB WARFIELD)
N40 (GROUP - TOOLPATH GROUP #1)
N50 (POSTED - SATURDAY, JULY 03, 2010 13:46)
N60 (CREATED - SATURDAY, JULY 03, 2010 13:19)
N70 (SYSTEM- ONECNC-XR4 MILL 3D ADVANTAGE - VERSION 20.46)
N80 (NOTES - NONE)
N90 G49
N100 G17 G40
N110 G49
N120 G17 G40
N130 G20
N140 G80
N150 G90
N160 G98
N170 (0.25INCH DRILL, 118 INC)
N180 T0 M06
N190 S1600
N200 M08
N210 G43 H0 D0
N220 G00 X0.625 Y-1.75 Z0.2
N230 Z0.05
N240 G01 Z-0.0472 F5.0 S1600
N250 G00 Z0.0028
N260 G01 Z-0.1445
N270 G00 Z-0.0945
N280 G01 Z-0.2417
N290 G00 Z-0.1917
N300 G01 Z-0.3389
N310 G00 Z-0.2889
N320 G01 Z-0.4362
N330 G00 Z-0.3862
N340 G01 Z-0.5334
N350 G00 Z-0.4834
N360 G01 Z-0.6306
N370 G00 Z-0.5806
N380 G01 Z-0.7279
N390 G00 Z-0.6779
N400 G01 Z-0.8251
N410 G00 Z0.05
N420 G00 Z0.2
N430 (END TOOL)
N440 M5
N450 M09
N460 M25
N470 M30
%
