%
O0000
N10 (PART - )
N20 (FILE - E:\THEWARFIELDS\CNCCOOKBOOK\IMG\MILLSTUFF\TRAMADJUSTER\TRAMFINEAD)
N30 (AUTHOR - BOB WARFIELD)
N40 (GROUP - TOOLPATH GROUP #1)
N50 (POSTED - SATURDAY, JULY 03, 2010 13:46)
N60 (CREATED - SATURDAY, JULY 03, 2010 13:19)
N70 (SYSTEM- ONECNC-XR4 MILL 3D ADVANTAGE - VERSION 20.46)
N80 (NOTES - NONE)
N90 G49
N100 G17 G40
N110 G49
N120 G17 G40
N130 G20
N140 G80
N150 G90
N160 G98
N170 (0.25INCH END MILL)
N180 T0 M06
N190 S1600
N200 M08
N210 G43 H0 D0
N220 G00 X3.625 Y-0.875 Z0.2
N230 Z0.05
N240 G01 Z-0.25 F10.0 S1600
N250 G03 X3.75 Y-0.75 I0. J0.125 F20.0
N260 X3.5 Y-0.75 I-0.125 J0.
N270 X3.625 Y-0.875 I0.125 J0.
N280 X3.6875 Y-0.8125 I0. J0.0625
N290 X3.625 Y-0.75 I-0.0625 J0.
N300 G00 Z0.2
N310 Y-1.875
N320 Z0.05
N330 G01 Z-0.25 F10.0
N340 G03 X3.75 Y-1.75 I0. J0.125 F20.0
N350 X3.5 Y-1.75 I-0.125 J0.
N360 X3.625 Y-1.875 I0.125 J0.
N370 X3.6875 Y-1.8125 I0. J0.0625
N380 X3.625 Y-1.75 I-0.0625 J0.
N390 G00 Z0.2
N400 (END TOOL)
N410 M5
N420 M09
N430 M25
N440 M30
%
