%
O0000
N10 (PART - )
N20 (FILE - E:\THEWARFIELDS\CNCCOOKBOOK\IMG\MILLSTUFF\TRAMADJUSTER\TRAMFINEAD)
N30 (AUTHOR - BOB WARFIELD)
N40 (GROUP - TOOLPATH GROUP #1)
N50 (POSTED - SATURDAY, JULY 03, 2010 13:47)
N60 (CREATED - SATURDAY, JULY 03, 2010 13:19)
N70 (SYSTEM- ONECNC-XR4 MILL 3D ADVANTAGE - VERSION 20.46)
N80 (NOTES - NONE)
N90 G49
N100 G17 G40
N110 G49
N120 G17 G40
N130 G20
N140 G80
N150 G90
N160 G98
N170 (0.5INCH END MILL)
N180 T0 M06
N190 S1600
N200 M08
N210 G43 H0 D0
N220 G00 X3.5061 Y-3.587 Z0.2
N230 Z0.05
N240 G01 Z-0.2 F25.0 S1600
N250 X3.4714 Y-3.39 F50.0
N260 X0.3967
N270 G02 X-1.015 Y-1.9999 I-0.0214 J1.3901
N280 X-1.015 Y-1.9938 I1.3903 J0.
N290 G01 Y-1.5216
N300 G02 X-1.0152 Y-1.5003 I1.3901 J0.0213
N310 X0.3813 Y-0.11 I1.3903 J0.
N320 G01 X1.5408
N330 G02 X2.875 Y0.89 I1.3342 J-0.39
N340 G01 X3.8653
N350 G02 X5.2563 Y-0.3449 I0.0097 J-1.39
N360 X5.2575 Y-0.3557 I-1.1329 J-0.1272
N370 X5.2654 Y-0.5109 I-1.5115 J-0.1552
N380 X5.265 Y-0.5469 I-1.5195 J0.
N390 G01 Y-1.9701
N400 G02 X5.2653 Y-1.9994 I-1.3903 J-0.0293
N410 X3.8621 Y-3.39 I-1.3906 J0.
N420 G01 X3.4714
N430 X3.4367 Y-3.587
N440 G00 Z0.2
N450 X3.5061
N460 Z-0.15
N470 G01 Z-0.4 F25.0
N480 X3.4714 Y-3.39 F50.0
N490 X0.3967
N500 G02 X-1.015 Y-1.9999 I-0.0214 J1.3901
N510 X-1.015 Y-1.9938 I1.3903 J0.
N520 G01 Y-1.5216
N530 G02 X-1.0152 Y-1.5003 I1.3901 J0.0213
N540 X0.3813 Y-0.11 I1.3903 J0.
N550 G01 X1.5408
N560 G02 X2.875 Y0.89 I1.3342 J-0.39
N570 G01 X3.8653
N580 G02 X5.2563 Y-0.3449 I0.0097 J-1.39
N590 X5.2575 Y-0.3557 I-1.1329 J-0.1272
N600 X5.2654 Y-0.5109 I-1.5115 J-0.1552
N610 X5.265 Y-0.5469 I-1.5195 J0.
N620 G01 Y-1.9701
N630 G02 X5.2653 Y-1.9994 I-1.3903 J-0.0293
N640 X3.8621 Y-3.39 I-1.3906 J0.
N650 G01 X3.4714
N660 X3.4367 Y-3.587
N670 G00 Z0.2
N680 X3.5061
N690 Z-0.35
N700 G01 Z-0.6 F25.0
N710 X3.4714 Y-3.39 F50.0
N720 X0.3967
N730 G02 X-1.015 Y-1.9999 I-0.0214 J1.3901
N740 X-1.015 Y-1.9938 I1.3903 J0.
N750 G01 Y-1.5216
N760 G02 X-1.0152 Y-1.5003 I1.3901 J0.0213
N770 X0.3813 Y-0.11 I1.3903 J0.
N780 G01 X1.5408
N790 G02 X2.875 Y0.89 I1.3342 J-0.39
N800 G01 X3.8653
N810 G02 X5.2563 Y-0.3449 I0.0097 J-1.39
N820 X5.2575 Y-0.3557 I-1.1329 J-0.1272
N830 X5.2654 Y-0.5109 I-1.5115 J-0.1552
N840 X5.265 Y-0.5469 I-1.5195 J0.
N850 G01 Y-1.9701
N860 G02 X5.2653 Y-1.9994 I-1.3903 J-0.0293
N870 X3.8621 Y-3.39 I-1.3906 J0.
N880 G01 X3.4714
N890 X3.4367 Y-3.587
N900 G00 Z0.2
N910 X3.5061 Y-3.462
N920 Z0.05
N930 G01 Z-0.2 F25.0
N940 X3.4714 Y-3.265 F50.0
N950 X0.3957
N960 G02 X-0.89 Y-1.9999 I-0.0204 J1.2651
N970 X-0.89 Y-1.9941 I1.2653 J0.
N980 G01 Y-1.5206
N990 G02 X-0.8902 Y-1.5003 I1.2651 J0.0203
N1000 X0.381 Y-0.235 I1.2653 J0.
N1010 G01 X1.6381
N1020 G02 X2.875 Y0.765 I1.2369 J-0.265
N1030 G01 X3.8657
N1040 G02 X5.1321 Y-0.3588 I0.0092 J-1.265
N1050 X5.1331 Y-0.3684 I-1.0087 J-0.1133
N1060 X5.1404 Y-0.5109 I-1.3872 J-0.1425
N1070 X5.14 Y-0.5454 I-1.3945 J0.
N1080 G01 Y-1.9714
N1090 G02 X5.1403 Y-1.9994 I-1.2653 J-0.028
N1100 X3.8627 Y-3.265 I-1.2656 J0.
N1110 G01 X3.4714
N1120 X3.4367 Y-3.462
N1130 G00 Z0.2
N1140 X3.5061
N1150 Z-0.15
N1160 G01 Z-0.4 F25.0
N1170 X3.4714 Y-3.265 F50.0
N1180 X0.3957
N1190 G02 X-0.89 Y-1.9999 I-0.0204 J1.2651
N1200 X-0.89 Y-1.9941 I1.2653 J0.
N1210 G01 Y-1.5206
N1220 G02 X-0.8902 Y-1.5003 I1.2651 J0.0203
N1230 X0.381 Y-0.235 I1.2653 J0.
N1240 G01 X1.6381
N1250 G02 X2.875 Y0.765 I1.2369 J-0.265
N1260 G01 X3.8657
N1270 G02 X5.1321 Y-0.3588 I0.0092 J-1.265
N1280 X5.1331 Y-0.3684 I-1.0087 J-0.1133
N1290 X5.1404 Y-0.5109 I-1.3872 J-0.1425
N1300 X5.14 Y-0.5454 I-1.3945 J0.
N1310 G01 Y-1.9714
N1320 G02 X5.1403 Y-1.9994 I-1.2653 J-0.028
N1330 X3.8627 Y-3.265 I-1.2656 J0.
N1340 G01 X3.4714
N1350 X3.4367 Y-3.462
N1360 G00 Z0.2
N1370 X3.5061
N1380 Z-0.35
N1390 G01 Z-0.6 F25.0
N1400 X3.4714 Y-3.265 F50.0
N1410 X0.3957
N1420 G02 X-0.89 Y-1.9999 I-0.0204 J1.2651
N1430 X-0.89 Y-1.9941 I1.2653 J0.
N1440 G01 Y-1.5206
N1450 G02 X-0.8902 Y-1.5003 I1.2651 J0.0203
N1460 X0.381 Y-0.235 I1.2653 J0.
N1470 G01 X1.6381
N1480 G02 X2.875 Y0.765 I1.2369 J-0.265
N1490 G01 X3.8657
N1500 G02 X5.1321 Y-0.3588 I0.0092 J-1.265
N1510 X5.1331 Y-0.3684 I-1.0087 J-0.1133
N1520 X5.1404 Y-0.5109 I-1.3872 J-0.1425
N1530 X5.14 Y-0.5454 I-1.3945 J0.
N1540 G01 Y-1.9714
N1550 G02 X5.1403 Y-1.9994 I-1.2653 J-0.028
N1560 X3.8627 Y-3.265 I-1.2656 J0.
N1570 G01 X3.4714
N1580 X3.4367 Y-3.462
N1590 G00 Z0.2
N1600 X3.5061 Y-3.337
N1610 Z0.05
N1620 G01 Z-0.2 F25.0
N1630 X3.4714 Y-3.14 F50.0
N1640 X0.3947
N1650 G02 X-0.765 Y-1.9999 I-0.0194 J1.1401
N1660 X-0.765 Y-1.9944 I1.1403 J0.
N1670 G01 Y-1.5196
N1680 G02 X-0.7652 Y-1.5003 I1.1401 J0.0193
N1690 X0.3807 Y-0.36 I1.1403 J0.
N1700 G01 X1.7436
N1710 G02 X2.875 Y0.64 I1.1314 J-0.14
N1720 G01 X3.8662
N1730 G02 X5.0079 Y-0.3728 I0.0087 J-1.14
N1740 X5.0088 Y-0.3812 I-0.8844 J-0.0993
N1750 X5.0154 Y-0.5109 I-1.2628 J-0.1297
N1760 X5.015 Y-0.5438 I-1.2695 J0.
N1770 G01 Y-1.9729
N1780 G02 X5.0153 Y-1.9994 I-1.1403 J-0.0266
N1790 X3.8633 Y-3.14 I-1.1406 J0.
N1800 G01 X3.4714
N1810 X3.4367 Y-3.337
N1820 G00 Z0.2
N1830 X3.5061
N1840 Z-0.15
N1850 G01 Z-0.4 F25.0
N1860 X3.4714 Y-3.14 F50.0
N1870 X0.3947
N1880 G02 X-0.765 Y-1.9999 I-0.0194 J1.1401
N1890 X-0.765 Y-1.9944 I1.1403 J0.
N1900 G01 Y-1.5196
N1910 G02 X-0.7652 Y-1.5003 I1.1401 J0.0193
N1920 X0.3807 Y-0.36 I1.1403 J0.
N1930 G01 X1.7436
N1940 G02 X2.875 Y0.64 I1.1314 J-0.14
N1950 G01 X3.8662
N1960 G02 X5.0079 Y-0.3728 I0.0087 J-1.14
N1970 X5.0088 Y-0.3812 I-0.8844 J-0.0993
N1980 X5.0154 Y-0.5109 I-1.2628 J-0.1297
N1990 X5.015 Y-0.5438 I-1.2695 J0.
N2000 G01 Y-1.9729
N2010 G02 X5.0153 Y-1.9994 I-1.1403 J-0.0266
N2020 X3.8633 Y-3.14 I-1.1406 J0.
N2030 G01 X3.4714
N2040 X3.4367 Y-3.337
N2050 G00 Z0.2
N2060 X3.5061
N2070 Z-0.35
N2080 G01 Z-0.6 F25.0
N2090 X3.4714 Y-3.14 F50.0
N2100 X0.3947
N2110 G02 X-0.765 Y-1.9999 I-0.0194 J1.1401
N2120 X-0.765 Y-1.9944 I1.1403 J0.
N2130 G01 Y-1.5196
N2140 G02 X-0.7652 Y-1.5003 I1.1401 J0.0193
N2150 X0.3807 Y-0.36 I1.1403 J0.
N2160 G01 X1.7436
N2170 G02 X2.875 Y0.64 I1.1314 J-0.14
N2180 G01 X3.8662
N2190 G02 X5.0079 Y-0.3728 I0.0087 J-1.14
N2200 X5.0088 Y-0.3812 I-0.8844 J-0.0993
N2210 X5.0154 Y-0.5109 I-1.2628 J-0.1297
N2220 X5.015 Y-0.5438 I-1.2695 J0.
N2230 G01 Y-1.9729
N2240 G02 X5.0153 Y-1.9994 I-1.1403 J-0.0266
N2250 X3.8633 Y-3.14 I-1.1406 J0.
N2260 G01 X3.4714
N2270 X3.4367 Y-3.337
N2280 G00 Z0.2
N2290 X3.5061 Y-3.212
N2300 Z0.05
N2310 G01 Z-0.2 F25.0
N2320 X3.4714 Y-3.015 F50.0
N2330 X0.3936
N2340 G02 X-0.64 Y-1.9999 I-0.0183 J1.0151
N2350 X-0.64 Y-1.9947 I1.0153 J0.
N2360 G01 Y-1.5185
N2370 G02 X-0.6402 Y-1.5003 I1.0151 J0.0182
N2380 X0.3804 Y-0.485 I1.0153 J0.
N2390 G01 X1.8601
N2400 G02 X2.875 Y0.515 I1.0149 J-0.015
N2410 G01 X3.8667
N2420 G02 X4.8837 Y-0.3867 I0.0083 J-1.015
N2430 X4.8844 Y-0.394 I-0.7602 J-0.0854
N2440 X4.8904 Y-0.5109 I-1.1385 J-0.1169
N2450 X4.89 Y-0.5421 I-1.1445 J0.
N2460 G01 Y-1.9744
N2470 G02 X4.8903 Y-1.9994 I-1.0153 J-0.0251
N2480 X3.8639 Y-3.015 I-1.0156 J0.
N2490 G01 X3.4714
N2500 X3.4367 Y-3.212
N2510 G00 Z0.2
N2520 X3.5061
N2530 Z-0.15
N2540 G01 Z-0.4 F25.0
N2550 X3.4714 Y-3.015 F50.0
N2560 X0.3936
N2570 G02 X-0.64 Y-1.9999 I-0.0183 J1.0151
N2580 X-0.64 Y-1.9947 I1.0153 J0.
N2590 G01 Y-1.5185
N2600 G02 X-0.6402 Y-1.5003 I1.0151 J0.0182
N2610 X0.3804 Y-0.485 I1.0153 J0.
N2620 G01 X1.8601
N2630 G02 X2.875 Y0.515 I1.0149 J-0.015
N2640 G01 X3.8667
N2650 G02 X4.8837 Y-0.3867 I0.0083 J-1.015
N2660 X4.8844 Y-0.394 I-0.7602 J-0.0854
N2670 X4.8904 Y-0.5109 I-1.1385 J-0.1169
N2680 X4.89 Y-0.5421 I-1.1445 J0.
N2690 G01 Y-1.9744
N2700 G02 X4.8903 Y-1.9994 I-1.0153 J-0.0251
N2710 X3.8639 Y-3.015 I-1.0156 J0.
N2720 G01 X3.4714
N2730 X3.4367 Y-3.212
N2740 G00 Z0.2
N2750 X3.5061
N2760 Z-0.35
N2770 G01 Z-0.6 F25.0
N2780 X3.4714 Y-3.015 F50.0
N2790 X0.3936
N2800 G02 X-0.64 Y-1.9999 I-0.0183 J1.0151
N2810 X-0.64 Y-1.9947 I1.0153 J0.
N2820 G01 Y-1.5185
N2830 G02 X-0.6402 Y-1.5003 I1.0151 J0.0182
N2840 X0.3804 Y-0.485 I1.0153 J0.
N2850 G01 X1.8601
N2860 G02 X2.875 Y0.515 I1.0149 J-0.015
N2870 G01 X3.8667
N2880 G02 X4.8837 Y-0.3867 I0.0083 J-1.015
N2890 X4.8844 Y-0.394 I-0.7602 J-0.0854
N2900 X4.8904 Y-0.5109 I-1.1385 J-0.1169
N2910 X4.89 Y-0.5421 I-1.1445 J0.
N2920 G01 Y-1.9744
N2930 G02 X4.8903 Y-1.9994 I-1.0153 J-0.0251
N2940 X3.8639 Y-3.015 I-1.0156 J0.
N2950 G01 X3.4714
N2960 X3.4367 Y-3.212
N2970 G00 Z0.2
N2980 X3.5061 Y-3.087
N2990 Z0.05
N3000 G01 Z-0.2 F25.0
N3010 X3.4714 Y-2.89 F50.0
N3020 X0.3924
N3030 G02 X-0.515 Y-1.9999 I-0.0171 J0.8901
N3040 X-0.515 Y-1.995 I0.8903 J0.
N3050 G01 Y-1.5174
N3060 G02 X-0.5152 Y-1.5003 I0.8901 J0.0171
N3070 X0.3801 Y-0.61 I0.8903 J0.
N3080 G01 X1.985
N3090 Y-0.5019
N3100 G02 X1.985 Y-0.5 I0.89 J0.0019
N3110 X2.875 Y0.39 I0.89 J0.
N3120 G01 X3.8672
N3130 G02 X4.7594 Y-0.4007 I0.0077 J-0.89
N3140 X4.7601 Y-0.4067 I-0.636 J-0.0714
N3150 X4.7654 Y-0.5109 I-1.0142 J-0.1042
N3160 X4.765 Y-0.5404 I-1.0195 J0.
N3170 G01 Y-1.9759
N3180 G02 X4.7653 Y-1.9994 I-0.8903 J-0.0235
N3190 X3.8646 Y-2.89 I-0.8906 J0.
N3200 G01 X3.4714
N3210 X3.4367 Y-3.087
N3220 G00 Z0.2
N3230 X3.5061
N3240 Z-0.15
N3250 G01 Z-0.4 F25.0
N3260 X3.4714 Y-2.89 F50.0
N3270 X0.3924
N3280 G02 X-0.515 Y-1.9999 I-0.0171 J0.8901
N3290 X-0.515 Y-1.995 I0.8903 J0.
N3300 G01 Y-1.5174
N3310 G02 X-0.5152 Y-1.5003 I0.8901 J0.0171
N3320 X0.3801 Y-0.61 I0.8903 J0.
N3330 G01 X1.985
N3340 Y-0.5019
N3350 G02 X1.985 Y-0.5 I0.89 J0.0019
N3360 X2.875 Y0.39 I0.89 J0.
N3370 G01 X3.8672
N3380 G02 X4.7594 Y-0.4007 I0.0077 J-0.89
N3390 X4.7601 Y-0.4067 I-0.636 J-0.0714
N3400 X4.7654 Y-0.5109 I-1.0142 J-0.1042
N3410 X4.765 Y-0.5404 I-1.0195 J0.
N3420 G01 Y-1.9759
N3430 G02 X4.7653 Y-1.9994 I-0.8903 J-0.0235
N3440 X3.8646 Y-2.89 I-0.8906 J0.
N3450 G01 X3.4714
N3460 X3.4367 Y-3.087
N3470 G00 Z0.2
N3480 X3.5061
N3490 Z-0.35
N3500 G01 Z-0.6 F25.0
N3510 X3.4714 Y-2.89 F50.0
N3520 X0.3924
N3530 G02 X-0.515 Y-1.9999 I-0.0171 J0.8901
N3540 X-0.515 Y-1.995 I0.8903 J0.
N3550 G01 Y-1.5174
N3560 G02 X-0.5152 Y-1.5003 I0.8901 J0.0171
N3570 X0.3801 Y-0.61 I0.8903 J0.
N3580 G01 X1.985
N3590 Y-0.5019
N3600 G02 X1.985 Y-0.5 I0.89 J0.0019
N3610 X2.875 Y0.39 I0.89 J0.
N3620 G01 X3.8672
N3630 G02 X4.7594 Y-0.4007 I0.0077 J-0.89
N3640 X4.7601 Y-0.4067 I-0.636 J-0.0714
N3650 X4.7654 Y-0.5109 I-1.0142 J-0.1042
N3660 X4.765 Y-0.5404 I-1.0195 J0.
N3670 G01 Y-1.9759
N3680 G02 X4.7653 Y-1.9994 I-0.8903 J-0.0235
N3690 X3.8646 Y-2.89 I-0.8906 J0.
N3700 G01 X3.4714
N3710 X3.4367 Y-3.087
N3720 G00 Z0.2
N3730 X3.5061 Y-2.962
N3740 Z0.05
N3750 G01 Z-0.2 F25.0
N3760 X3.4714 Y-2.765 F50.0
N3770 X0.3912
N3780 G02 X-0.39 Y-1.9999 I-0.0159 J0.7651
N3790 X-0.39 Y-1.9954 I0.7653 J0.
N3800 G01 Y-1.5161
N3810 G02 X-0.3902 Y-1.5003 I0.7651 J0.0158
N3820 X0.3797 Y-0.735 I0.7653 J0.
N3830 G01 X2.11
N3840 Y-0.5017
N3850 G02 X2.11 Y-0.5 I0.765 J0.0017
N3860 X2.875 Y0.265 I0.765 J0.
N3870 G01 X3.8678
N3880 G02 X4.6352 Y-0.4146 I0.0072 J-0.765
N3890 X4.6357 Y-0.4195 I-0.5118 J-0.0575
N3900 X4.6404 Y-0.5109 I-0.8898 J-0.0914
N3910 X4.64 Y-0.5385 I-0.8945 J0.
N3920 G01 Y-1.9777
N3930 G02 X4.6403 Y-1.9994 I-0.7653 J-0.0218
N3940 X3.8654 Y-2.765 I-0.7656 J0.
N3950 G01 X3.4714
N3960 X3.4367 Y-2.962
N3970 G00 Z0.2
N3980 X3.5061
N3990 Z-0.15
N4000 G01 Z-0.4 F25.0
N4010 X3.4714 Y-2.765 F50.0
N4020 X0.3912
N4030 G02 X-0.39 Y-1.9999 I-0.0159 J0.7651
N4040 X-0.39 Y-1.9954 I0.7653 J0.
N4050 G01 Y-1.5161
N4060 G02 X-0.3902 Y-1.5003 I0.7651 J0.0158
N4070 X0.3797 Y-0.735 I0.7653 J0.
N4080 G01 X2.11
N4090 Y-0.5017
N4100 G02 X2.11 Y-0.5 I0.765 J0.0017
N4110 X2.875 Y0.265 I0.765 J0.
N4120 G01 X3.8678
N4130 G02 X4.6352 Y-0.4146 I0.0072 J-0.765
N4140 X4.6357 Y-0.4195 I-0.5118 J-0.0575
N4150 X4.6404 Y-0.5109 I-0.8898 J-0.0914
N4160 X4.64 Y-0.5385 I-0.8945 J0.
N4170 G01 Y-1.9777
N4180 G02 X4.6403 Y-1.9994 I-0.7653 J-0.0218
N4190 X3.8654 Y-2.765 I-0.7656 J0.
N4200 G01 X3.4714
N4210 X3.4367 Y-2.962
N4220 G00 Z0.2
N4230 X3.5061
N4240 Z-0.35
N4250 G01 Z-0.6 F25.0
N4260 X3.4714 Y-2.765 F50.0
N4270 X0.3912
N4280 G02 X-0.39 Y-1.9999 I-0.0159 J0.7651
N4290 X-0.39 Y-1.9954 I0.7653 J0.
N4300 G01 Y-1.5161
N4310 G02 X-0.3902 Y-1.5003 I0.7651 J0.0158
N4320 X0.3797 Y-0.735 I0.7653 J0.
N4330 G01 X2.11
N4340 Y-0.5017
N4350 G02 X2.11 Y-0.5 I0.765 J0.0017
N4360 X2.875 Y0.265 I0.765 J0.
N4370 G01 X3.8678
N4380 G02 X4.6352 Y-0.4146 I0.0072 J-0.765
N4390 X4.6357 Y-0.4195 I-0.5118 J-0.0575
N4400 X4.6404 Y-0.5109 I-0.8898 J-0.0914
N4410 X4.64 Y-0.5385 I-0.8945 J0.
N4420 G01 Y-1.9777
N4430 G02 X4.6403 Y-1.9994 I-0.7653 J-0.0218
N4440 X3.8654 Y-2.765 I-0.7656 J0.
N4450 G01 X3.4714
N4460 X3.4367 Y-2.962
N4470 G00 Z0.2
N4480 X3.5061 Y-2.837
N4490 Z0.05
N4500 G01 Z-0.2 F25.0
N4510 X3.4714 Y-2.64 F50.0
N4520 X0.3898
N4530 G02 X-0.265 Y-1.9999 I-0.0145 J0.6401
N4540 X-0.265 Y-1.9958 I0.6403 J0.
N4550 G01 Y-1.5148
N4560 G02 X-0.2652 Y-1.5003 I0.6401 J0.0145
N4570 X0.3793 Y-0.86 I0.6403 J0.
N4580 G01 X2.235
N4590 Y-0.5016
N4600 G02 X2.235 Y-0.5 I0.64 J0.0016
N4610 X2.875 Y0.14 I0.64 J0.
N4620 G01 X3.8684
N4630 G02 X4.511 Y-0.4286 I0.0066 J-0.64
N4640 X4.5114 Y-0.4323 I-0.3876 J-0.0435
N4650 X4.5154 Y-0.5109 I-0.7655 J-0.0786
N4660 X4.515 Y-0.5365 I-0.7695 J0.
N4670 G01 Y-1.9795
N4680 G02 X4.5153 Y-1.9994 I-0.6403 J-0.0199
N4690 X3.8661 Y-2.64 I-0.6406 J0.
N4700 G01 X3.4714
N4710 X3.4367 Y-2.837
N4720 G00 Z0.2
N4730 X3.5061
N4740 Z-0.15
N4750 G01 Z-0.4 F25.0
N4760 X3.4714 Y-2.64 F50.0
N4770 X0.3898
N4780 G02 X-0.265 Y-1.9999 I-0.0145 J0.6401
N4790 X-0.265 Y-1.9958 I0.6403 J0.
N4800 G01 Y-1.5148
N4810 G02 X-0.2652 Y-1.5003 I0.6401 J0.0145
N4820 X0.3793 Y-0.86 I0.6403 J0.
N4830 G01 X2.235
N4840 Y-0.5016
N4850 G02 X2.235 Y-0.5 I0.64 J0.0016
N4860 X2.875 Y0.14 I0.64 J0.
N4870 G01 X3.8684
N4880 G02 X4.511 Y-0.4286 I0.0066 J-0.64
N4890 X4.5114 Y-0.4323 I-0.3876 J-0.0435
N4900 X4.5154 Y-0.5109 I-0.7655 J-0.0786
N4910 X4.515 Y-0.5365 I-0.7695 J0.
N4920 G01 Y-1.9795
N4930 G02 X4.5153 Y-1.9994 I-0.6403 J-0.0199
N4940 X3.8661 Y-2.64 I-0.6406 J0.
N4950 G01 X3.4714
N4960 X3.4367 Y-2.837
N4970 G00 Z0.2
N4980 X3.5061
N4990 Z-0.35
N5000 G01 Z-0.6 F25.0
N5010 X3.4714 Y-2.64 F50.0
N5020 X0.3898
N5030 G02 X-0.265 Y-1.9999 I-0.0145 J0.6401
N5040 X-0.265 Y-1.9958 I0.6403 J0.
N5050 G01 Y-1.5148
N5060 G02 X-0.2652 Y-1.5003 I0.6401 J0.0145
N5070 X0.3793 Y-0.86 I0.6403 J0.
N5080 G01 X2.235
N5090 Y-0.5016
N5100 G02 X2.235 Y-0.5 I0.64 J0.0016
N5110 X2.875 Y0.14 I0.64 J0.
N5120 G01 X3.8684
N5130 G02 X4.511 Y-0.4286 I0.0066 J-0.64
N5140 X4.5114 Y-0.4323 I-0.3876 J-0.0435
N5150 X4.5154 Y-0.5109 I-0.7655 J-0.0786
N5160 X4.515 Y-0.5365 I-0.7695 J0.
N5170 G01 Y-1.9795
N5180 G02 X4.5153 Y-1.9994 I-0.6403 J-0.0199
N5190 X3.8661 Y-2.64 I-0.6406 J0.
N5200 G01 X3.4714
N5210 X3.4367 Y-2.837
N5220 G00 Z0.2
N5230 X3.5061 Y-2.712
N5240 Z0.05
N5250 G01 Z-0.2 F25.0
N5260 X3.4714 Y-2.515 F50.0
N5270 X0.3883
N5280 G02 X-0.14 Y-1.9999 I-0.013 J0.5151
N5290 X-0.14 Y-1.9962 I0.5153 J0.
N5300 G01 Y-1.5133
N5310 G02 X-0.1402 Y-1.5003 I0.5151 J0.013
N5320 X0.3789 Y-0.985 I0.5153 J0.
N5330 G01 X2.36
N5340 Y-0.5014
N5350 G02 X2.36 Y-0.5 I0.515 J0.0014
N5360 X2.875 Y0.015 I0.515 J0.
N5370 G01 X3.8691
N5380 G02 X4.3868 Y-0.4425 I0.0059 J-0.515
N5390 X4.3871 Y-0.4451 I-0.2633 J-0.0296
N5400 X4.3904 Y-0.5109 I-0.6411 J-0.0658
N5410 X4.39 Y-0.5343 I-0.6445 J0.
N5420 G01 Y-1.9816
N5430 G02 X4.3903 Y-1.9994 I-0.5153 J-0.0179
N5440 X3.867 Y-2.515 I-0.5156 J0.
N5450 G01 X3.4714
N5460 X3.4367 Y-2.712
N5470 G00 Z0.2
N5480 X3.5061
N5490 Z-0.15
N5500 G01 Z-0.4 F25.0
N5510 X3.4714 Y-2.515 F50.0
N5520 X0.3883
N5530 G02 X-0.14 Y-1.9999 I-0.013 J0.5151
N5540 X-0.14 Y-1.9962 I0.5153 J0.
N5550 G01 Y-1.5133
N5560 G02 X-0.1402 Y-1.5003 I0.5151 J0.013
N5570 X0.3789 Y-0.985 I0.5153 J0.
N5580 G01 X2.36
N5590 Y-0.5014
N5600 G02 X2.36 Y-0.5 I0.515 J0.0014
N5610 X2.875 Y0.015 I0.515 J0.
N5620 G01 X3.8691
N5630 G02 X4.3868 Y-0.4425 I0.0059 J-0.515
N5640 X4.3871 Y-0.4451 I-0.2633 J-0.0296
N5650 X4.3904 Y-0.5109 I-0.6411 J-0.0658
N5660 X4.39 Y-0.5343 I-0.6445 J0.
N5670 G01 Y-1.9816
N5680 G02 X4.3903 Y-1.9994 I-0.5153 J-0.0179
N5690 X3.867 Y-2.515 I-0.5156 J0.
N5700 G01 X3.4714
N5710 X3.4367 Y-2.712
N5720 G00 Z0.2
N5730 X3.5061
N5740 Z-0.35
N5750 G01 Z-0.6 F25.0
N5760 X3.4714 Y-2.515 F50.0
N5770 X0.3883
N5780 G02 X-0.14 Y-1.9999 I-0.013 J0.5151
N5790 X-0.14 Y-1.9962 I0.5153 J0.
N5800 G01 Y-1.5133
N5810 G02 X-0.1402 Y-1.5003 I0.5151 J0.013
N5820 X0.3789 Y-0.985 I0.5153 J0.
N5830 G01 X2.36
N5840 Y-0.5014
N5850 G02 X2.36 Y-0.5 I0.515 J0.0014
N5860 X2.875 Y0.015 I0.515 J0.
N5870 G01 X3.8691
N5880 G02 X4.3868 Y-0.4425 I0.0059 J-0.515
N5890 X4.3871 Y-0.4451 I-0.2633 J-0.0296
N5900 X4.3904 Y-0.5109 I-0.6411 J-0.0658
N5910 X4.39 Y-0.5343 I-0.6445 J0.
N5920 G01 Y-1.9816
N5930 G02 X4.3903 Y-1.9994 I-0.5153 J-0.0179
N5940 X3.867 Y-2.515 I-0.5156 J0.
N5950 G01 X3.4714
N5960 X3.4367 Y-2.712
N5970 G00 Z0.2
N5980 X3.5061 Y-2.697
N5990 Z0.05
N6000 G01 Z-0.2 F25.0
N6010 X3.4714 Y-2.5 F50.0
N6020 X0.3881
N6030 G02 X-0.125 Y-1.9999 I-0.0129 J0.5001
N6040 X-0.125 Y-1.9962 I0.5003 J0.
N6050 G01 Y-1.5131
N6060 G02 X-0.1252 Y-1.5003 I0.5001 J0.0128
N6070 X0.3788 Y-1. I0.5003 J0.
N6080 G01 X2.374
N6090 G02 X2.375 Y-1. I0. J-0.25
N6100 G00 Z0.2
N6110 Y-0.5014
N6120 Z0.05
N6130 G01 Z-0.2 F25.0
N6140 G02 X2.375 Y-0.5 I0.5 J0.0014 F50.0
N6150 X2.875 Y0. I0.5 J0.
N6160 G01 X3.8691
N6170 G02 X4.3719 Y-0.4442 I0.0058 J-0.5
N6180 X4.3721 Y-0.4466 I-0.2484 J-0.0279
N6190 X4.3754 Y-0.5109 I-0.6262 J-0.0643
N6200 X4.375 Y-0.5341 I-0.6295 J0.
N6210 G01 Y-1.9818
N6220 G02 X4.3753 Y-1.9994 I-0.5003 J-0.0176
N6230 X3.8671 Y-2.5 I-0.5006 J0.
N6240 G01 X3.4714
N6250 X3.4367 Y-2.697
N6260 G00 Z0.2
N6270 X3.5061
N6280 Z-0.15
N6290 G01 Z-0.4 F25.0
N6300 X3.4714 Y-2.5 F50.0
N6310 X0.3881
N6320 G02 X-0.125 Y-1.9999 I-0.0129 J0.5001
N6330 X-0.125 Y-1.9962 I0.5003 J0.
N6340 G01 Y-1.5131
N6350 G02 X-0.1252 Y-1.5003 I0.5001 J0.0128
N6360 X0.3788 Y-1. I0.5003 J0.
N6370 G01 X2.374
N6380 G02 X2.375 Y-1. I0. J-0.25
N6390 G00 Z0.2
N6400 Y-0.5014
N6410 Z-0.15
N6420 G01 Z-0.4 F25.0
N6430 G02 X2.375 Y-0.5 I0.5 J0.0014 F50.0
N6440 X2.875 Y0. I0.5 J0.
N6450 G01 X3.8691
N6460 G02 X4.3719 Y-0.4442 I0.0058 J-0.5
N6470 X4.3721 Y-0.4466 I-0.2484 J-0.0279
N6480 X4.3754 Y-0.5109 I-0.6262 J-0.0643
N6490 X4.375 Y-0.5341 I-0.6295 J0.
N6500 G01 Y-1.9818
N6510 G02 X4.3753 Y-1.9994 I-0.5003 J-0.0176
N6520 X3.8671 Y-2.5 I-0.5006 J0.
N6530 G01 X3.4714
N6540 X3.4367 Y-2.697
N6550 G00 Z0.2
N6560 X3.5061
N6570 Z-0.35
N6580 G01 Z-0.6 F25.0
N6590 X3.4714 Y-2.5 F50.0
N6600 X0.3881
N6610 G02 X-0.125 Y-1.9999 I-0.0129 J0.5001
N6620 X-0.125 Y-1.9962 I0.5003 J0.
N6630 G01 Y-1.5131
N6640 G02 X-0.1252 Y-1.5003 I0.5001 J0.0128
N6650 X0.3788 Y-1. I0.5003 J0.
N6660 G01 X2.374
N6670 G02 X2.375 Y-1. I0. J-0.25
N6680 G00 Z0.2
N6690 Y-0.5014
N6700 Z-0.35
N6710 G01 Z-0.6 F25.0
N6720 G02 X2.375 Y-0.5 I0.5 J0.0014 F50.0
N6730 X2.875 Y0. I0.5 J0.
N6740 G01 X3.8691
N6750 G02 X4.3719 Y-0.4442 I0.0058 J-0.5
N6760 X4.3721 Y-0.4466 I-0.2484 J-0.0279
N6770 X4.3754 Y-0.5109 I-0.6262 J-0.0643
N6780 X4.375 Y-0.5341 I-0.6295 J0.
N6790 G01 Y-1.9818
N6800 G02 X4.3753 Y-1.9994 I-0.5003 J-0.0176
N6810 X3.8671 Y-2.5 I-0.5006 J0.
N6820 G01 X3.4714
N6830 X3.4367 Y-2.697
N6840 G00 Z0.2
N6850 (END TOOL)
N6860 M5
N6870 M09
N6880 M25
N6890 M30
%
