%
O0000
N10 (PART - )
N20 (FILE - E:\THEWARFIELDS\CNCCOOKBOOK\IMG\MILLSTUFF\TRAMADJUSTER\TRAMFINEAD)
N30 (AUTHOR - BOB WARFIELD)
N40 (GROUP - TOOLPATH GROUP #1)
N50 (POSTED - SATURDAY, JULY 03, 2010 13:45)
N60 (CREATED - SATURDAY, JULY 03, 2010 13:19)
N70 (SYSTEM- ONECNC-XR4 MILL 3D ADVANTAGE - VERSION 20.46)
N80 (NOTES - NONE)
N90 G49
N100 G17 G40
N110 G49
N120 G17 G40
N130 G20
N140 G80
N150 G90
N160 G98
N170 (3INCH END MILL)
N180 T0 M06
N190 S1600
N200 M08
N210 G43 H0 D0
N220 G00 X0.3808 Y0.4 Z0.2
N230 Z0.05
N240 G01 Z-0.02 F8.0 S1600
N250 X0.3795 Y-0.5 F30.0
N260 X1.8746
N270 G02 X2.0545 Y0.071 I1.0055 J-0.0031
N280 X2.0552 Y0.0719 I0.6157 J-0.4282
N290 X2.8727 Y0.5 I0.8206 J-0.5724
N300 X2.875 Y0.5 I0.0023 J-0.75
N310 G01 X3.796
N320 X3.8528
N330 G02 X3.9251 Y0.4984 I0.004 J-1.4184
N340 X3.931 Y0.498 I-0.0361 J-0.7491
N350 X4.8614 Y-0.3365 I-0.056 J-0.9984
N360 X4.8651 Y-0.3611 I-0.7399 J-0.1229
N370 X4.8752 Y-0.5149 I-1.1635 J-0.1538
N380 X4.875 Y-0.5379 I-1.1736 J0.
N390 G01 Y-1.9393
N400 G03 X4.8752 Y-1.9804 I5.2949 J0.0067
N410 G02 X4.8754 Y-1.9996 I-0.998 J-0.0192
N420 X4.6066 Y-2.681 I-0.9982 J0.
N430 X3.9291 Y-2.9985 I-0.732 J0.6803
N440 X3.9132 Y-2.9992 I-0.0409 J0.7489
N450 X3.8308 Y-3.0001 I-0.0598 J1.7942
N460 G03 X3.7454 Y-3. I-0.0632 J-21.1842
N470 G02 X3.7447 Y-3. I-0.0008 J0.75
N480 G01 X0.4204
N490 G02 X0.3941 Y-3.0001 I-0.033 J4.6846
N500 X-0.2431 Y-2.7858 I-0.0179 J1.0013
N510 X-0.2474 Y-2.7824 I0.4638 J0.5894
N520 X-0.5942 Y-2.2463 I0.6284 J0.7866
N530 X-0.5983 Y-2.2294 I0.7264 J0.1866
N540 X-0.6251 Y-1.9952 I1.008 J0.2342
N550 X-0.625 Y-1.978 I1.0348 J0.
N560 G01 Y-1.5648
N570 G02 X-0.625 Y-1.5636 I0.75 J0.
N580 G03 X-0.625 Y-1.557 I-4.2423 J0.0066
N590 X-0.6251 Y-1.5224 I-4.2423 J0.
N600 G02 X-0.6253 Y-1.5019 I1.0042 J0.0205
N610 X-0.4659 Y-0.959 I1.0044 J0.
N620 X-0.4636 Y-0.9554 I0.631 J-0.4054
N630 X0.3795 Y-0.5 I0.8396 J-0.5463
N640 G00 Z0.2
N650 X0.3808 Y0.4
N660 Z0.05
N670 G01 Z-0.02 F8.0
N680 X0.3761 Y-1.49 F30.0
N690 G03 X0.3777 Y-1.49 I0.0017 J0.24
N700 G01 X2.3733
N710 G03 X2.4956 Y-1.4748 I0.0023 J0.4822
N720 X2.8368 Y-1.1637 I-0.1216 J0.476
N730 X2.8374 Y-1.1622 I-0.2261 J0.0805
N740 X2.8652 Y-0.9982 I-0.4701 J0.164
N750 X2.865 Y-0.9854 I-0.4979 J0.
N760 G01 Y-0.5678
N770 G03 X2.865 Y-0.5592 I-4.1058 J0.0086
N780 X2.8647 Y-0.5098 I-4.1058 J0.
N790 X2.8646 Y-0.5037 I-0.24 J-0.0029
N800 G02 X2.8645 Y-0.5031 I0.0155 J0.0006
N810 X2.8672 Y-0.4944 I0.0155 J0.
N820 X2.8756 Y-0.49 I0.0085 J-0.0062
N830 G01 X3.796
N840 X3.854
N850 G03 X3.855 Y-0.49 I0. J0.24
N860 G02 X3.8759 Y-0.4904 I0.0018 J-0.4284
N870 X3.8843 Y-0.497 I-0.0009 J-0.01
N880 X3.8852 Y-0.5149 I-0.1827 J-0.018
N890 X3.8851 Y-0.5209 I-0.1836 J0.
N900 G03 X3.885 Y-0.5287 I0.2399 J-0.0078
N910 G01 Y-1.9398
N920 G03 X3.885 Y-1.94 I0.24 J0.
N930 X3.8853 Y-1.9947 I6.2849 J0.0075
N940 X3.8854 Y-1.9993 I0.24 J0.0024
N950 G02 X3.8854 Y-1.9996 I-0.0082 J-0.0002
N960 X3.8832 Y-2.0052 I-0.0082 J0.
N970 G03 X3.8815 Y-2.007 I0.1747 J-0.1645
N980 G02 X3.876 Y-2.0099 I-0.0069 J0.0063
N990 X3.8409 Y-2.0101 I-0.0226 J0.8049
N1000 G03 X3.8379 Y-2.0101 I-0.0037 J-0.24
N1010 X3.7445 Y-2.01 I-0.0704 J-22.1742
N1020 G01 X0.4177
N1030 G03 X0.4158 Y-2.01 I0. J-0.24
N1040 G02 X0.3852 Y-2.0101 I-0.0284 J3.6947
N1050 G03 X0.3766 Y-2.0103 I-0.0001 J-0.24
N1060 G02 X0.3697 Y-2.0083 I-0.0004 J0.0114
N1070 X0.3654 Y-2.0021 I0.0112 J0.0125
N1080 X0.3649 Y-1.9952 I0.0443 J0.0068
N1090 X0.3649 Y-1.9938 I0.0448 J0.
N1100 G03 X0.365 Y-1.9862 I-0.2399 J0.0076
N1110 G01 Y-1.565
N1120 G03 X0.365 Y-1.557 I-5.2323 J0.008
N1130 X0.3648 Y-1.5078 I-5.2323 J0.
N1140 X0.3647 Y-1.5024 I-0.24 J-0.0023
N1150 G02 X0.3647 Y-1.5019 I0.0144 J0.0005
N1160 X0.3666 Y-1.4948 I0.0144 J0.
N1170 X0.3761 Y-1.49 I0.0094 J-0.0069
N1180 G00 Z0.2
N1190 X3.796 Y1.4
N1200 Z0.05
N1210 G01 Z-0.02 F8.0
N1220 Y-0.49 F30.0
N1230 X3.39 Y-0.985
N1240 Y-1.515
N1250 X3.2145
N1260 G03 X3.3031 Y-1.3298 I-0.8404 J0.5162
N1270 X3.3047 Y-1.3253 I-0.6924 J0.2467
N1280 X3.3602 Y-0.9982 I-0.9374 J0.3271
N1290 X3.3601 Y-0.985 I-0.9929 J0.
N1300 G01 X3.39
N1310 X3.796
N1320 G00 Z0.2
N1330 (END TOOL)
N1340 M5
N1350 M09
N1360 M25
N1370 M30
%
