%
O0000
N10 (PART - )
N20 (FILE - E:\THEWARFIELDS\CNCCOOKBOOK\IMG\MILLSTUFF\TRAMADJUSTER\TRAMFINEAD)
N30 (AUTHOR - BOB WARFIELD)
N40 (GROUP - TOOLPATH GROUP #1)
N50 (POSTED - SATURDAY, JULY 03, 2010 13:46)
N60 (CREATED - SATURDAY, JULY 03, 2010 13:19)
N70 (SYSTEM- ONECNC-XR4 MILL 3D ADVANTAGE - VERSION 20.46)
N80 (NOTES - NONE)
N90 G49
N100 G17 G40
N110 G49
N120 G17 G40
N130 G20
N140 G80
N150 G90
N160 G98
N170 (0.272INCH DRILL, 118 INC)
N180 T0 M06
N190 S1600
N200 M08
N210 G43 H0 D0
N220 G00 X3.625 Y-0.75 Z0.2
N230 Z0.05
N240 G01 Z-0.048 F5.0 S1600
N250 G00 Z0.002
N260 G01 Z-0.1459
N270 G00 Z-0.0959
N280 G01 Z-0.2439
N290 G00 Z-0.1939
N300 G01 Z-0.3419
N310 G00 Z-0.2919
N320 G01 Z-0.4398
N330 G00 Z-0.3898
N340 G01 Z-0.5378
N350 G00 Z-0.4878
N360 G01 Z-0.6358
N370 G00 Z-0.5858
N380 G01 Z-0.7337
N390 G00 Z-0.6837
N400 G01 Z-0.8317
N410 G00 Z0.05
N420 Z0.2
N430 Y-1.75
N440 Z0.05
N450 G01 Z-0.048
N460 G00 Z0.002
N470 G01 Z-0.1459
N480 G00 Z-0.0959
N490 G01 Z-0.2439
N500 G00 Z-0.1939
N510 G01 Z-0.3419
N520 G00 Z-0.2919
N530 G01 Z-0.4398
N540 G00 Z-0.3898
N550 G01 Z-0.5378
N560 G00 Z-0.4878
N570 G01 Z-0.6358
N580 G00 Z-0.5858
N590 G01 Z-0.7337
N600 G00 Z-0.6837
N610 G01 Z-0.8317
N620 G00 Z0.05
N630 G00 Z0.2
N640 (END TOOL)
N650 M5
N660 M09
N670 M25
N680 M30
%
