%
O0000
N10 (PART - )
N20 (FILE - E:\CNC TOOLS\RHINODRAWINGS\GWIZARD\SLOT.3DM)
N30 (AUTHOR - BOB WARFIELD)
N40 (GROUP - TOOLPATH GROUP #1)
N50 (POSTED - THURSDAY, FEBRUARY 24, 2011 17:44)
N60 (CREATED - THURSDAY, FEBRUARY 24, 2011 17:30)
N70 (SYSTEM- ONECNC-XR4 MILL 3D ADVANTAGE - VERSION 20.46)
N80 (NOTES - NONE)
N90 G49
N100 G17 G40
N110 G49
N120 G17 G40
N130 G20
N140 G80
N150 G90
N160 G98
N170 (0.25INCH END MILL)
N180 T0 M06
N190 S0
N200 M08
N210 G43 H0 D0
N220 G00 X7.125 Y1.5 Z0.2
N230 G01 X7.1209 Y1.5316 Z1.0466 F16.0 S0
N240 X7.109 Y1.5611 Z1.0433
N250 X7.0901 Y1.5867 Z1.0399
N260 X7.0653 Y1.6066 Z1.0366
N270 X7.0362 Y1.6196 Z1.0332
N280 X7.0048 Y1.6249 Z1.0299
N290 X6.9731 Y1.6221 Z1.0265
N300 X6.9431 Y1.6113 Z1.0232
N310 X6.9169 Y1.5933 Z1.0198
N320 X6.896 Y1.5693 Z1.0164
N330 X6.8818 Y1.5408 Z1.0131
N340 X6.8754 Y1.5096 Z1.0097
N350 X6.877 Y1.4778 Z1.0064
N360 X6.8866 Y1.4474 Z1.003
N370 X6.9035 Y1.4205 Z0.9997
N380 X6.9268 Y1.3987 Z0.9963
N390 X6.9547 Y1.3835 Z0.993
N400 X6.9856 Y1.3758 Z0.9896
N410 X7.0175 Y1.3762 Z0.9862
N420 X7.0482 Y1.3847 Z0.9829
N430 X7.0757 Y1.4006 Z0.9795
N440 X7.0984 Y1.4229 Z0.9762
N450 X7.1147 Y1.4503 Z0.9728
N460 X7.1235 Y1.4809 Z0.9695
N470 X7.1244 Y1.5127 Z0.9661
N480 X7.1171 Y1.5437 Z0.9628
N490 X7.1023 Y1.5719 Z0.9594
N500 X7.0808 Y1.5954 Z0.956
N510 X7.0541 Y1.6127 Z0.9527
N520 X7.0239 Y1.6227 Z0.9493
N530 X6.9921 Y1.6247 Z0.946
N540 X6.9608 Y1.6187 Z0.9426
N550 X6.9321 Y1.605 Z0.9393
N560 X6.9078 Y1.5844 Z0.9359
N570 X6.8895 Y1.5584 Z0.9326
N580 X6.8783 Y1.5286 Z0.9292
N590 X6.875 Y1.4969 Z0.9259
N600 X6.8799 Y1.4654 Z0.9225
N610 X6.8925 Y1.4362 Z0.9191
N620 X6.9121 Y1.4111 Z0.9158
N630 X6.9374 Y1.3918 Z0.9124
N640 X6.9668 Y1.3795 Z0.9091
N650 X6.9983 Y1.375 Z0.9057
N660 X7.0299 Y1.3786 Z0.9024
N670 X7.0596 Y1.3901 Z0.899
N680 X7.0854 Y1.4088 Z0.8957
N690 X7.1057 Y1.4333 Z0.8923
N700 X7.1191 Y1.4622 Z0.8889
N710 X7.1248 Y1.4935 Z0.8856
N720 X7.1224 Y1.5252 Z0.8822
N730 X7.1121 Y1.5554 Z0.8789
N740 X7.0945 Y1.5819 Z0.8755
N750 X7.0707 Y1.6031 Z0.8722
N760 X7.0424 Y1.6176 Z0.8688
N770 X7.0113 Y1.6245 Z0.8655
N780 X6.9795 Y1.6233 Z0.8621
N790 X6.949 Y1.6141 Z0.8587
N800 X6.9218 Y1.5975 Z0.8554
N810 X6.8997 Y1.5746 Z0.852
N820 X6.8841 Y1.5469 Z0.8487
N830 X6.876 Y1.5161 Z0.8453
N840 Y1.4842 Z0.842
N850 X6.884 Y1.4534 Z0.8386
N860 X6.8995 Y1.4256 Z0.8353
N870 X6.9216 Y1.4027 Z0.8319
N880 X6.9487 Y1.386 Z0.8285
N890 X6.9792 Y1.3767 Z0.8252
N900 X7.011 Y1.3755 Z0.8218
N910 X7.0421 Y1.3823 Z0.8185
N920 X7.0705 Y1.3968 Z0.8151
N930 X7.0943 Y1.4179 Z0.8118
N940 X7.1119 Y1.4444 Z0.8084
N950 X7.1224 Y1.4745 Z0.8051
N960 X7.1248 Y1.5062 Z0.8017
N970 X7.1192 Y1.5375 Z0.7983
N980 X7.1059 Y1.5664 Z0.795
N990 X7.0857 Y1.591 Z0.7916
N1000 X7.0599 Y1.6097 Z0.7883
N1010 X7.0302 Y1.6213 Z0.7849
N1020 X6.9986 Y1.625 Z0.7816
N1030 X6.9671 Y1.6206 Z0.7782
N1040 X6.9377 Y1.6084 Z0.7749
N1050 X6.9123 Y1.5891 Z0.7715
N1060 X6.8927 Y1.564 Z0.7681
N1070 X6.88 Y1.5349 Z0.7648
N1080 X6.875 Y1.5034 Z0.7614
N1090 X6.8782 Y1.4717 Z0.7581
N1100 X6.8893 Y1.4419 Z0.7547
N1110 X6.9076 Y1.4158 Z0.7514
N1120 X6.9319 Y1.3952 Z0.748
N1130 X6.9606 Y1.3814 Z0.7447
N1140 X6.9918 Y1.3753 Z0.7413
N1150 X7.0236 Y1.3772 Z0.7379
N1160 X7.0538 Y1.3872 Z0.7346
N1170 X7.0806 Y1.4044 Z0.7312
N1180 X7.1021 Y1.4279 Z0.7279
N1190 X7.117 Y1.456 Z0.7245
N1200 X7.1243 Y1.487 Z0.7212
N1210 X7.1236 Y1.5188 Z0.7178
N1220 X7.1148 Y1.5495 Z0.7145
N1230 X7.0986 Y1.5769 Z0.7111
N1240 X7.076 Y1.5993 Z0.7078
N1250 X7.0484 Y1.6152 Z0.7044
N1260 X7.0177 Y1.6237 Z0.701
N1270 X6.9859 Y1.6242 Z0.6977
N1280 X6.955 Y1.6166 Z0.6943
N1290 X6.927 Y1.6015 Z0.691
N1300 X6.9037 Y1.5797 Z0.6876
N1310 X6.8867 Y1.5528 Z0.6843
N1320 X6.877 Y1.5225 Z0.6809
N1330 X6.8753 Y1.4907 Z0.6776
N1340 X6.8817 Y1.4595 Z0.6742
N1350 X6.8958 Y1.4309 Z0.6708
N1360 X6.9166 Y1.4069 Z0.6675
N1370 X6.9429 Y1.3888 Z0.6641
N1380 X6.9728 Y1.378 Z0.6608
N1390 X7.0045 Y1.3751 Z0.6574
N1400 X7.0359 Y1.3803 Z0.6541
N1410 X7.065 Y1.3932 Z0.6507
N1420 X7.0899 Y1.4131 Z0.6474
N1430 X7.1089 Y1.4386 Z0.644
N1440 X7.1209 Y1.4681 Z0.6406
N1450 X7.125 Y1.4997 Z0.6373
N1460 X7.121 Y1.5313 Z0.6339
N1470 X7.1092 Y1.5609 Z0.6306
N1480 X7.0903 Y1.5865 Z0.6272
N1490 X7.0655 Y1.6065 Z0.6239
N1500 X7.0365 Y1.6196 Z0.6205
N1510 X7.0051 Y1.6249 Z0.6172
N1520 X6.9734 Y1.6221 Z0.6138
N1530 X6.9434 Y1.6114 Z0.6104
N1540 X6.9171 Y1.5935 Z0.6071
N1550 X6.8961 Y1.5695 Z0.6037
N1560 X6.8819 Y1.541 Z0.6004
N1570 X6.8754 Y1.5099 Z0.597
N1580 X6.8769 Y1.4781 Z0.5937
N1590 X6.8865 Y1.4477 Z0.5903
N1600 X6.9034 Y1.4207 Z0.587
N1610 X6.9265 Y1.3989 Z0.5836
N1620 X6.9544 Y1.3836 Z0.5802
N1630 X6.9853 Y1.3759 Z0.5769
N1640 X7.0172 Y1.3762 Z0.5735
N1650 X7.0479 Y1.3845 Z0.5702
N1660 X7.0755 Y1.4004 Z0.5668
N1670 X7.0982 Y1.4227 Z0.5635
N1680 X7.1146 Y1.45 Z0.5601
N1690 X7.1235 Y1.4806 Z0.5568
N1700 X7.1244 Y1.5124 Z0.5534
N1710 X7.1172 Y1.5434 Z0.55
N1720 X7.1024 Y1.5716 Z0.5467
N1730 X7.081 Y1.5952 Z0.5433
N1740 X7.0544 Y1.6126 Z0.54
N1750 X7.0242 Y1.6226 Z0.5366
N1760 X6.9924 Y1.6248 Z0.5333
N1770 X6.9611 Y1.6188 Z0.5299
N1780 X6.9324 Y1.6051 Z0.5266
N1790 X6.908 Y1.5846 Z0.5232
N1800 X6.8896 Y1.5586 Z0.5198
N1810 X6.8784 Y1.5288 Z0.5165
N1820 X6.875 Y1.4972 Z0.5131
N1830 X7. Y1.5 Z0.5 F32.0
N1840 Y1.375
N1850 G03 X7.125 Y1.5 I0. J0.125
N1860 X7. Y1.625 I-0.125 J0.
N1870 X6.7813 Y1.4063 I0. J-0.2187
N1880 X7. Y1.1875 I0.2187 J0.
N1890 X7.3125 Y1.5 I0. J0.3125
N1900 X7. Y1.8125 I-0.3125 J0.
N1910 X6.5938 Y1.4063 I0. J-0.4062
N1920 X7. Y1. I0.4062 J0.
N1930 X7.5 Y1.5 I0. J0.5
N1940 X7. Y2. I-0.5 J0.
N1950 X6.4063 Y1.4063 I0. J-0.5937
N1960 X7. Y0.8125 I0.5937 J0.
N1970 X7.6875 Y1.5 I0. J0.6875
N1980 X7. Y2.1875 I-0.6875 J0.
N1990 X6.2188 Y1.4063 I0. J-0.7812
N2000 X7. Y0.625 I0.7812 J0.
N2010 X7.875 Y1.5 I0. J0.875
N2020 X6.125 Y1.5 I-0.875 J0.
N2030 X7. Y0.625 I0.875 J0.
N2040 X7.2572 Y0.7086 I0. J0.4375
N2050 G00 Z0.2
N2060 X7.8125 Y1.5
N2070 G01 Z0.5 F16.0
N2080 X7.8631 Y1.4633 F32.0
N2090 G03 X7.875 Y1.5 I-0.0506 J0.0367
N2100 X6.125 Y1.5 I-0.875 J0.
N2110 X7.875 Y1.5 I0.875 J0.
N2120 X7.8631 Y1.5367 I-0.0625 J0.
N2130 G01 X7.8125 Y1.5
N2140 G00 Z0.2
N2150 (END TOOL)
N2160 M5
N2170 M09
N2180 M25
N2190 M30
%
